(G-CODE GENERATED BY FLATCAM v8.994 - www.flatcam.org - Version Date: 2020/11/7)

(Name: copper_bottom.gbr_iso_combined_cnc)
(Type: G-code from Geometry)
(Units: MM)

(Created on Sunday, 03 April 2022 at 13:28)

(This preprocessor is the default preprocessor used by FlatCAM.)
(It is made to work with MACH3 compatible motion controllers.)

(TOOL DIAMETER: 0.508 mm)
(Feedrate_XY: 325.0 mm/min)
(Feedrate_Z: 100.0 mm/min)
(Feedrate rapids 400.0 mm/min)

(Z_Cut: -0.4 mm)
(Z_Move: 5.0 mm)
(Z Start: None mm)
(Z End: 15.0 mm)
(X,Y End: None mm)
(Steps per circle: 64)
(Preprocessor Geometry: default)

(X range:  -97.6883 ...   54.5083  mm)
(Y range:  -37.9983 ...   63.3983  mm)

(Spindle Speed: 29000.0 RPM)
G21
G90
G94

G01 F325.00

M5
G00 Z15.0000
G00 X0.0000 Y0.0000
T2
M6    
(MSG, Change to Tool Dia = 0.5080)
M0
G00 Z15.0000

M03 S29000.0
G01 F325.00
G00 X10.9719 Y5.2325
G01 F100.00
G01 Z-0.4000
G01 F325.00
G01 X8.5382 Y5.2325
G01 X8.5382 Y-5.3591
G01 X10.9734 Y-5.3581
G01 X13.2457 Y-3.0857
G01 X13.2618 Y-3.0700
G01 X13.2782 Y-3.0548
G01 X13.4168 Y-2.9292
G01 X13.4336 Y-2.9143
G01 X13.4508 Y-2.8998
G01 X13.4683 Y-2.8858
G01 X13.6364 Y-2.7608
G01 X13.6546 Y-2.7477
G01 X13.6731 Y-2.7350
G01 X13.6919 Y-2.7227
G01 X13.7110 Y-2.7110
G01 X13.8714 Y-2.6148
G01 X13.8908 Y-2.6035
G01 X13.9105 Y-2.5927
G01 X13.9304 Y-2.5823
G01 X13.9506 Y-2.5725
G01 X14.1197 Y-2.4925
G01 X14.1401 Y-2.4832
G01 X14.1607 Y-2.4743
G01 X14.1815 Y-2.4660
G01 X14.2026 Y-2.4582
G01 X14.3787 Y-2.3952
G01 X14.3999 Y-2.3879
G01 X14.4213 Y-2.3811
G01 X14.4428 Y-2.3748
G01 X14.4646 Y-2.3691
G01 X14.6460 Y-2.3237
G01 X14.6678 Y-2.3185
G01 X14.6898 Y-2.3138
G01 X14.7118 Y-2.3097
G01 X14.7340 Y-2.3062
G01 X14.9190 Y-2.2787
G01 X14.9413 Y-2.2757
G01 X14.9636 Y-2.2732
G01 X14.9859 Y-2.2713
G01 X15.0083 Y-2.2699
G01 X15.1951 Y-2.2607
G01 X15.2176 Y-2.2599
G01 X15.2400 Y-2.2596
G01 X37.1095 Y-2.2596
G01 X37.1095 Y2.2596
G01 X15.1130 Y2.2596
G01 X15.0906 Y2.2599
G01 X15.0681 Y2.2607
G01 X14.8813 Y2.2699
G01 X14.8589 Y2.2713
G01 X14.8366 Y2.2732
G01 X14.8143 Y2.2757
G01 X14.6070 Y2.3062
G01 X14.5848 Y2.3097
G01 X14.5628 Y2.3138
G01 X14.5408 Y2.3185
G01 X14.5190 Y2.3237
G01 X14.3376 Y2.3691
G01 X14.3158 Y2.3748
G01 X14.2943 Y2.3811
G01 X14.2729 Y2.3879
G01 X14.2517 Y2.3952
G01 X14.0756 Y2.4582
G01 X14.0545 Y2.4660
G01 X14.0337 Y2.4743
G01 X14.0131 Y2.4832
G01 X13.9927 Y2.4925
G01 X13.8236 Y2.5725
G01 X13.8034 Y2.5823
G01 X13.7835 Y2.5927
G01 X13.7638 Y2.6035
G01 X13.7444 Y2.6148
G01 X13.5840 Y2.7110
G01 X13.5649 Y2.7227
G01 X13.5461 Y2.7350
G01 X13.5276 Y2.7477
G01 X13.5094 Y2.7608
G01 X13.3413 Y2.8858
G01 X13.3238 Y2.8998
G01 X13.3066 Y2.9143
G01 X13.2898 Y2.9292
G01 X13.1512 Y3.0548
G01 X13.1348 Y3.0700
G01 X13.1187 Y3.0857
G01 X10.9719 Y5.2325
G00 Z5.0000
G00 X11.1087 Y5.5627
G01 F100.00
G01 Z-0.4000
G01 F325.00
G01 X8.2080 Y5.5627
G01 X8.2080 Y-5.6894
G01 X11.1102 Y-5.6882
G01 X13.4792 Y-3.3192
G01 X13.5000 Y-3.2994
G01 X13.6386 Y-3.1738
G01 X13.6493 Y-3.1643
G01 X13.6715 Y-3.1461
G01 X13.8331 Y-3.0260
G01 X13.8565 Y-3.0095
G01 X13.8808 Y-2.9942
G01 X14.0412 Y-2.8980
G01 X14.0662 Y-2.8839
G01 X14.0918 Y-2.8710
G01 X14.2608 Y-2.7910
G01 X14.2871 Y-2.7794
G01 X14.3138 Y-2.7691
G01 X14.4899 Y-2.7061
G01 X14.5171 Y-2.6971
G01 X14.5448 Y-2.6894
G01 X14.7262 Y-2.6440
G01 X14.7542 Y-2.6377
G01 X14.7824 Y-2.6328
G01 X14.9675 Y-2.6053
G01 X14.9959 Y-2.6018
G01 X15.0245 Y-2.5997
G01 X15.2113 Y-2.5906
G01 X15.2400 Y-2.5898
G01 X37.4397 Y-2.5898
G01 X37.4397 Y2.5898
G01 X15.1130 Y2.5898
G01 X15.0843 Y2.5906
G01 X14.8975 Y2.5997
G01 X14.8832 Y2.6006
G01 X14.8547 Y2.6034
G01 X14.6554 Y2.6328
G01 X14.6272 Y2.6377
G01 X14.5992 Y2.6440
G01 X14.4178 Y2.6894
G01 X14.3901 Y2.6971
G01 X14.3629 Y2.7061
G01 X14.1868 Y2.7691
G01 X14.1601 Y2.7794
G01 X14.1338 Y2.7910
G01 X13.9648 Y2.8710
G01 X13.9392 Y2.8839
G01 X13.9142 Y2.8980
G01 X13.7538 Y2.9942
G01 X13.7295 Y3.0095
G01 X13.7061 Y3.0260
G01 X13.5445 Y3.1461
G01 X13.5333 Y3.1551
G01 X13.5116 Y3.1738
G01 X13.3730 Y3.2994
G01 X13.3522 Y3.3192
G01 X11.1087 Y5.5627
G00 Z5.0000
G00 X11.2455 Y5.8929
G01 F100.00
G01 Z-0.4000
G01 F325.00
G01 X7.8778 Y5.8929
G01 X7.8778 Y-6.0198
G01 X11.2470 Y-6.0183
G01 X13.7127 Y-3.5527
G01 X13.7217 Y-3.5441
G01 X13.8603 Y-3.4185
G01 X13.8697 Y-3.4103
G01 X13.8796 Y-3.4027
G01 X14.0298 Y-3.2912
G01 X14.0400 Y-3.2841
G01 X14.0505 Y-3.2774
G01 X14.2110 Y-3.1812
G01 X14.2218 Y-3.1751
G01 X14.2329 Y-3.1695
G01 X14.4020 Y-3.0895
G01 X14.4134 Y-3.0845
G01 X14.4251 Y-3.0800
G01 X14.6012 Y-3.0170
G01 X14.6130 Y-3.0131
G01 X14.6250 Y-3.0097
G01 X14.8065 Y-2.9643
G01 X14.8186 Y-2.9616
G01 X14.8309 Y-2.9594
G01 X15.0159 Y-2.9320
G01 X15.0283 Y-2.9304
G01 X15.0407 Y-2.9295
G01 X15.2275 Y-2.9204
G01 X15.2400 Y-2.9200
G01 X37.7699 Y-2.9200
G01 X37.7699 Y2.9200
G01 X15.1130 Y2.9200
G01 X15.1005 Y2.9204
G01 X14.9137 Y2.9295
G01 X14.8951 Y2.9311
G01 X14.7039 Y2.9594
G01 X14.6916 Y2.9616
G01 X14.6795 Y2.9643
G01 X14.4980 Y3.0097
G01 X14.4860 Y3.0131
G01 X14.4742 Y3.0170
G01 X14.2981 Y3.0800
G01 X14.2864 Y3.0845
G01 X14.2750 Y3.0895
G01 X14.1059 Y3.1695
G01 X14.0948 Y3.1751
G01 X14.0840 Y3.1812
G01 X13.9235 Y3.2774
G01 X13.9130 Y3.2841
G01 X13.9028 Y3.2912
G01 X13.7526 Y3.4027
G01 X13.7427 Y3.4103
G01 X13.7333 Y3.4185
G01 X13.5947 Y3.5441
G01 X13.5857 Y3.5527
G01 X11.2455 Y5.8929
G00 Z5.0000
G00 X14.9605 Y18.4649
G01 F100.00
G01 Z-0.4000
G01 F325.00
G01 X14.9605 Y17.9334
G01 X21.5648 Y17.9334
G01 X37.1095 Y33.4781
G01 X37.1095 Y36.5496
G01 X33.0452 Y36.5496
G01 X14.9605 Y18.4649
G00 Z5.0000
G00 X14.6303 Y18.6017
G01 F100.00
G01 Z-0.4000
G01 F325.00
G01 X14.6303 Y17.6032
G01 X21.7015 Y17.6032
G01 X37.4397 Y33.3413
G01 X37.4397 Y36.8798
G01 X32.9085 Y36.8798
G01 X14.6303 Y18.6017
G00 Z5.0000
G00 X14.3001 Y18.7385
G01 F100.00
G01 Z-0.4000
G01 F325.00
G01 X14.3001 Y17.2730
G01 X21.8383 Y17.2730
G01 X37.7699 Y33.2045
G01 X37.7699 Y37.2100
G01 X32.7717 Y37.2100
G01 X14.3001 Y18.7385
G00 Z5.0000
G00 X5.7256 Y30.2462
G01 F100.00
G01 Z-0.4000
G01 F325.00
G01 X5.7286 Y30.2685
G01 X5.7311 Y30.2908
G01 X5.7330 Y30.3131
G01 X5.7393 Y30.4351
G01 X5.7401 Y30.4576
G01 X5.7404 Y30.4800
G01 X5.7401 Y30.5024
G01 X5.7393 Y30.5249
G01 X5.7330 Y30.6469
G01 X5.7311 Y30.6692
G01 X5.7286 Y30.6915
G01 X5.7256 Y30.7138
G01 X5.7110 Y30.8124
G01 X5.7074 Y30.8345
G01 X5.7033 Y30.8566
G01 X5.6987 Y30.8786
G01 X5.6935 Y30.9004
G01 X5.6635 Y31.0188
G01 X5.6573 Y31.0404
G01 X5.6505 Y31.0618
G01 X5.6432 Y31.0830
G01 X5.6096 Y31.1769
G01 X5.6018 Y31.1979
G01 X5.5935 Y31.2187
G01 X5.5846 Y31.2394
G01 X5.5753 Y31.2598
G01 X5.5326 Y31.3499
G01 X5.5228 Y31.3701
G01 X5.5125 Y31.3900
G01 X5.5016 Y31.4096
G01 X5.4903 Y31.4290
G01 X5.4391 Y31.5146
G01 X5.4273 Y31.5337
G01 X5.4151 Y31.5525
G01 X5.4024 Y31.5710
G01 X5.3892 Y31.5892
G01 X5.3162 Y31.6871
G01 X5.3022 Y31.7046
G01 X5.2878 Y31.7218
G01 X5.2729 Y31.7386
G01 X5.2059 Y31.8125
G01 X5.1907 Y31.8289
G01 X5.1750 Y31.8450
G01 X5.1589 Y31.8607
G01 X5.1425 Y31.8759
G01 X5.0686 Y31.9429
G01 X5.0518 Y31.9578
G01 X5.0346 Y31.9722
G01 X5.0171 Y31.9862
G01 X4.9993 Y31.9998
G01 X4.9192 Y32.0592
G01 X4.9010 Y32.0724
G01 X4.8825 Y32.0851
G01 X4.8637 Y32.0973
G01 X4.8446 Y32.1091
G01 X4.7590 Y32.1603
G01 X4.7396 Y32.1716
G01 X4.7200 Y32.1825
G01 X4.7001 Y32.1928
G01 X4.6799 Y32.2026
G01 X4.5898 Y32.2453
G01 X4.5694 Y32.2546
G01 X4.5487 Y32.2635
G01 X4.5279 Y32.2718
G01 X4.5069 Y32.2796
G01 X4.4130 Y32.3132
G01 X4.3918 Y32.3205
G01 X4.3704 Y32.3273
G01 X4.3488 Y32.3335
G01 X4.3271 Y32.3392
G01 X4.2304 Y32.3635
G01 X4.2086 Y32.3687
G01 X4.1866 Y32.3733
G01 X4.1645 Y32.3774
G01 X4.1424 Y32.3810
G01 X4.0215 Y32.3986
G01 X3.9992 Y32.4011
G01 X3.9769 Y32.4030
G01 X3.9545 Y32.4044
G01 X3.8549 Y32.4093
G01 X3.8324 Y32.4101
G01 X3.8100 Y32.4104
G01 X3.7876 Y32.4101
G01 X3.7651 Y32.4093
G01 X3.6655 Y32.4044
G01 X3.6431 Y32.4030
G01 X3.6208 Y32.4011
G01 X3.5985 Y32.3986
G01 X3.5762 Y32.3956
G01 X3.4776 Y32.3810
G01 X3.4555 Y32.3774
G01 X3.4334 Y32.3733
G01 X3.4114 Y32.3687
G01 X3.3896 Y32.3635
G01 X3.2929 Y32.3392
G01 X3.2712 Y32.3335
G01 X3.2496 Y32.3273
G01 X3.2282 Y32.3205
G01 X3.2070 Y32.3132
G01 X3.1131 Y32.2796
G01 X3.0921 Y32.2718
G01 X3.0713 Y32.2635
G01 X3.0506 Y32.2546
G01 X3.0302 Y32.2453
G01 X2.9401 Y32.2026
G01 X2.9199 Y32.1928
G01 X2.9000 Y32.1825
G01 X2.8804 Y32.1716
G01 X2.8610 Y32.1603
G01 X2.7754 Y32.1091
G01 X2.7563 Y32.0973
G01 X2.7375 Y32.0851
G01 X2.7190 Y32.0724
G01 X2.7008 Y32.0592
G01 X2.6207 Y31.9998
G01 X2.6029 Y31.9862
G01 X2.5854 Y31.9722
G01 X2.5682 Y31.9578
G01 X2.5514 Y31.9429
G01 X2.4775 Y31.8759
G01 X2.4611 Y31.8607
G01 X2.4450 Y31.8450
G01 X2.4293 Y31.8289
G01 X2.4141 Y31.8125
G01 X2.3471 Y31.7386
G01 X2.3322 Y31.7218
G01 X2.3178 Y31.7046
G01 X2.3038 Y31.6871
G01 X2.2902 Y31.6693
G01 X2.2308 Y31.5892
G01 X2.2176 Y31.5710
G01 X2.2049 Y31.5525
G01 X2.1927 Y31.5337
G01 X2.1809 Y31.5146
G01 X2.1297 Y31.4290
G01 X2.1184 Y31.4096
G01 X2.1075 Y31.3900
G01 X2.0972 Y31.3701
G01 X2.0874 Y31.3499
G01 X2.0447 Y31.2598
G01 X2.0354 Y31.2394
G01 X2.0265 Y31.2187
G01 X2.0182 Y31.1979
G01 X2.0104 Y31.1769
G01 X1.9768 Y31.0830
G01 X1.9695 Y31.0618
G01 X1.9627 Y31.0404
G01 X1.9565 Y31.0188
G01 X1.9508 Y30.9971
G01 X1.9265 Y30.9004
G01 X1.9213 Y30.8786
G01 X1.9167 Y30.8566
G01 X1.9126 Y30.8345
G01 X1.9090 Y30.8124
G01 X1.8914 Y30.6915
G01 X1.8889 Y30.6692
G01 X1.8870 Y30.6469
G01 X1.8856 Y30.6245
G01 X1.8807 Y30.5249
G01 X1.8799 Y30.5024
G01 X1.8796 Y30.4800
G01 X1.8799 Y30.4576
G01 X1.8807 Y30.4351
G01 X1.8856 Y30.3355
G01 X1.8870 Y30.3131
G01 X1.8889 Y30.2908
G01 X1.8914 Y30.2685
G01 X1.8944 Y30.2462
G01 X1.9090 Y30.1476
G01 X1.9126 Y30.1255
G01 X1.9167 Y30.1034
G01 X1.9213 Y30.0814
G01 X1.9265 Y30.0596
G01 X1.9508 Y29.9629
G01 X1.9565 Y29.9412
G01 X1.9627 Y29.9196
G01 X1.9695 Y29.8982
G01 X1.9768 Y29.8770
G01 X2.0104 Y29.7831
G01 X2.0182 Y29.7621
G01 X2.0265 Y29.7413
G01 X2.0354 Y29.7206
G01 X2.0447 Y29.7002
G01 X2.0874 Y29.6101
G01 X2.0972 Y29.5899
G01 X2.1075 Y29.5700
G01 X2.1184 Y29.5504
G01 X2.1297 Y29.5310
G01 X2.1809 Y29.4454
G01 X2.1927 Y29.4263
G01 X2.2049 Y29.4075
G01 X2.2176 Y29.3890
G01 X2.2308 Y29.3708
G01 X2.2902 Y29.2907
G01 X2.3038 Y29.2729
G01 X2.3178 Y29.2554
G01 X2.3322 Y29.2382
G01 X2.3471 Y29.2214
G01 X2.4141 Y29.1475
G01 X2.4293 Y29.1311
G01 X2.4450 Y29.1150
G01 X2.4611 Y29.0993
G01 X2.4775 Y29.0841
G01 X2.5514 Y29.0171
G01 X2.5682 Y29.0022
G01 X2.5854 Y28.9878
G01 X2.6029 Y28.9738
G01 X2.6207 Y28.9602
G01 X2.7008 Y28.9008
G01 X2.7190 Y28.8876
G01 X2.7375 Y28.8749
G01 X2.7563 Y28.8627
G01 X2.7754 Y28.8509
G01 X2.8610 Y28.7997
G01 X2.8804 Y28.7884
G01 X2.9000 Y28.7775
G01 X2.9199 Y28.7672
G01 X2.9401 Y28.7574
G01 X3.0302 Y28.7147
G01 X3.0506 Y28.7054
G01 X3.0713 Y28.6965
G01 X3.0921 Y28.6882
G01 X3.1131 Y28.6804
G01 X3.2070 Y28.6468
G01 X3.2282 Y28.6395
G01 X3.2496 Y28.6327
G01 X3.2712 Y28.6265
G01 X3.2929 Y28.6208
G01 X3.3896 Y28.5965
G01 X3.4114 Y28.5913
G01 X3.4334 Y28.5867
G01 X3.4555 Y28.5826
G01 X3.4776 Y28.5790
G01 X3.5985 Y28.5614
G01 X3.6208 Y28.5589
G01 X3.6431 Y28.5570
G01 X3.6655 Y28.5556
G01 X3.7651 Y28.5507
G01 X3.7876 Y28.5499
G01 X3.8100 Y28.5496
G01 X3.8324 Y28.5499
G01 X3.8549 Y28.5507
G01 X3.9545 Y28.5556
G01 X3.9769 Y28.5570
G01 X3.9992 Y28.5589
G01 X4.0215 Y28.5614
G01 X4.0438 Y28.5644
G01 X4.1424 Y28.5790
G01 X4.1645 Y28.5826
G01 X4.1866 Y28.5867
G01 X4.2086 Y28.5913
G01 X4.2304 Y28.5965
G01 X4.3271 Y28.6208
G01 X4.3488 Y28.6265
G01 X4.3704 Y28.6327
G01 X4.3918 Y28.6395
G01 X4.4130 Y28.6468
G01 X4.5069 Y28.6804
G01 X4.5279 Y28.6882
G01 X4.5487 Y28.6965
G01 X4.5694 Y28.7054
G01 X4.5898 Y28.7147
G01 X4.6799 Y28.7574
G01 X4.7001 Y28.7672
G01 X4.7200 Y28.7775
G01 X4.7396 Y28.7884
G01 X4.7590 Y28.7997
G01 X4.8446 Y28.8509
G01 X4.8637 Y28.8627
G01 X4.8825 Y28.8749
G01 X4.9010 Y28.8876
G01 X4.9192 Y28.9008
G01 X5.0171 Y28.9738
G01 X5.0346 Y28.9878
G01 X5.0518 Y29.0022
G01 X5.0686 Y29.0171
G01 X5.1425 Y29.0841
G01 X5.1589 Y29.0993
G01 X5.1750 Y29.1150
G01 X5.1907 Y29.1311
G01 X5.2059 Y29.1475
G01 X5.2729 Y29.2214
G01 X5.2878 Y29.2382
G01 X5.3022 Y29.2554
G01 X5.3162 Y29.2729
G01 X5.3298 Y29.2907
G01 X5.3892 Y29.3708
G01 X5.4024 Y29.3890
G01 X5.4151 Y29.4075
G01 X5.4273 Y29.4263
G01 X5.4391 Y29.4454
G01 X5.5016 Y29.5504
G01 X5.5125 Y29.5700
G01 X5.5228 Y29.5899
G01 X5.5326 Y29.6101
G01 X5.5753 Y29.7002
G01 X5.5846 Y29.7206
G01 X5.5935 Y29.7413
G01 X5.6018 Y29.7621
G01 X5.6096 Y29.7831
G01 X5.6505 Y29.8982
G01 X5.6573 Y29.9196
G01 X5.6635 Y29.9412
G01 X5.6692 Y29.9629
G01 X5.6987 Y30.0814
G01 X5.7033 Y30.1034
G01 X5.7074 Y30.1255
G01 X5.7256 Y30.2462
G00 Z5.0000
G00 X5.3990 Y30.2947
G01 F100.00
G01 Z-0.4000
G01 F325.00
G01 X5.4025 Y30.3232
G01 X5.4046 Y30.3517
G01 X5.4095 Y30.4513
G01 X5.4102 Y30.4800
G01 X5.4095 Y30.5087
G01 X5.4046 Y30.6083
G01 X5.4025 Y30.6368
G01 X5.3990 Y30.6653
G01 X5.3844 Y30.7639
G01 X5.3795 Y30.7922
G01 X5.3732 Y30.8202
G01 X5.3489 Y30.9169
G01 X5.3413 Y30.9445
G01 X5.3323 Y30.9717
G01 X5.2987 Y31.0656
G01 X5.2884 Y31.0924
G01 X5.2768 Y31.1186
G01 X5.2341 Y31.2087
G01 X5.2213 Y31.2343
G01 X5.2071 Y31.2593
G01 X5.1559 Y31.3448
G01 X5.1405 Y31.3690
G01 X5.1240 Y31.3925
G01 X5.0646 Y31.4726
G01 X5.0470 Y31.4952
G01 X5.0282 Y31.5169
G01 X4.9613 Y31.5907
G01 X4.9415 Y31.6115
G01 X4.9207 Y31.6313
G01 X4.8469 Y31.6982
G01 X4.8252 Y31.7170
G01 X4.8026 Y31.7346
G01 X4.7225 Y31.7940
G01 X4.6990 Y31.8105
G01 X4.6748 Y31.8259
G01 X4.5893 Y31.8771
G01 X4.5643 Y31.8913
G01 X4.5387 Y31.9041
G01 X4.4486 Y31.9468
G01 X4.4224 Y31.9584
G01 X4.3956 Y31.9687
G01 X4.3017 Y32.0023
G01 X4.2745 Y32.0113
G01 X4.2469 Y32.0189
G01 X4.1502 Y32.0432
G01 X4.1222 Y32.0495
G01 X4.0939 Y32.0544
G01 X3.9953 Y32.0690
G01 X3.9668 Y32.0725
G01 X3.9383 Y32.0746
G01 X3.8387 Y32.0795
G01 X3.8100 Y32.0802
G01 X3.7813 Y32.0795
G01 X3.6817 Y32.0746
G01 X3.6532 Y32.0725
G01 X3.6247 Y32.0690
G01 X3.5261 Y32.0544
G01 X3.4978 Y32.0495
G01 X3.4698 Y32.0432
G01 X3.3731 Y32.0189
G01 X3.3455 Y32.0113
G01 X3.3183 Y32.0023
G01 X3.2244 Y31.9687
G01 X3.1976 Y31.9584
G01 X3.1714 Y31.9468
G01 X3.0813 Y31.9041
G01 X3.0557 Y31.8913
G01 X3.0307 Y31.8771
G01 X2.9452 Y31.8259
G01 X2.9210 Y31.8105
G01 X2.8975 Y31.7940
G01 X2.8174 Y31.7346
G01 X2.7948 Y31.7170
G01 X2.7731 Y31.6982
G01 X2.6993 Y31.6313
G01 X2.6785 Y31.6115
G01 X2.6587 Y31.5907
G01 X2.5918 Y31.5169
G01 X2.5730 Y31.4952
G01 X2.5554 Y31.4726
G01 X2.4960 Y31.3925
G01 X2.4795 Y31.3690
G01 X2.4641 Y31.3448
G01 X2.4129 Y31.2593
G01 X2.3987 Y31.2343
G01 X2.3859 Y31.2087
G01 X2.3432 Y31.1186
G01 X2.3316 Y31.0924
G01 X2.3213 Y31.0656
G01 X2.2877 Y30.9717
G01 X2.2787 Y30.9445
G01 X2.2711 Y30.9169
G01 X2.2468 Y30.8202
G01 X2.2405 Y30.7922
G01 X2.2356 Y30.7639
G01 X2.2210 Y30.6653
G01 X2.2175 Y30.6368
G01 X2.2154 Y30.6083
G01 X2.2105 Y30.5087
G01 X2.2098 Y30.4800
G01 X2.2105 Y30.4513
G01 X2.2154 Y30.3517
G01 X2.2175 Y30.3232
G01 X2.2210 Y30.2947
G01 X2.2356 Y30.1961
G01 X2.2405 Y30.1678
G01 X2.2468 Y30.1398
G01 X2.2711 Y30.0431
G01 X2.2787 Y30.0155
G01 X2.2877 Y29.9883
G01 X2.3213 Y29.8944
G01 X2.3316 Y29.8676
G01 X2.3432 Y29.8414
G01 X2.3859 Y29.7513
G01 X2.3987 Y29.7257
G01 X2.4129 Y29.7007
G01 X2.4641 Y29.6152
G01 X2.4795 Y29.5910
G01 X2.4960 Y29.5675
G01 X2.5554 Y29.4874
G01 X2.5730 Y29.4648
G01 X2.5918 Y29.4431
G01 X2.6587 Y29.3693
G01 X2.6785 Y29.3485
G01 X2.6993 Y29.3287
G01 X2.7731 Y29.2618
G01 X2.7948 Y29.2430
G01 X2.8174 Y29.2254
G01 X2.8975 Y29.1660
G01 X2.9210 Y29.1495
G01 X2.9452 Y29.1341
G01 X3.0307 Y29.0829
G01 X3.0557 Y29.0687
G01 X3.0813 Y29.0559
G01 X3.1714 Y29.0132
G01 X3.1976 Y29.0016
G01 X3.2244 Y28.9913
G01 X3.3183 Y28.9577
G01 X3.3455 Y28.9487
G01 X3.3731 Y28.9411
G01 X3.4698 Y28.9168
G01 X3.4978 Y28.9105
G01 X3.5261 Y28.9056
G01 X3.6247 Y28.8910
G01 X3.6532 Y28.8875
G01 X3.6817 Y28.8854
G01 X3.7813 Y28.8805
G01 X3.8100 Y28.8798
G01 X3.8387 Y28.8805
G01 X3.9383 Y28.8854
G01 X3.9668 Y28.8875
G01 X3.9953 Y28.8910
G01 X4.0939 Y28.9056
G01 X4.1222 Y28.9105
G01 X4.1502 Y28.9168
G01 X4.2469 Y28.9411
G01 X4.2745 Y28.9487
G01 X4.3017 Y28.9577
G01 X4.3956 Y28.9913
G01 X4.4224 Y29.0016
G01 X4.4486 Y29.0132
G01 X4.5387 Y29.0559
G01 X4.5643 Y29.0687
G01 X4.5893 Y29.0829
G01 X4.6748 Y29.1341
G01 X4.6990 Y29.1495
G01 X4.7225 Y29.1660
G01 X4.8026 Y29.2254
G01 X4.8252 Y29.2430
G01 X4.8469 Y29.2618
G01 X4.9207 Y29.3287
G01 X4.9415 Y29.3485
G01 X4.9613 Y29.3693
G01 X5.0282 Y29.4431
G01 X5.0470 Y29.4648
G01 X5.0646 Y29.4874
G01 X5.1240 Y29.5675
G01 X5.1405 Y29.5910
G01 X5.1559 Y29.6152
G01 X5.2071 Y29.7007
G01 X5.2213 Y29.7257
G01 X5.2341 Y29.7513
G01 X5.2768 Y29.8414
G01 X5.2884 Y29.8676
G01 X5.2987 Y29.8944
G01 X5.3323 Y29.9883
G01 X5.3413 Y30.0155
G01 X5.3489 Y30.0431
G01 X5.3732 Y30.1398
G01 X5.3795 Y30.1678
G01 X5.3844 Y30.1961
G01 X5.3990 Y30.2947
G00 Z5.0000
G00 X5.0724 Y30.3431
G01 F100.00
G01 Z-0.4000
G01 F325.00
G01 X5.0739 Y30.3555
G01 X5.0748 Y30.3680
G01 X5.0797 Y30.4675
G01 X5.0800 Y30.4800
G01 X5.0797 Y30.4925
G01 X5.0748 Y30.5920
G01 X5.0739 Y30.6045
G01 X5.0724 Y30.6169
G01 X5.0577 Y30.7155
G01 X5.0556 Y30.7278
G01 X5.0529 Y30.7399
G01 X5.0286 Y30.8366
G01 X5.0253 Y30.8487
G01 X5.0214 Y30.8605
G01 X4.9878 Y30.9544
G01 X4.9833 Y30.9660
G01 X4.9783 Y30.9774
G01 X4.9356 Y31.0675
G01 X4.9300 Y31.0787
G01 X4.9239 Y31.0895
G01 X4.8726 Y31.1750
G01 X4.8660 Y31.1856
G01 X4.8588 Y31.1958
G01 X4.7994 Y31.2759
G01 X4.7917 Y31.2857
G01 X4.7836 Y31.2951
G01 X4.7166 Y31.3690
G01 X4.7080 Y31.3780
G01 X4.6990 Y31.3866
G01 X4.6251 Y31.4536
G01 X4.6157 Y31.4617
G01 X4.6059 Y31.4694
G01 X4.5258 Y31.5288
G01 X4.5156 Y31.5360
G01 X4.5050 Y31.5426
G01 X4.4195 Y31.5939
G01 X4.4087 Y31.6000
G01 X4.3975 Y31.6056
G01 X4.3074 Y31.6483
G01 X4.2960 Y31.6533
G01 X4.2844 Y31.6578
G01 X4.1905 Y31.6914
G01 X4.1787 Y31.6953
G01 X4.1666 Y31.6986
G01 X4.0699 Y31.7229
G01 X4.0578 Y31.7256
G01 X4.0455 Y31.7277
G01 X3.9469 Y31.7424
G01 X3.9345 Y31.7439
G01 X3.9220 Y31.7448
G01 X3.8225 Y31.7497
G01 X3.8100 Y31.7500
G01 X3.7975 Y31.7497
G01 X3.6980 Y31.7448
G01 X3.6855 Y31.7439
G01 X3.6731 Y31.7424
G01 X3.5745 Y31.7277
G01 X3.5622 Y31.7256
G01 X3.5501 Y31.7229
G01 X3.4534 Y31.6986
G01 X3.4413 Y31.6953
G01 X3.4295 Y31.6914
G01 X3.3356 Y31.6578
G01 X3.3240 Y31.6533
G01 X3.3126 Y31.6483
G01 X3.2225 Y31.6056
G01 X3.2113 Y31.6000
G01 X3.2005 Y31.5939
G01 X3.1150 Y31.5426
G01 X3.1044 Y31.5360
G01 X3.0942 Y31.5288
G01 X3.0141 Y31.4694
G01 X3.0043 Y31.4617
G01 X2.9949 Y31.4536
G01 X2.9210 Y31.3866
G01 X2.9120 Y31.3780
G01 X2.9034 Y31.3690
G01 X2.8364 Y31.2951
G01 X2.8283 Y31.2857
G01 X2.8206 Y31.2759
G01 X2.7612 Y31.1958
G01 X2.7540 Y31.1856
G01 X2.7474 Y31.1750
G01 X2.6961 Y31.0895
G01 X2.6900 Y31.0787
G01 X2.6844 Y31.0675
G01 X2.6417 Y30.9774
G01 X2.6367 Y30.9660
G01 X2.6322 Y30.9544
G01 X2.5986 Y30.8605
G01 X2.5947 Y30.8487
G01 X2.5914 Y30.8366
G01 X2.5671 Y30.7399
G01 X2.5644 Y30.7278
G01 X2.5623 Y30.7155
G01 X2.5476 Y30.6169
G01 X2.5461 Y30.6045
G01 X2.5452 Y30.5920
G01 X2.5403 Y30.4925
G01 X2.5400 Y30.4800
G01 X2.5403 Y30.4675
G01 X2.5452 Y30.3680
G01 X2.5461 Y30.3555
G01 X2.5476 Y30.3431
G01 X2.5623 Y30.2445
G01 X2.5644 Y30.2322
G01 X2.5671 Y30.2201
G01 X2.5914 Y30.1234
G01 X2.5947 Y30.1113
G01 X2.5986 Y30.0995
G01 X2.6322 Y30.0056
G01 X2.6367 Y29.9940
G01 X2.6417 Y29.9826
G01 X2.6844 Y29.8925
G01 X2.6900 Y29.8813
G01 X2.6961 Y29.8705
G01 X2.7474 Y29.7850
G01 X2.7540 Y29.7744
G01 X2.7612 Y29.7642
G01 X2.8206 Y29.6841
G01 X2.8283 Y29.6743
G01 X2.8364 Y29.6649
G01 X2.9034 Y29.5910
G01 X2.9120 Y29.5820
G01 X2.9210 Y29.5734
G01 X2.9949 Y29.5064
G01 X3.0043 Y29.4983
G01 X3.0141 Y29.4906
G01 X3.0942 Y29.4312
G01 X3.1044 Y29.4240
G01 X3.1150 Y29.4174
G01 X3.2005 Y29.3661
G01 X3.2113 Y29.3600
G01 X3.2225 Y29.3544
G01 X3.3126 Y29.3117
G01 X3.3240 Y29.3067
G01 X3.3356 Y29.3022
G01 X3.4295 Y29.2686
G01 X3.4413 Y29.2647
G01 X3.4534 Y29.2614
G01 X3.5501 Y29.2371
G01 X3.5622 Y29.2344
G01 X3.5745 Y29.2323
G01 X3.6731 Y29.2176
G01 X3.6855 Y29.2161
G01 X3.6980 Y29.2152
G01 X3.7975 Y29.2103
G01 X3.8100 Y29.2100
G01 X3.8225 Y29.2103
G01 X3.9220 Y29.2152
G01 X3.9345 Y29.2161
G01 X3.9469 Y29.2176
G01 X4.0455 Y29.2323
G01 X4.0578 Y29.2344
G01 X4.0699 Y29.2371
G01 X4.1666 Y29.2614
G01 X4.1787 Y29.2647
G01 X4.1905 Y29.2686
G01 X4.2844 Y29.3022
G01 X4.2960 Y29.3067
G01 X4.3074 Y29.3117
G01 X4.3975 Y29.3544
G01 X4.4087 Y29.3600
G01 X4.4195 Y29.3661
G01 X4.5050 Y29.4174
G01 X4.5156 Y29.4240
G01 X4.5258 Y29.4312
G01 X4.6059 Y29.4906
G01 X4.6157 Y29.4983
G01 X4.6251 Y29.5064
G01 X4.6990 Y29.5734
G01 X4.7080 Y29.5820
G01 X4.7166 Y29.5910
G01 X4.7836 Y29.6649
G01 X4.7917 Y29.6743
G01 X4.7994 Y29.6841
G01 X4.8588 Y29.7642
G01 X4.8660 Y29.7744
G01 X4.8726 Y29.7850
G01 X4.9239 Y29.8705
G01 X4.9300 Y29.8813
G01 X4.9356 Y29.8925
G01 X4.9783 Y29.9826
G01 X4.9833 Y29.9940
G01 X4.9878 Y30.0056
G01 X5.0214 Y30.0995
G01 X5.0253 Y30.1113
G01 X5.0286 Y30.1234
G01 X5.0529 Y30.2201
G01 X5.0556 Y30.2322
G01 X5.0577 Y30.2445
G01 X5.0724 Y30.3431
G00 Z5.0000
G00 X0.5125 Y27.5567
G01 F100.00
G01 Z-0.4000
G01 F325.00
G01 X0.5156 Y27.5790
G01 X0.5180 Y27.6013
G01 X0.5200 Y27.6236
G01 X0.5213 Y27.6460
G01 X0.5336 Y27.8951
G01 X0.5344 Y27.9176
G01 X0.5347 Y27.9400
G01 X0.5347 Y31.8770
G01 X0.5344 Y31.8994
G01 X0.5336 Y31.9219
G01 X0.5213 Y32.1710
G01 X0.5200 Y32.1934
G01 X0.5180 Y32.2157
G01 X0.5156 Y32.2380
G01 X0.5125 Y32.2603
G01 X0.4759 Y32.5069
G01 X0.4724 Y32.5291
G01 X0.4683 Y32.5512
G01 X0.4636 Y32.5731
G01 X0.4584 Y32.5950
G01 X0.3978 Y32.8369
G01 X0.3921 Y32.8586
G01 X0.3859 Y32.8801
G01 X0.3791 Y32.9015
G01 X0.3718 Y32.9227
G01 X0.2878 Y33.1576
G01 X0.2800 Y33.1786
G01 X0.2716 Y33.1994
G01 X0.2628 Y33.2201
G01 X0.2534 Y33.2405
G01 X0.1468 Y33.4659
G01 X0.1370 Y33.4861
G01 X0.1266 Y33.5060
G01 X0.1158 Y33.5257
G01 X0.1045 Y33.5450
G01 X-0.0237 Y33.7589
G01 X-0.0355 Y33.7781
G01 X-0.0477 Y33.7969
G01 X-0.0604 Y33.8154
G01 X-0.0736 Y33.8336
G01 X-0.2221 Y34.0339
G01 X-0.2357 Y34.0517
G01 X-0.2497 Y34.0693
G01 X-0.2642 Y34.0864
G01 X-0.2790 Y34.1032
G01 X-0.4465 Y34.2880
G01 X-0.4618 Y34.3045
G01 X-0.4775 Y34.3205
G01 X-1.8745 Y35.7175
G01 X-1.8905 Y35.7332
G01 X-1.9070 Y35.7485
G01 X-2.0918 Y35.9160
G01 X-2.1086 Y35.9308
G01 X-2.1257 Y35.9453
G01 X-2.1433 Y35.9593
G01 X-2.1611 Y35.9729
G01 X-2.3614 Y36.1214
G01 X-2.3796 Y36.1346
G01 X-2.3981 Y36.1473
G01 X-2.4169 Y36.1595
G01 X-2.4361 Y36.1713
G01 X-2.6500 Y36.2995
G01 X-2.6693 Y36.3108
G01 X-2.6890 Y36.3216
G01 X-2.7089 Y36.3320
G01 X-2.7291 Y36.3418
G01 X-2.9545 Y36.4484
G01 X-2.9749 Y36.4578
G01 X-2.9956 Y36.4666
G01 X-3.0164 Y36.4750
G01 X-3.0374 Y36.4828
G01 X-3.2723 Y36.5668
G01 X-3.2935 Y36.5741
G01 X-3.3149 Y36.5809
G01 X-3.3364 Y36.5871
G01 X-3.3581 Y36.5928
G01 X-3.6000 Y36.6534
G01 X-3.6219 Y36.6586
G01 X-3.6438 Y36.6633
G01 X-3.6659 Y36.6674
G01 X-3.6881 Y36.6709
G01 X-3.9347 Y36.7075
G01 X-3.9570 Y36.7106
G01 X-3.9793 Y36.7130
G01 X-4.0016 Y36.7150
G01 X-4.0240 Y36.7163
G01 X-4.2731 Y36.7286
G01 X-4.2956 Y36.7294
G01 X-4.3180 Y36.7297
G01 X-10.6680 Y36.7297
G01 X-10.6904 Y36.7294
G01 X-10.7129 Y36.7286
G01 X-10.9620 Y36.7163
G01 X-10.9844 Y36.7150
G01 X-11.0067 Y36.7130
G01 X-11.0290 Y36.7106
G01 X-11.0513 Y36.7075
G01 X-11.2979 Y36.6709
G01 X-11.3201 Y36.6674
G01 X-11.3422 Y36.6633
G01 X-11.3641 Y36.6586
G01 X-11.3860 Y36.6534
G01 X-11.6279 Y36.5928
G01 X-11.6496 Y36.5871
G01 X-11.6711 Y36.5809
G01 X-11.6925 Y36.5741
G01 X-11.7137 Y36.5668
G01 X-11.9486 Y36.4828
G01 X-11.9696 Y36.4750
G01 X-11.9904 Y36.4666
G01 X-12.0111 Y36.4578
G01 X-12.0315 Y36.4484
G01 X-12.2569 Y36.3418
G01 X-12.2771 Y36.3320
G01 X-12.2970 Y36.3216
G01 X-12.3167 Y36.3108
G01 X-12.3360 Y36.2995
G01 X-12.5499 Y36.1713
G01 X-12.5691 Y36.1595
G01 X-12.5879 Y36.1473
G01 X-12.6064 Y36.1346
G01 X-12.6246 Y36.1214
G01 X-12.8249 Y35.9729
G01 X-12.8427 Y35.9593
G01 X-12.8603 Y35.9453
G01 X-12.8774 Y35.9308
G01 X-12.8942 Y35.9160
G01 X-13.0790 Y35.7485
G01 X-13.0955 Y35.7332
G01 X-13.1115 Y35.7175
G01 X-13.1272 Y35.7015
G01 X-13.1425 Y35.6850
G01 X-13.3100 Y35.5002
G01 X-13.3248 Y35.4834
G01 X-13.3393 Y35.4663
G01 X-13.3533 Y35.4487
G01 X-13.3669 Y35.4309
G01 X-13.5154 Y35.2306
G01 X-13.5286 Y35.2124
G01 X-13.5413 Y35.1939
G01 X-13.5535 Y35.1751
G01 X-13.5653 Y35.1559
G01 X-13.6935 Y34.9420
G01 X-13.7048 Y34.9227
G01 X-13.7156 Y34.9030
G01 X-13.7260 Y34.8831
G01 X-13.7358 Y34.8629
G01 X-13.8424 Y34.6375
G01 X-13.8518 Y34.6171
G01 X-13.8606 Y34.5964
G01 X-13.8690 Y34.5756
G01 X-13.8768 Y34.5546
G01 X-13.9608 Y34.3197
G01 X-13.9681 Y34.2985
G01 X-13.9749 Y34.2771
G01 X-13.9811 Y34.2556
G01 X-13.9868 Y34.2339
G01 X-14.0474 Y33.9920
G01 X-14.0526 Y33.9701
G01 X-14.0573 Y33.9482
G01 X-14.0614 Y33.9261
G01 X-14.0649 Y33.9039
G01 X-14.1015 Y33.6573
G01 X-14.1046 Y33.6350
G01 X-14.1070 Y33.6127
G01 X-14.1090 Y33.5904
G01 X-14.1103 Y33.5680
G01 X-14.1226 Y33.3189
G01 X-14.1234 Y33.2964
G01 X-14.1237 Y33.2740
G01 X-14.1234 Y33.2516
G01 X-14.1226 Y33.2291
G01 X-14.1103 Y32.9800
G01 X-14.1090 Y32.9576
G01 X-14.1070 Y32.9353
G01 X-14.1046 Y32.9130
G01 X-14.1015 Y32.8907
G01 X-14.0649 Y32.6441
G01 X-14.0614 Y32.6219
G01 X-14.0573 Y32.5998
G01 X-14.0526 Y32.5779
G01 X-14.0474 Y32.5560
G01 X-13.9868 Y32.3141
G01 X-13.9811 Y32.2924
G01 X-13.9749 Y32.2709
G01 X-13.9681 Y32.2495
G01 X-13.9608 Y32.2283
G01 X-13.8768 Y31.9934
G01 X-13.8690 Y31.9724
G01 X-13.8606 Y31.9516
G01 X-13.8518 Y31.9309
G01 X-13.8424 Y31.9105
G01 X-13.7358 Y31.6851
G01 X-13.7260 Y31.6649
G01 X-13.7156 Y31.6450
G01 X-13.7048 Y31.6253
G01 X-13.6935 Y31.6060
G01 X-13.5653 Y31.3921
G01 X-13.5535 Y31.3729
G01 X-13.5413 Y31.3541
G01 X-13.5286 Y31.3356
G01 X-13.5154 Y31.3174
G01 X-13.3669 Y31.1171
G01 X-13.3533 Y31.0993
G01 X-13.3393 Y31.0817
G01 X-13.3248 Y31.0646
G01 X-13.3100 Y31.0478
G01 X-13.1425 Y30.8630
G01 X-13.1272 Y30.8465
G01 X-13.1115 Y30.8305
G01 X-13.0955 Y30.8148
G01 X-13.0790 Y30.7995
G01 X-12.8942 Y30.6320
G01 X-12.8774 Y30.6172
G01 X-12.8603 Y30.6027
G01 X-12.8427 Y30.5887
G01 X-12.8249 Y30.5751
G01 X-12.6246 Y30.4266
G01 X-12.6064 Y30.4134
G01 X-12.5879 Y30.4007
G01 X-12.5691 Y30.3885
G01 X-12.5499 Y30.3767
G01 X-12.3360 Y30.2485
G01 X-12.3167 Y30.2372
G01 X-12.2970 Y30.2264
G01 X-12.2771 Y30.2160
G01 X-12.2569 Y30.2062
G01 X-12.0315 Y30.0996
G01 X-12.0111 Y30.0902
G01 X-11.9904 Y30.0814
G01 X-11.9696 Y30.0730
G01 X-11.9486 Y30.0652
G01 X-11.7137 Y29.9812
G01 X-11.6925 Y29.9739
G01 X-11.6711 Y29.9671
G01 X-11.6496 Y29.9609
G01 X-11.6279 Y29.9552
G01 X-11.3860 Y29.8946
G01 X-11.3641 Y29.8894
G01 X-11.3422 Y29.8847
G01 X-11.3201 Y29.8806
G01 X-11.2979 Y29.8771
G01 X-11.0513 Y29.8405
G01 X-11.0290 Y29.8374
G01 X-11.0067 Y29.8350
G01 X-10.9844 Y29.8330
G01 X-10.9620 Y29.8317
G01 X-10.7129 Y29.8194
G01 X-10.6904 Y29.8186
G01 X-10.6680 Y29.8183
G01 X-6.3767 Y29.8183
G01 X-6.3767 Y27.9400
G01 X-6.3764 Y27.9176
G01 X-6.3756 Y27.8951
G01 X-6.3633 Y27.6460
G01 X-6.3620 Y27.6236
G01 X-6.3600 Y27.6013
G01 X-6.3576 Y27.5790
G01 X-6.3545 Y27.5567
G01 X-6.3179 Y27.3101
G01 X-6.3144 Y27.2879
G01 X-6.3103 Y27.2658
G01 X-6.3056 Y27.2439
G01 X-6.3004 Y27.2220
G01 X-6.2398 Y26.9801
G01 X-6.2341 Y26.9584
G01 X-6.2279 Y26.9369
G01 X-6.2211 Y26.9155
G01 X-6.2138 Y26.8943
G01 X-6.1298 Y26.6594
G01 X-6.1220 Y26.6384
G01 X-6.1136 Y26.6176
G01 X-6.1048 Y26.5969
G01 X-6.0954 Y26.5765
G01 X-5.9888 Y26.3511
G01 X-5.9790 Y26.3309
G01 X-5.9686 Y26.3110
G01 X-5.9578 Y26.2913
G01 X-5.9465 Y26.2720
G01 X-5.8183 Y26.0581
G01 X-5.8065 Y26.0389
G01 X-5.7943 Y26.0201
G01 X-5.7816 Y26.0016
G01 X-5.7684 Y25.9834
G01 X-5.6199 Y25.7831
G01 X-5.6063 Y25.7653
G01 X-5.5923 Y25.7477
G01 X-5.5778 Y25.7306
G01 X-5.5630 Y25.7138
G01 X-5.3955 Y25.5290
G01 X-5.3802 Y25.5125
G01 X-5.3645 Y25.4965
G01 X-5.3485 Y25.4808
G01 X-5.3320 Y25.4655
G01 X-5.1472 Y25.2980
G01 X-5.1304 Y25.2832
G01 X-5.1133 Y25.2687
G01 X-5.0957 Y25.2547
G01 X-5.0779 Y25.2411
G01 X-4.8776 Y25.0926
G01 X-4.8594 Y25.0794
G01 X-4.8409 Y25.0667
G01 X-4.8221 Y25.0545
G01 X-4.8029 Y25.0427
G01 X-4.5890 Y24.9145
G01 X-4.5697 Y24.9032
G01 X-4.5500 Y24.8924
G01 X-4.5301 Y24.8820
G01 X-4.5099 Y24.8722
G01 X-4.2845 Y24.7656
G01 X-4.2641 Y24.7562
G01 X-4.2434 Y24.7474
G01 X-4.2226 Y24.7390
G01 X-4.2016 Y24.7312
G01 X-3.9667 Y24.6472
G01 X-3.9455 Y24.6399
G01 X-3.9241 Y24.6331
G01 X-3.9026 Y24.6269
G01 X-3.8809 Y24.6212
G01 X-3.6390 Y24.5606
G01 X-3.6171 Y24.5554
G01 X-3.5952 Y24.5507
G01 X-3.5731 Y24.5466
G01 X-3.5509 Y24.5431
G01 X-3.3043 Y24.5065
G01 X-3.2820 Y24.5034
G01 X-3.2597 Y24.5010
G01 X-3.2374 Y24.4990
G01 X-3.2150 Y24.4977
G01 X-2.9659 Y24.4854
G01 X-2.9434 Y24.4846
G01 X-2.9210 Y24.4843
G01 X-2.8986 Y24.4846
G01 X-2.8761 Y24.4854
G01 X-2.6270 Y24.4977
G01 X-2.6046 Y24.4990
G01 X-2.5823 Y24.5010
G01 X-2.5600 Y24.5034
G01 X-2.5377 Y24.5065
G01 X-2.2911 Y24.5431
G01 X-2.2689 Y24.5466
G01 X-2.2468 Y24.5507
G01 X-2.2249 Y24.5554
G01 X-2.2030 Y24.5606
G01 X-1.9611 Y24.6212
G01 X-1.9394 Y24.6269
G01 X-1.9179 Y24.6331
G01 X-1.8965 Y24.6399
G01 X-1.8753 Y24.6472
G01 X-1.6404 Y24.7312
G01 X-1.6194 Y24.7390
G01 X-1.5986 Y24.7474
G01 X-1.5779 Y24.7562
G01 X-1.5575 Y24.7656
G01 X-1.3321 Y24.8722
G01 X-1.3119 Y24.8820
G01 X-1.2920 Y24.8924
G01 X-1.2723 Y24.9032
G01 X-1.2530 Y24.9145
G01 X-1.0391 Y25.0427
G01 X-1.0199 Y25.0545
G01 X-1.0011 Y25.0667
G01 X-0.9826 Y25.0794
G01 X-0.9644 Y25.0926
G01 X-0.7641 Y25.2411
G01 X-0.7463 Y25.2547
G01 X-0.7287 Y25.2687
G01 X-0.7116 Y25.2832
G01 X-0.6948 Y25.2980
G01 X-0.5100 Y25.4655
G01 X-0.4935 Y25.4808
G01 X-0.4775 Y25.4965
G01 X-0.4618 Y25.5125
G01 X-0.4465 Y25.5290
G01 X-0.2790 Y25.7138
G01 X-0.2642 Y25.7306
G01 X-0.2497 Y25.7477
G01 X-0.2357 Y25.7653
G01 X-0.2221 Y25.7831
G01 X-0.0736 Y25.9834
G01 X-0.0604 Y26.0016
G01 X-0.0477 Y26.0201
G01 X-0.0355 Y26.0389
G01 X-0.0237 Y26.0581
G01 X0.1045 Y26.2720
G01 X0.1158 Y26.2913
G01 X0.1266 Y26.3110
G01 X0.1370 Y26.3309
G01 X0.1468 Y26.3511
G01 X0.2534 Y26.5765
G01 X0.2628 Y26.5969
G01 X0.2716 Y26.6176
G01 X0.2800 Y26.6384
G01 X0.2878 Y26.6594
G01 X0.3718 Y26.8943
G01 X0.3791 Y26.9155
G01 X0.3859 Y26.9369
G01 X0.3921 Y26.9584
G01 X0.3978 Y26.9801
G01 X0.4584 Y27.2220
G01 X0.4636 Y27.2439
G01 X0.4683 Y27.2658
G01 X0.4724 Y27.2879
G01 X0.4759 Y27.3101
G01 X0.5125 Y27.5567
G00 Z5.0000
G00 X0.1859 Y27.6052
G01 F100.00
G01 Z-0.4000
G01 F325.00
G01 X0.1894 Y27.6337
G01 X0.1915 Y27.6622
G01 X0.2038 Y27.9113
G01 X0.2045 Y27.9400
G01 X0.2045 Y31.8770
G01 X0.2038 Y31.9057
G01 X0.1915 Y32.1548
G01 X0.1894 Y32.1833
G01 X0.1859 Y32.2118
G01 X0.1493 Y32.4585
G01 X0.1444 Y32.4867
G01 X0.1381 Y32.5147
G01 X0.0775 Y32.7566
G01 X0.0699 Y32.7843
G01 X0.0609 Y32.8115
G01 X-0.0231 Y33.0463
G01 X-0.0334 Y33.0731
G01 X-0.0451 Y33.0993
G01 X-0.1517 Y33.3247
G01 X-0.1646 Y33.3503
G01 X-0.1787 Y33.3753
G01 X-0.3069 Y33.5892
G01 X-0.3223 Y33.6134
G01 X-0.3388 Y33.6369
G01 X-0.4873 Y33.8372
G01 X-0.5050 Y33.8598
G01 X-0.5237 Y33.8815
G01 X-0.7009 Y34.0768
G01 X-2.1080 Y35.4840
G01 X-2.1287 Y35.5038
G01 X-2.3135 Y35.6713
G01 X-2.3352 Y35.6900
G01 X-2.3578 Y35.7077
G01 X-2.5581 Y35.8562
G01 X-2.5816 Y35.8727
G01 X-2.6058 Y35.8881
G01 X-2.8197 Y36.0163
G01 X-2.8447 Y36.0304
G01 X-2.8703 Y36.0433
G01 X-3.0957 Y36.1499
G01 X-3.1219 Y36.1616
G01 X-3.1487 Y36.1719
G01 X-3.3835 Y36.2559
G01 X-3.4107 Y36.2649
G01 X-3.4384 Y36.2725
G01 X-3.6803 Y36.3331
G01 X-3.7083 Y36.3394
G01 X-3.7365 Y36.3443
G01 X-3.9832 Y36.3809
G01 X-4.0117 Y36.3844
G01 X-4.0402 Y36.3865
G01 X-4.2893 Y36.3988
G01 X-4.3180 Y36.3995
G01 X-10.6680 Y36.3995
G01 X-10.6967 Y36.3988
G01 X-10.9458 Y36.3865
G01 X-10.9601 Y36.3857
G01 X-10.9886 Y36.3828
G01 X-11.2495 Y36.3443
G01 X-11.2777 Y36.3394
G01 X-11.3057 Y36.3331
G01 X-11.5476 Y36.2725
G01 X-11.5753 Y36.2649
G01 X-11.6025 Y36.2559
G01 X-11.8373 Y36.1719
G01 X-11.8641 Y36.1616
G01 X-11.8903 Y36.1499
G01 X-12.1157 Y36.0433
G01 X-12.1413 Y36.0304
G01 X-12.1663 Y36.0163
G01 X-12.3802 Y35.8881
G01 X-12.4044 Y35.8727
G01 X-12.4279 Y35.8562
G01 X-12.6282 Y35.7077
G01 X-12.6508 Y35.6900
G01 X-12.6725 Y35.6713
G01 X-12.8573 Y35.5038
G01 X-12.8780 Y35.4840
G01 X-12.8978 Y35.4633
G01 X-13.0653 Y35.2785
G01 X-13.0840 Y35.2568
G01 X-13.1017 Y35.2342
G01 X-13.2502 Y35.0339
G01 X-13.2667 Y35.0104
G01 X-13.2821 Y34.9862
G01 X-13.4103 Y34.7723
G01 X-13.4244 Y34.7473
G01 X-13.4373 Y34.7217
G01 X-13.5439 Y34.4963
G01 X-13.5556 Y34.4701
G01 X-13.5659 Y34.4433
G01 X-13.6499 Y34.2085
G01 X-13.6589 Y34.1813
G01 X-13.6665 Y34.1536
G01 X-13.7271 Y33.9117
G01 X-13.7334 Y33.8837
G01 X-13.7383 Y33.8555
G01 X-13.7749 Y33.6088
G01 X-13.7784 Y33.5803
G01 X-13.7805 Y33.5518
G01 X-13.7928 Y33.3027
G01 X-13.7935 Y33.2740
G01 X-13.7928 Y33.2453
G01 X-13.7805 Y32.9962
G01 X-13.7784 Y32.9677
G01 X-13.7749 Y32.9392
G01 X-13.7383 Y32.6925
G01 X-13.7334 Y32.6643
G01 X-13.7271 Y32.6363
G01 X-13.6665 Y32.3944
G01 X-13.6589 Y32.3667
G01 X-13.6499 Y32.3395
G01 X-13.5659 Y32.1047
G01 X-13.5556 Y32.0779
G01 X-13.5439 Y32.0517
G01 X-13.4373 Y31.8263
G01 X-13.4244 Y31.8007
G01 X-13.4103 Y31.7757
G01 X-13.2821 Y31.5618
G01 X-13.2667 Y31.5376
G01 X-13.2502 Y31.5141
G01 X-13.1017 Y31.3138
G01 X-13.0840 Y31.2912
G01 X-13.0653 Y31.2695
G01 X-12.8978 Y31.0847
G01 X-12.8780 Y31.0640
G01 X-12.8573 Y31.0442
G01 X-12.6725 Y30.8767
G01 X-12.6508 Y30.8580
G01 X-12.6282 Y30.8403
G01 X-12.4279 Y30.6918
G01 X-12.4044 Y30.6753
G01 X-12.3924 Y30.6674
G01 X-12.1663 Y30.5317
G01 X-12.1413 Y30.5176
G01 X-12.1157 Y30.5047
G01 X-11.8903 Y30.3981
G01 X-11.8641 Y30.3864
G01 X-11.8373 Y30.3761
G01 X-11.6025 Y30.2921
G01 X-11.5753 Y30.2831
G01 X-11.5476 Y30.2755
G01 X-11.3057 Y30.2149
G01 X-11.2777 Y30.2086
G01 X-11.2495 Y30.2037
G01 X-11.0028 Y30.1671
G01 X-10.9743 Y30.1636
G01 X-10.9601 Y30.1623
G01 X-10.6967 Y30.1492
G01 X-10.6680 Y30.1485
G01 X-6.0465 Y30.1485
G01 X-6.0465 Y27.9400
G01 X-6.0458 Y27.9113
G01 X-6.0335 Y27.6622
G01 X-6.0314 Y27.6337
G01 X-6.0279 Y27.6052
G01 X-5.9913 Y27.3585
G01 X-5.9864 Y27.3303
G01 X-5.9801 Y27.3023
G01 X-5.9195 Y27.0604
G01 X-5.9159 Y27.0465
G01 X-5.9076 Y27.0191
G01 X-5.8189 Y26.7707
G01 X-5.8086 Y26.7439
G01 X-5.7969 Y26.7177
G01 X-5.6903 Y26.4923
G01 X-5.6774 Y26.4667
G01 X-5.6633 Y26.4417
G01 X-5.5351 Y26.2278
G01 X-5.5197 Y26.2036
G01 X-5.5032 Y26.1801
G01 X-5.3547 Y25.9798
G01 X-5.3370 Y25.9572
G01 X-5.3183 Y25.9355
G01 X-5.1508 Y25.7507
G01 X-5.1310 Y25.7300
G01 X-5.1103 Y25.7102
G01 X-4.9255 Y25.5427
G01 X-4.9038 Y25.5240
G01 X-4.8812 Y25.5063
G01 X-4.6809 Y25.3578
G01 X-4.6574 Y25.3413
G01 X-4.6332 Y25.3259
G01 X-4.4193 Y25.1977
G01 X-4.3943 Y25.1836
G01 X-4.3687 Y25.1707
G01 X-4.1433 Y25.0641
G01 X-4.1171 Y25.0524
G01 X-4.0903 Y25.0421
G01 X-3.8555 Y24.9581
G01 X-3.8283 Y24.9491
G01 X-3.8006 Y24.9415
G01 X-3.5587 Y24.8809
G01 X-3.5307 Y24.8746
G01 X-3.5025 Y24.8697
G01 X-3.2558 Y24.8331
G01 X-3.2273 Y24.8296
G01 X-3.1988 Y24.8275
G01 X-2.9497 Y24.8152
G01 X-2.9210 Y24.8145
G01 X-2.8923 Y24.8152
G01 X-2.6432 Y24.8275
G01 X-2.6147 Y24.8296
G01 X-2.5862 Y24.8331
G01 X-2.3395 Y24.8697
G01 X-2.3113 Y24.8746
G01 X-2.2833 Y24.8809
G01 X-2.0414 Y24.9415
G01 X-2.0137 Y24.9491
G01 X-1.9865 Y24.9581
G01 X-1.7517 Y25.0421
G01 X-1.7249 Y25.0524
G01 X-1.6987 Y25.0641
G01 X-1.4733 Y25.1707
G01 X-1.4477 Y25.1836
G01 X-1.4227 Y25.1977
G01 X-1.2088 Y25.3259
G01 X-1.1846 Y25.3413
G01 X-1.1611 Y25.3578
G01 X-0.9608 Y25.5063
G01 X-0.9382 Y25.5240
G01 X-0.9165 Y25.5427
G01 X-0.7317 Y25.7102
G01 X-0.7110 Y25.7300
G01 X-0.6912 Y25.7507
G01 X-0.5237 Y25.9355
G01 X-0.5050 Y25.9572
G01 X-0.4873 Y25.9798
G01 X-0.3388 Y26.1801
G01 X-0.3223 Y26.2036
G01 X-0.3069 Y26.2278
G01 X-0.1787 Y26.4417
G01 X-0.1646 Y26.4667
G01 X-0.1517 Y26.4923
G01 X-0.0451 Y26.7177
G01 X-0.0334 Y26.7439
G01 X-0.0231 Y26.7707
G01 X0.0609 Y27.0055
G01 X0.0699 Y27.0327
G01 X0.0775 Y27.0604
G01 X0.1381 Y27.3023
G01 X0.1444 Y27.3303
G01 X0.1493 Y27.3585
G01 X0.1859 Y27.6052
G00 Z5.0000
G00 X-0.1407 Y27.6536
G01 F100.00
G01 Z-0.4000
G01 F325.00
G01 X-0.1392 Y27.6660
G01 X-0.1383 Y27.6784
G01 X-0.1260 Y27.9275
G01 X-0.1257 Y27.9400
G01 X-0.1258 Y31.8832
G01 X-0.1383 Y32.1386
G01 X-0.1392 Y32.1510
G01 X-0.1407 Y32.1634
G01 X-0.1773 Y32.4100
G01 X-0.1794 Y32.4223
G01 X-0.1822 Y32.4345
G01 X-0.2428 Y32.6764
G01 X-0.2461 Y32.6884
G01 X-0.2500 Y32.7003
G01 X-0.3340 Y32.9351
G01 X-0.3385 Y32.9467
G01 X-0.3436 Y32.9581
G01 X-0.4502 Y33.1835
G01 X-0.4558 Y33.1947
G01 X-0.4619 Y33.2055
G01 X-0.5901 Y33.4194
G01 X-0.5968 Y33.4300
G01 X-0.6040 Y33.4402
G01 X-0.7526 Y33.6405
G01 X-0.7602 Y33.6503
G01 X-0.7684 Y33.6597
G01 X-0.9358 Y33.8445
G01 X-0.9444 Y33.8536
G01 X-2.3459 Y35.2549
G01 X-2.5353 Y35.4266
G01 X-2.5447 Y35.4348
G01 X-2.5545 Y35.4424
G01 X-2.7548 Y35.5910
G01 X-2.7650 Y35.5982
G01 X-2.7756 Y35.6049
G01 X-2.9895 Y35.7331
G01 X-3.0003 Y35.7392
G01 X-3.0115 Y35.7448
G01 X-3.2369 Y35.8514
G01 X-3.2483 Y35.8565
G01 X-3.2599 Y35.8610
G01 X-3.4947 Y35.9450
G01 X-3.5066 Y35.9489
G01 X-3.5186 Y35.9522
G01 X-3.7605 Y36.0128
G01 X-3.7727 Y36.0156
G01 X-3.7850 Y36.0177
G01 X-4.0316 Y36.0543
G01 X-4.0440 Y36.0558
G01 X-4.0564 Y36.0567
G01 X-4.3055 Y36.0690
G01 X-4.3180 Y36.0693
G01 X-10.6680 Y36.0693
G01 X-10.6805 Y36.0690
G01 X-10.9296 Y36.0567
G01 X-10.9482 Y36.0551
G01 X-11.2010 Y36.0177
G01 X-11.2133 Y36.0156
G01 X-11.2255 Y36.0128
G01 X-11.4674 Y35.9522
G01 X-11.4794 Y35.9489
G01 X-11.4913 Y35.9450
G01 X-11.7261 Y35.8610
G01 X-11.7377 Y35.8565
G01 X-11.7491 Y35.8514
G01 X-11.9745 Y35.7448
G01 X-11.9857 Y35.7392
G01 X-11.9965 Y35.7331
G01 X-12.2104 Y35.6049
G01 X-12.2210 Y35.5982
G01 X-12.2312 Y35.5910
G01 X-12.4315 Y35.4424
G01 X-12.4413 Y35.4348
G01 X-12.4507 Y35.4266
G01 X-12.6355 Y35.2592
G01 X-12.6446 Y35.2506
G01 X-12.6532 Y35.2415
G01 X-12.8206 Y35.0567
G01 X-12.8288 Y35.0473
G01 X-12.8364 Y35.0375
G01 X-12.9850 Y34.8372
G01 X-12.9922 Y34.8270
G01 X-12.9989 Y34.8164
G01 X-13.1271 Y34.6025
G01 X-13.1332 Y34.5917
G01 X-13.1388 Y34.5805
G01 X-13.2454 Y34.3551
G01 X-13.2505 Y34.3437
G01 X-13.2550 Y34.3321
G01 X-13.3390 Y34.0973
G01 X-13.3429 Y34.0854
G01 X-13.3462 Y34.0734
G01 X-13.4068 Y33.8315
G01 X-13.4096 Y33.8193
G01 X-13.4117 Y33.8070
G01 X-13.4483 Y33.5604
G01 X-13.4498 Y33.5480
G01 X-13.4507 Y33.5356
G01 X-13.4630 Y33.2865
G01 X-13.4633 Y33.2740
G01 X-13.4630 Y33.2615
G01 X-13.4507 Y33.0124
G01 X-13.4498 Y33.0000
G01 X-13.4483 Y32.9876
G01 X-13.4117 Y32.7410
G01 X-13.4096 Y32.7287
G01 X-13.4068 Y32.7165
G01 X-13.3462 Y32.4746
G01 X-13.3429 Y32.4626
G01 X-13.3390 Y32.4507
G01 X-13.2550 Y32.2159
G01 X-13.2505 Y32.2043
G01 X-13.2454 Y32.1929
G01 X-13.1388 Y31.9675
G01 X-13.1332 Y31.9563
G01 X-13.1271 Y31.9455
G01 X-12.9989 Y31.7316
G01 X-12.9922 Y31.7210
G01 X-12.9850 Y31.7108
G01 X-12.8364 Y31.5105
G01 X-12.8288 Y31.5007
G01 X-12.8206 Y31.4913
G01 X-12.6532 Y31.3065
G01 X-12.6446 Y31.2974
G01 X-12.6355 Y31.2888
G01 X-12.4507 Y31.1214
G01 X-12.4413 Y31.1132
G01 X-12.4315 Y31.1056
G01 X-12.2312 Y30.9570
G01 X-12.2210 Y30.9498
G01 X-12.2104 Y30.9431
G01 X-11.9911 Y30.8118
G01 X-11.9745 Y30.8032
G01 X-11.7491 Y30.6966
G01 X-11.7377 Y30.6915
G01 X-11.7261 Y30.6870
G01 X-11.4913 Y30.6030
G01 X-11.4794 Y30.5991
G01 X-11.4674 Y30.5958
G01 X-11.2255 Y30.5352
G01 X-11.2133 Y30.5324
G01 X-11.2010 Y30.5303
G01 X-10.9544 Y30.4937
G01 X-10.9420 Y30.4922
G01 X-10.9296 Y30.4913
G01 X-10.6805 Y30.4790
G01 X-10.6680 Y30.4787
G01 X-5.7163 Y30.4787
G01 X-5.7162 Y27.9338
G01 X-5.7037 Y27.6784
G01 X-5.7028 Y27.6660
G01 X-5.7013 Y27.6536
G01 X-5.6647 Y27.4070
G01 X-5.6626 Y27.3947
G01 X-5.6598 Y27.3825
G01 X-5.5992 Y27.1406
G01 X-5.5959 Y27.1286
G01 X-5.5920 Y27.1167
G01 X-5.5080 Y26.8819
G01 X-5.5035 Y26.8703
G01 X-5.4984 Y26.8589
G01 X-5.3918 Y26.6335
G01 X-5.3862 Y26.6223
G01 X-5.3801 Y26.6115
G01 X-5.2519 Y26.3976
G01 X-5.2452 Y26.3870
G01 X-5.2380 Y26.3768
G01 X-5.0894 Y26.1765
G01 X-5.0818 Y26.1667
G01 X-5.0736 Y26.1573
G01 X-4.9062 Y25.9725
G01 X-4.8976 Y25.9634
G01 X-4.8885 Y25.9548
G01 X-4.7037 Y25.7874
G01 X-4.6943 Y25.7792
G01 X-4.6845 Y25.7716
G01 X-4.4842 Y25.6230
G01 X-4.4740 Y25.6158
G01 X-4.4634 Y25.6091
G01 X-4.2495 Y25.4809
G01 X-4.2387 Y25.4748
G01 X-4.2275 Y25.4692
G01 X-4.0021 Y25.3626
G01 X-3.9907 Y25.3575
G01 X-3.9791 Y25.3530
G01 X-3.7443 Y25.2690
G01 X-3.7324 Y25.2651
G01 X-3.7204 Y25.2618
G01 X-3.4785 Y25.2012
G01 X-3.4663 Y25.1984
G01 X-3.4540 Y25.1963
G01 X-3.2074 Y25.1597
G01 X-3.1950 Y25.1582
G01 X-3.1826 Y25.1573
G01 X-2.9335 Y25.1450
G01 X-2.9210 Y25.1447
G01 X-2.9085 Y25.1450
G01 X-2.6594 Y25.1573
G01 X-2.6470 Y25.1582
G01 X-2.6346 Y25.1597
G01 X-2.3880 Y25.1963
G01 X-2.3757 Y25.1984
G01 X-2.3635 Y25.2012
G01 X-2.1216 Y25.2618
G01 X-2.1096 Y25.2651
G01 X-2.0977 Y25.2690
G01 X-1.8629 Y25.3530
G01 X-1.8513 Y25.3575
G01 X-1.8399 Y25.3626
G01 X-1.6145 Y25.4692
G01 X-1.6033 Y25.4748
G01 X-1.5925 Y25.4809
G01 X-1.3786 Y25.6091
G01 X-1.3680 Y25.6158
G01 X-1.3578 Y25.6230
G01 X-1.1575 Y25.7716
G01 X-1.1477 Y25.7792
G01 X-1.1383 Y25.7874
G01 X-0.9535 Y25.9548
G01 X-0.9444 Y25.9634
G01 X-0.9358 Y25.9725
G01 X-0.7684 Y26.1573
G01 X-0.7602 Y26.1667
G01 X-0.7526 Y26.1765
G01 X-0.6040 Y26.3768
G01 X-0.5968 Y26.3870
G01 X-0.5901 Y26.3976
G01 X-0.4619 Y26.6115
G01 X-0.4558 Y26.6223
G01 X-0.4502 Y26.6335
G01 X-0.3436 Y26.8589
G01 X-0.3385 Y26.8703
G01 X-0.3340 Y26.8819
G01 X-0.2500 Y27.1167
G01 X-0.2461 Y27.1286
G01 X-0.2428 Y27.1406
G01 X-0.1822 Y27.3825
G01 X-0.1794 Y27.3947
G01 X-0.1773 Y27.4070
G01 X-0.1407 Y27.6536
G00 Z5.0000
G00 X5.0724 Y37.9631
G01 F100.00
G01 Z-0.4000
G01 F325.00
G01 X5.0739 Y37.9755
G01 X5.0748 Y37.9880
G01 X5.0797 Y38.0875
G01 X5.0800 Y38.1000
G01 X5.0797 Y38.1125
G01 X5.0748 Y38.2120
G01 X5.0739 Y38.2245
G01 X5.0724 Y38.2369
G01 X5.0577 Y38.3355
G01 X5.0556 Y38.3478
G01 X5.0529 Y38.3599
G01 X5.0286 Y38.4566
G01 X5.0253 Y38.4687
G01 X5.0214 Y38.4805
G01 X4.9878 Y38.5744
G01 X4.9833 Y38.5860
G01 X4.9783 Y38.5974
G01 X4.9356 Y38.6875
G01 X4.9300 Y38.6987
G01 X4.9239 Y38.7095
G01 X4.8726 Y38.7950
G01 X4.8660 Y38.8056
G01 X4.8588 Y38.8158
G01 X4.7994 Y38.8959
G01 X4.7917 Y38.9057
G01 X4.7836 Y38.9151
G01 X4.7166 Y38.9890
G01 X4.7080 Y38.9980
G01 X4.6990 Y39.0066
G01 X4.6251 Y39.0736
G01 X4.6157 Y39.0817
G01 X4.6059 Y39.0894
G01 X4.5258 Y39.1488
G01 X4.5156 Y39.1560
G01 X4.5050 Y39.1626
G01 X4.4195 Y39.2139
G01 X4.4087 Y39.2200
G01 X4.3975 Y39.2256
G01 X4.3074 Y39.2683
G01 X4.2960 Y39.2733
G01 X4.2844 Y39.2778
G01 X4.1905 Y39.3114
G01 X4.1787 Y39.3153
G01 X4.1666 Y39.3186
G01 X4.0699 Y39.3429
G01 X4.0578 Y39.3456
G01 X4.0455 Y39.3477
G01 X3.9469 Y39.3624
G01 X3.9345 Y39.3639
G01 X3.9220 Y39.3648
G01 X3.8225 Y39.3697
G01 X3.8100 Y39.3700
G01 X3.7975 Y39.3697
G01 X3.6980 Y39.3648
G01 X3.6855 Y39.3639
G01 X3.6731 Y39.3624
G01 X3.5745 Y39.3477
G01 X3.5622 Y39.3456
G01 X3.5501 Y39.3429
G01 X3.4534 Y39.3186
G01 X3.4413 Y39.3153
G01 X3.4295 Y39.3114
G01 X3.3356 Y39.2778
G01 X3.3240 Y39.2733
G01 X3.3126 Y39.2683
G01 X3.2225 Y39.2256
G01 X3.2113 Y39.2200
G01 X3.2005 Y39.2139
G01 X3.1150 Y39.1626
G01 X3.1044 Y39.1560
G01 X3.0942 Y39.1488
G01 X3.0141 Y39.0894
G01 X3.0043 Y39.0817
G01 X2.9949 Y39.0736
G01 X2.9210 Y39.0066
G01 X2.9120 Y38.9980
G01 X2.9034 Y38.9890
G01 X2.8364 Y38.9151
G01 X2.8283 Y38.9057
G01 X2.8206 Y38.8959
G01 X2.7612 Y38.8158
G01 X2.7540 Y38.8056
G01 X2.7474 Y38.7950
G01 X2.6961 Y38.7095
G01 X2.6900 Y38.6987
G01 X2.6844 Y38.6875
G01 X2.6417 Y38.5974
G01 X2.6367 Y38.5860
G01 X2.6322 Y38.5744
G01 X2.5986 Y38.4805
G01 X2.5947 Y38.4687
G01 X2.5914 Y38.4566
G01 X2.5671 Y38.3599
G01 X2.5644 Y38.3478
G01 X2.5623 Y38.3355
G01 X2.5476 Y38.2369
G01 X2.5461 Y38.2245
G01 X2.5452 Y38.2120
G01 X2.5403 Y38.1125
G01 X2.5400 Y38.1000
G01 X2.5403 Y38.0875
G01 X2.5452 Y37.9880
G01 X2.5461 Y37.9755
G01 X2.5476 Y37.9631
G01 X2.5623 Y37.8645
G01 X2.5644 Y37.8522
G01 X2.5671 Y37.8401
G01 X2.5914 Y37.7434
G01 X2.5947 Y37.7313
G01 X2.5986 Y37.7195
G01 X2.6322 Y37.6256
G01 X2.6367 Y37.6140
G01 X2.6417 Y37.6026
G01 X2.6844 Y37.5125
G01 X2.6900 Y37.5013
G01 X2.6961 Y37.4905
G01 X2.7474 Y37.4050
G01 X2.7540 Y37.3944
G01 X2.7612 Y37.3842
G01 X2.8206 Y37.3041
G01 X2.8283 Y37.2943
G01 X2.8364 Y37.2849
G01 X2.9034 Y37.2110
G01 X2.9120 Y37.2020
G01 X2.9210 Y37.1934
G01 X2.9949 Y37.1264
G01 X3.0043 Y37.1183
G01 X3.0141 Y37.1106
G01 X3.0942 Y37.0512
G01 X3.1044 Y37.0440
G01 X3.1150 Y37.0374
G01 X3.2005 Y36.9861
G01 X3.2113 Y36.9800
G01 X3.2225 Y36.9744
G01 X3.3126 Y36.9317
G01 X3.3240 Y36.9267
G01 X3.3356 Y36.9222
G01 X3.4295 Y36.8886
G01 X3.4413 Y36.8847
G01 X3.4534 Y36.8814
G01 X3.5501 Y36.8571
G01 X3.5622 Y36.8544
G01 X3.5745 Y36.8523
G01 X3.6731 Y36.8376
G01 X3.6855 Y36.8361
G01 X3.6980 Y36.8352
G01 X3.7975 Y36.8303
G01 X3.8100 Y36.8300
G01 X3.8225 Y36.8303
G01 X3.9220 Y36.8352
G01 X3.9345 Y36.8361
G01 X3.9469 Y36.8376
G01 X4.0455 Y36.8523
G01 X4.0578 Y36.8544
G01 X4.0699 Y36.8571
G01 X4.1666 Y36.8814
G01 X4.1787 Y36.8847
G01 X4.1905 Y36.8886
G01 X4.2844 Y36.9222
G01 X4.2960 Y36.9267
G01 X4.3074 Y36.9317
G01 X4.3975 Y36.9744
G01 X4.4087 Y36.9800
G01 X4.4195 Y36.9861
G01 X4.5050 Y37.0374
G01 X4.5156 Y37.0440
G01 X4.5258 Y37.0512
G01 X4.6059 Y37.1106
G01 X4.6157 Y37.1183
G01 X4.6251 Y37.1264
G01 X4.6990 Y37.1934
G01 X4.7080 Y37.2020
G01 X4.7166 Y37.2110
G01 X4.7836 Y37.2849
G01 X4.7917 Y37.2943
G01 X4.7994 Y37.3041
G01 X4.8588 Y37.3842
G01 X4.8660 Y37.3944
G01 X4.8726 Y37.4050
G01 X4.9239 Y37.4905
G01 X4.9300 Y37.5013
G01 X4.9356 Y37.5125
G01 X4.9783 Y37.6026
G01 X4.9833 Y37.6140
G01 X4.9878 Y37.6256
G01 X5.0214 Y37.7195
G01 X5.0253 Y37.7313
G01 X5.0286 Y37.7434
G01 X5.0529 Y37.8401
G01 X5.0556 Y37.8522
G01 X5.0577 Y37.8645
G01 X5.0724 Y37.9631
G00 Z5.0000
G00 X5.3990 Y37.9147
G01 F100.00
G01 Z-0.4000
G01 F325.00
G01 X5.4025 Y37.9432
G01 X5.4046 Y37.9717
G01 X5.4095 Y38.0713
G01 X5.4102 Y38.1000
G01 X5.4095 Y38.1287
G01 X5.4046 Y38.2283
G01 X5.4025 Y38.2568
G01 X5.3990 Y38.2853
G01 X5.3844 Y38.3839
G01 X5.3795 Y38.4122
G01 X5.3732 Y38.4402
G01 X5.3489 Y38.5369
G01 X5.3413 Y38.5645
G01 X5.3323 Y38.5917
G01 X5.2987 Y38.6856
G01 X5.2884 Y38.7124
G01 X5.2768 Y38.7386
G01 X5.2341 Y38.8287
G01 X5.2213 Y38.8543
G01 X5.2071 Y38.8793
G01 X5.1559 Y38.9648
G01 X5.1405 Y38.9890
G01 X5.1240 Y39.0125
G01 X5.0646 Y39.0926
G01 X5.0470 Y39.1152
G01 X5.0282 Y39.1369
G01 X4.9613 Y39.2107
G01 X4.9415 Y39.2315
G01 X4.9207 Y39.2513
G01 X4.8469 Y39.3182
G01 X4.8252 Y39.3370
G01 X4.8026 Y39.3546
G01 X4.7225 Y39.4140
G01 X4.6990 Y39.4305
G01 X4.6748 Y39.4459
G01 X4.5893 Y39.4971
G01 X4.5643 Y39.5113
G01 X4.5387 Y39.5241
G01 X4.4486 Y39.5668
G01 X4.4224 Y39.5784
G01 X4.3956 Y39.5887
G01 X4.3017 Y39.6223
G01 X4.2745 Y39.6313
G01 X4.2469 Y39.6389
G01 X4.1502 Y39.6632
G01 X4.1222 Y39.6695
G01 X4.0939 Y39.6744
G01 X3.9953 Y39.6890
G01 X3.9668 Y39.6925
G01 X3.9383 Y39.6946
G01 X3.8387 Y39.6995
G01 X3.8100 Y39.7002
G01 X3.7813 Y39.6995
G01 X3.6817 Y39.6946
G01 X3.6532 Y39.6925
G01 X3.6247 Y39.6890
G01 X3.5261 Y39.6744
G01 X3.4978 Y39.6695
G01 X3.4698 Y39.6632
G01 X3.3731 Y39.6389
G01 X3.3455 Y39.6313
G01 X3.3183 Y39.6223
G01 X3.2244 Y39.5887
G01 X3.1976 Y39.5784
G01 X3.1714 Y39.5668
G01 X3.0813 Y39.5241
G01 X3.0557 Y39.5113
G01 X3.0307 Y39.4971
G01 X2.9452 Y39.4459
G01 X2.9210 Y39.4305
G01 X2.8975 Y39.4140
G01 X2.8174 Y39.3546
G01 X2.7948 Y39.3370
G01 X2.7731 Y39.3182
G01 X2.6993 Y39.2513
G01 X2.6785 Y39.2315
G01 X2.6587 Y39.2107
G01 X2.5918 Y39.1369
G01 X2.5730 Y39.1152
G01 X2.5554 Y39.0926
G01 X2.4960 Y39.0125
G01 X2.4795 Y38.9890
G01 X2.4641 Y38.9648
G01 X2.4129 Y38.8793
G01 X2.3987 Y38.8543
G01 X2.3859 Y38.8287
G01 X2.3432 Y38.7386
G01 X2.3316 Y38.7124
G01 X2.3213 Y38.6856
G01 X2.2877 Y38.5917
G01 X2.2787 Y38.5645
G01 X2.2711 Y38.5369
G01 X2.2468 Y38.4402
G01 X2.2405 Y38.4122
G01 X2.2356 Y38.3839
G01 X2.2210 Y38.2853
G01 X2.2175 Y38.2568
G01 X2.2154 Y38.2283
G01 X2.2105 Y38.1287
G01 X2.2098 Y38.1000
G01 X2.2105 Y38.0713
G01 X2.2154 Y37.9717
G01 X2.2175 Y37.9432
G01 X2.2210 Y37.9147
G01 X2.2356 Y37.8161
G01 X2.2405 Y37.7878
G01 X2.2468 Y37.7598
G01 X2.2711 Y37.6631
G01 X2.2787 Y37.6355
G01 X2.2877 Y37.6083
G01 X2.3213 Y37.5144
G01 X2.3316 Y37.4876
G01 X2.3432 Y37.4614
G01 X2.3859 Y37.3713
G01 X2.3987 Y37.3457
G01 X2.4129 Y37.3207
G01 X2.4641 Y37.2352
G01 X2.4795 Y37.2110
G01 X2.4960 Y37.1875
G01 X2.5554 Y37.1074
G01 X2.5730 Y37.0848
G01 X2.5918 Y37.0631
G01 X2.6587 Y36.9893
G01 X2.6785 Y36.9685
G01 X2.6993 Y36.9487
G01 X2.7731 Y36.8818
G01 X2.7948 Y36.8630
G01 X2.8174 Y36.8454
G01 X2.8975 Y36.7860
G01 X2.9210 Y36.7695
G01 X2.9452 Y36.7541
G01 X3.0307 Y36.7029
G01 X3.0557 Y36.6887
G01 X3.0813 Y36.6759
G01 X3.1714 Y36.6332
G01 X3.1976 Y36.6216
G01 X3.2244 Y36.6113
G01 X3.3183 Y36.5777
G01 X3.3455 Y36.5687
G01 X3.3731 Y36.5611
G01 X3.4698 Y36.5368
G01 X3.4978 Y36.5305
G01 X3.5261 Y36.5256
G01 X3.6247 Y36.5110
G01 X3.6532 Y36.5075
G01 X3.6817 Y36.5054
G01 X3.7813 Y36.5005
G01 X3.8100 Y36.4998
G01 X3.8387 Y36.5005
G01 X3.9383 Y36.5054
G01 X3.9668 Y36.5075
G01 X3.9953 Y36.5110
G01 X4.0939 Y36.5256
G01 X4.1222 Y36.5305
G01 X4.1502 Y36.5368
G01 X4.2469 Y36.5611
G01 X4.2745 Y36.5687
G01 X4.3017 Y36.5777
G01 X4.3956 Y36.6113
G01 X4.4224 Y36.6216
G01 X4.4486 Y36.6332
G01 X4.5387 Y36.6759
G01 X4.5643 Y36.6887
G01 X4.5893 Y36.7029
G01 X4.6748 Y36.7541
G01 X4.6990 Y36.7695
G01 X4.7225 Y36.7860
G01 X4.8026 Y36.8454
G01 X4.8252 Y36.8630
G01 X4.8469 Y36.8818
G01 X4.9207 Y36.9487
G01 X4.9415 Y36.9685
G01 X4.9613 Y36.9893
G01 X5.0282 Y37.0631
G01 X5.0470 Y37.0848
G01 X5.0646 Y37.1074
G01 X5.1240 Y37.1875
G01 X5.1405 Y37.2110
G01 X5.1559 Y37.2352
G01 X5.2071 Y37.3207
G01 X5.2213 Y37.3457
G01 X5.2341 Y37.3713
G01 X5.2768 Y37.4614
G01 X5.2884 Y37.4876
G01 X5.2987 Y37.5144
G01 X5.3323 Y37.6083
G01 X5.3413 Y37.6355
G01 X5.3489 Y37.6631
G01 X5.3732 Y37.7598
G01 X5.3795 Y37.7878
G01 X5.3844 Y37.8161
G01 X5.3990 Y37.9147
G00 Z5.0000
G00 X5.7256 Y37.8662
G01 F100.00
G01 Z-0.4000
G01 F325.00
G01 X5.7286 Y37.8885
G01 X5.7311 Y37.9108
G01 X5.7330 Y37.9331
G01 X5.7393 Y38.0551
G01 X5.7401 Y38.0776
G01 X5.7404 Y38.1000
G01 X5.7401 Y38.1224
G01 X5.7393 Y38.1449
G01 X5.7330 Y38.2669
G01 X5.7311 Y38.2892
G01 X5.7286 Y38.3115
G01 X5.7256 Y38.3338
G01 X5.7110 Y38.4324
G01 X5.7074 Y38.4545
G01 X5.7033 Y38.4766
G01 X5.6987 Y38.4986
G01 X5.6935 Y38.5204
G01 X5.6635 Y38.6388
G01 X5.6573 Y38.6604
G01 X5.6505 Y38.6818
G01 X5.6432 Y38.7030
G01 X5.6096 Y38.7969
G01 X5.6018 Y38.8179
G01 X5.5935 Y38.8387
G01 X5.5846 Y38.8594
G01 X5.5753 Y38.8798
G01 X5.5326 Y38.9699
G01 X5.5228 Y38.9901
G01 X5.5125 Y39.0100
G01 X5.5016 Y39.0296
G01 X5.4903 Y39.0490
G01 X5.4391 Y39.1346
G01 X5.4273 Y39.1537
G01 X5.4151 Y39.1725
G01 X5.4024 Y39.1910
G01 X5.3892 Y39.2092
G01 X5.3162 Y39.3071
G01 X5.3022 Y39.3246
G01 X5.2878 Y39.3418
G01 X5.2729 Y39.3586
G01 X5.2059 Y39.4325
G01 X5.1907 Y39.4489
G01 X5.1750 Y39.4650
G01 X5.1589 Y39.4807
G01 X5.1425 Y39.4959
G01 X5.0686 Y39.5629
G01 X5.0518 Y39.5778
G01 X5.0346 Y39.5922
G01 X5.0171 Y39.6062
G01 X4.9993 Y39.6198
G01 X4.9192 Y39.6792
G01 X4.9010 Y39.6924
G01 X4.8825 Y39.7051
G01 X4.8637 Y39.7173
G01 X4.8446 Y39.7291
G01 X4.7590 Y39.7803
G01 X4.7396 Y39.7916
G01 X4.7200 Y39.8025
G01 X4.7001 Y39.8128
G01 X4.6799 Y39.8226
G01 X4.5898 Y39.8653
G01 X4.5694 Y39.8746
G01 X4.5487 Y39.8835
G01 X4.5279 Y39.8918
G01 X4.5069 Y39.8996
G01 X4.4130 Y39.9332
G01 X4.3918 Y39.9405
G01 X4.3704 Y39.9473
G01 X4.3488 Y39.9535
G01 X4.3271 Y39.9592
G01 X4.2304 Y39.9835
G01 X4.2086 Y39.9887
G01 X4.1866 Y39.9933
G01 X4.1645 Y39.9974
G01 X4.1424 Y40.0010
G01 X4.0215 Y40.0186
G01 X3.9992 Y40.0211
G01 X3.9769 Y40.0230
G01 X3.9545 Y40.0244
G01 X3.8549 Y40.0293
G01 X3.8324 Y40.0301
G01 X3.8100 Y40.0304
G01 X3.7876 Y40.0301
G01 X3.7651 Y40.0293
G01 X3.6655 Y40.0244
G01 X3.6431 Y40.0230
G01 X3.6208 Y40.0211
G01 X3.5985 Y40.0186
G01 X3.5762 Y40.0156
G01 X3.4776 Y40.0010
G01 X3.4555 Y39.9974
G01 X3.4334 Y39.9933
G01 X3.4114 Y39.9887
G01 X3.3896 Y39.9835
G01 X3.2929 Y39.9592
G01 X3.2712 Y39.9535
G01 X3.2496 Y39.9473
G01 X3.2282 Y39.9405
G01 X3.2070 Y39.9332
G01 X3.1131 Y39.8996
G01 X3.0921 Y39.8918
G01 X3.0713 Y39.8835
G01 X3.0506 Y39.8746
G01 X3.0302 Y39.8653
G01 X2.9401 Y39.8226
G01 X2.9199 Y39.8128
G01 X2.9000 Y39.8025
G01 X2.8804 Y39.7916
G01 X2.8610 Y39.7803
G01 X2.7754 Y39.7291
G01 X2.7563 Y39.7173
G01 X2.7375 Y39.7051
G01 X2.7190 Y39.6924
G01 X2.7008 Y39.6792
G01 X2.6207 Y39.6198
G01 X2.6029 Y39.6062
G01 X2.5854 Y39.5922
G01 X2.5682 Y39.5778
G01 X2.5514 Y39.5629
G01 X2.4775 Y39.4959
G01 X2.4611 Y39.4807
G01 X2.4450 Y39.4650
G01 X2.4293 Y39.4489
G01 X2.4141 Y39.4325
G01 X2.3471 Y39.3586
G01 X2.3322 Y39.3418
G01 X2.3178 Y39.3246
G01 X2.3038 Y39.3071
G01 X2.2902 Y39.2893
G01 X2.2308 Y39.2092
G01 X2.2176 Y39.1910
G01 X2.2049 Y39.1725
G01 X2.1927 Y39.1537
G01 X2.1809 Y39.1346
G01 X2.1297 Y39.0490
G01 X2.1184 Y39.0296
G01 X2.1075 Y39.0100
G01 X2.0972 Y38.9901
G01 X2.0874 Y38.9699
G01 X2.0447 Y38.8798
G01 X2.0354 Y38.8594
G01 X2.0265 Y38.8387
G01 X2.0182 Y38.8179
G01 X2.0104 Y38.7969
G01 X1.9768 Y38.7030
G01 X1.9695 Y38.6818
G01 X1.9627 Y38.6604
G01 X1.9565 Y38.6388
G01 X1.9508 Y38.6171
G01 X1.9265 Y38.5204
G01 X1.9213 Y38.4986
G01 X1.9167 Y38.4766
G01 X1.9126 Y38.4545
G01 X1.9090 Y38.4324
G01 X1.8914 Y38.3115
G01 X1.8889 Y38.2892
G01 X1.8870 Y38.2669
G01 X1.8856 Y38.2445
G01 X1.8807 Y38.1449
G01 X1.8799 Y38.1224
G01 X1.8796 Y38.1000
G01 X1.8799 Y38.0776
G01 X1.8807 Y38.0551
G01 X1.8856 Y37.9555
G01 X1.8870 Y37.9331
G01 X1.8889 Y37.9108
G01 X1.8914 Y37.8885
G01 X1.8944 Y37.8662
G01 X1.9090 Y37.7676
G01 X1.9126 Y37.7455
G01 X1.9167 Y37.7234
G01 X1.9213 Y37.7014
G01 X1.9265 Y37.6796
G01 X1.9508 Y37.5829
G01 X1.9565 Y37.5612
G01 X1.9627 Y37.5396
G01 X1.9695 Y37.5182
G01 X1.9768 Y37.4970
G01 X2.0104 Y37.4031
G01 X2.0182 Y37.3821
G01 X2.0265 Y37.3613
G01 X2.0354 Y37.3406
G01 X2.0447 Y37.3202
G01 X2.0874 Y37.2301
G01 X2.0972 Y37.2099
G01 X2.1075 Y37.1900
G01 X2.1184 Y37.1704
G01 X2.1297 Y37.1510
G01 X2.1809 Y37.0654
G01 X2.1927 Y37.0463
G01 X2.2049 Y37.0275
G01 X2.2176 Y37.0090
G01 X2.2308 Y36.9908
G01 X2.2902 Y36.9107
G01 X2.3038 Y36.8929
G01 X2.3178 Y36.8754
G01 X2.3322 Y36.8582
G01 X2.3471 Y36.8414
G01 X2.4141 Y36.7675
G01 X2.4293 Y36.7511
G01 X2.4450 Y36.7350
G01 X2.4611 Y36.7193
G01 X2.4775 Y36.7041
G01 X2.5514 Y36.6371
G01 X2.5682 Y36.6222
G01 X2.5854 Y36.6078
G01 X2.6029 Y36.5938
G01 X2.6207 Y36.5802
G01 X2.7008 Y36.5208
G01 X2.7190 Y36.5076
G01 X2.7375 Y36.4949
G01 X2.7563 Y36.4827
G01 X2.7754 Y36.4709
G01 X2.8610 Y36.4197
G01 X2.8804 Y36.4084
G01 X2.9000 Y36.3975
G01 X2.9199 Y36.3872
G01 X2.9401 Y36.3774
G01 X3.0302 Y36.3347
G01 X3.0506 Y36.3254
G01 X3.0713 Y36.3165
G01 X3.0921 Y36.3082
G01 X3.1131 Y36.3004
G01 X3.2070 Y36.2668
G01 X3.2282 Y36.2595
G01 X3.2496 Y36.2527
G01 X3.2712 Y36.2465
G01 X3.2929 Y36.2408
G01 X3.3896 Y36.2165
G01 X3.4114 Y36.2113
G01 X3.4334 Y36.2067
G01 X3.4555 Y36.2026
G01 X3.4776 Y36.1990
G01 X3.5985 Y36.1814
G01 X3.6208 Y36.1789
G01 X3.6431 Y36.1770
G01 X3.6655 Y36.1756
G01 X3.7651 Y36.1707
G01 X3.7876 Y36.1699
G01 X3.8100 Y36.1696
G01 X3.8324 Y36.1699
G01 X3.8549 Y36.1707
G01 X3.9545 Y36.1756
G01 X3.9769 Y36.1770
G01 X3.9992 Y36.1789
G01 X4.0215 Y36.1814
G01 X4.0438 Y36.1844
G01 X4.1424 Y36.1990
G01 X4.1645 Y36.2026
G01 X4.1866 Y36.2067
G01 X4.2086 Y36.2113
G01 X4.2304 Y36.2165
G01 X4.3271 Y36.2408
G01 X4.3488 Y36.2465
G01 X4.3704 Y36.2527
G01 X4.3918 Y36.2595
G01 X4.4130 Y36.2668
G01 X4.5069 Y36.3004
G01 X4.5279 Y36.3082
G01 X4.5487 Y36.3165
G01 X4.5694 Y36.3254
G01 X4.5898 Y36.3347
G01 X4.6799 Y36.3774
G01 X4.7001 Y36.3872
G01 X4.7200 Y36.3975
G01 X4.7396 Y36.4084
G01 X4.7590 Y36.4197
G01 X4.8446 Y36.4709
G01 X4.8637 Y36.4827
G01 X4.8825 Y36.4949
G01 X4.9010 Y36.5076
G01 X4.9192 Y36.5208
G01 X5.0171 Y36.5938
G01 X5.0346 Y36.6078
G01 X5.0518 Y36.6222
G01 X5.0686 Y36.6371
G01 X5.1425 Y36.7041
G01 X5.1589 Y36.7193
G01 X5.1750 Y36.7350
G01 X5.1907 Y36.7511
G01 X5.2059 Y36.7675
G01 X5.2729 Y36.8414
G01 X5.2878 Y36.8582
G01 X5.3022 Y36.8754
G01 X5.3162 Y36.8929
G01 X5.3298 Y36.9107
G01 X5.3892 Y36.9908
G01 X5.4024 Y37.0090
G01 X5.4151 Y37.0275
G01 X5.4273 Y37.0463
G01 X5.4391 Y37.0654
G01 X5.5016 Y37.1704
G01 X5.5125 Y37.1900
G01 X5.5228 Y37.2099
G01 X5.5326 Y37.2301
G01 X5.5753 Y37.3202
G01 X5.5846 Y37.3406
G01 X5.5935 Y37.3613
G01 X5.6018 Y37.3821
G01 X5.6096 Y37.4031
G01 X5.6505 Y37.5182
G01 X5.6573 Y37.5396
G01 X5.6635 Y37.5612
G01 X5.6692 Y37.5829
G01 X5.6987 Y37.7014
G01 X5.7033 Y37.7234
G01 X5.7074 Y37.7455
G01 X5.7256 Y37.8662
G00 Z5.0000
G00 X1.7048 Y53.8479
G01 F100.00
G01 Z-0.4000
G01 F325.00
G01 X2.5446 Y54.0730
G01 X3.2975 Y54.5077
G01 X3.9123 Y55.1225
G01 X4.3470 Y55.8754
G01 X4.5721 Y56.7152
G01 X4.5721 Y57.5848
G01 X4.3470 Y58.4246
G01 X3.9123 Y59.1775
G01 X3.2975 Y59.7923
G01 X2.5446 Y60.2270
G01 X1.7048 Y60.4521
G01 X0.8352 Y60.4521
G01 X-0.0046 Y60.2270
G01 X-0.7575 Y59.7923
G01 X-1.3723 Y59.1775
G01 X-1.8070 Y58.4246
G01 X-2.0321 Y57.5848
G01 X-2.0321 Y56.7152
G01 X-1.8070 Y55.8754
G01 X-1.3723 Y55.1225
G01 X-0.7575 Y54.5077
G01 X-0.0046 Y54.0730
G01 X0.8352 Y53.8479
G01 X1.7048 Y53.8479
G00 Z5.0000
G00 X1.6613 Y54.1781
G01 F100.00
G01 Z-0.4000
G01 F325.00
G01 X2.4171 Y54.3807
G01 X3.0948 Y54.7719
G01 X3.6481 Y55.3252
G01 X4.0393 Y56.0029
G01 X4.2419 Y56.7587
G01 X4.2419 Y57.5413
G01 X4.0393 Y58.2971
G01 X3.6481 Y58.9748
G01 X3.0948 Y59.5281
G01 X2.4171 Y59.9193
G01 X1.6613 Y60.1219
G01 X0.8787 Y60.1219
G01 X0.1229 Y59.9193
G01 X-0.5548 Y59.5281
G01 X-1.1081 Y58.9748
G01 X-1.4993 Y58.2971
G01 X-1.7019 Y57.5413
G01 X-1.7019 Y56.7587
G01 X-1.4993 Y56.0029
G01 X-1.1081 Y55.3252
G01 X-0.5548 Y54.7719
G01 X0.1229 Y54.3807
G01 X0.8787 Y54.1781
G01 X1.6613 Y54.1781
G00 Z5.0000
G00 X1.6178 Y54.5083
G01 F100.00
G01 Z-0.4000
G01 F325.00
G01 X2.2897 Y54.6884
G01 X2.8921 Y55.0361
G01 X3.3839 Y55.5279
G01 X3.7316 Y56.1303
G01 X3.9117 Y56.8022
G01 X3.9117 Y57.4978
G01 X3.7316 Y58.1697
G01 X3.3839 Y58.7721
G01 X2.8921 Y59.2639
G01 X2.2897 Y59.6116
G01 X1.6178 Y59.7917
G01 X0.9222 Y59.7917
G01 X0.2503 Y59.6116
G01 X-0.3521 Y59.2639
G01 X-0.8439 Y58.7721
G01 X-1.1916 Y58.1697
G01 X-1.3717 Y57.4978
G01 X-1.3717 Y56.8022
G01 X-1.1916 Y56.1303
G01 X-0.8439 Y55.5279
G01 X-0.3521 Y55.0361
G01 X0.2503 Y54.6884
G01 X0.9222 Y54.5083
G01 X1.6178 Y54.5083
G00 Z5.0000
G00 X2.5324 Y57.0131
G01 F100.00
G01 Z-0.4000
G01 F325.00
G01 X2.5339 Y57.0255
G01 X2.5348 Y57.0380
G01 X2.5397 Y57.1375
G01 X2.5400 Y57.1500
G01 X2.5397 Y57.1625
G01 X2.5348 Y57.2620
G01 X2.5339 Y57.2745
G01 X2.5324 Y57.2869
G01 X2.5177 Y57.3855
G01 X2.5156 Y57.3978
G01 X2.5129 Y57.4099
G01 X2.4886 Y57.5066
G01 X2.4853 Y57.5187
G01 X2.4814 Y57.5305
G01 X2.4478 Y57.6244
G01 X2.4433 Y57.6360
G01 X2.4383 Y57.6474
G01 X2.3956 Y57.7375
G01 X2.3900 Y57.7487
G01 X2.3839 Y57.7595
G01 X2.3326 Y57.8450
G01 X2.3260 Y57.8556
G01 X2.3188 Y57.8658
G01 X2.2594 Y57.9459
G01 X2.2517 Y57.9557
G01 X2.2436 Y57.9651
G01 X2.1766 Y58.0390
G01 X2.1680 Y58.0480
G01 X2.1590 Y58.0566
G01 X2.0851 Y58.1236
G01 X2.0757 Y58.1317
G01 X2.0659 Y58.1394
G01 X1.9858 Y58.1988
G01 X1.9756 Y58.2060
G01 X1.9650 Y58.2126
G01 X1.8795 Y58.2639
G01 X1.8687 Y58.2700
G01 X1.8575 Y58.2756
G01 X1.7674 Y58.3183
G01 X1.7560 Y58.3233
G01 X1.7444 Y58.3278
G01 X1.6505 Y58.3614
G01 X1.6387 Y58.3653
G01 X1.6266 Y58.3686
G01 X1.5299 Y58.3929
G01 X1.5178 Y58.3956
G01 X1.5055 Y58.3977
G01 X1.4069 Y58.4124
G01 X1.3945 Y58.4139
G01 X1.3820 Y58.4148
G01 X1.2825 Y58.4197
G01 X1.2700 Y58.4200
G01 X1.2575 Y58.4197
G01 X1.1580 Y58.4148
G01 X1.1455 Y58.4139
G01 X1.1331 Y58.4124
G01 X1.0345 Y58.3977
G01 X1.0222 Y58.3956
G01 X1.0101 Y58.3929
G01 X0.9134 Y58.3686
G01 X0.9013 Y58.3653
G01 X0.8895 Y58.3614
G01 X0.7956 Y58.3278
G01 X0.7840 Y58.3233
G01 X0.7726 Y58.3183
G01 X0.6825 Y58.2756
G01 X0.6713 Y58.2700
G01 X0.6605 Y58.2639
G01 X0.5750 Y58.2126
G01 X0.5644 Y58.2060
G01 X0.5542 Y58.1988
G01 X0.4741 Y58.1394
G01 X0.4643 Y58.1317
G01 X0.4549 Y58.1236
G01 X0.3810 Y58.0566
G01 X0.3720 Y58.0480
G01 X0.3634 Y58.0390
G01 X0.2964 Y57.9651
G01 X0.2883 Y57.9557
G01 X0.2806 Y57.9459
G01 X0.2212 Y57.8658
G01 X0.2140 Y57.8556
G01 X0.2074 Y57.8450
G01 X0.1561 Y57.7595
G01 X0.1500 Y57.7487
G01 X0.1444 Y57.7375
G01 X0.1017 Y57.6474
G01 X0.0967 Y57.6360
G01 X0.0922 Y57.6244
G01 X0.0586 Y57.5305
G01 X0.0547 Y57.5187
G01 X0.0514 Y57.5066
G01 X0.0271 Y57.4099
G01 X0.0244 Y57.3978
G01 X0.0223 Y57.3855
G01 X0.0076 Y57.2869
G01 X0.0061 Y57.2745
G01 X0.0052 Y57.2620
G01 X0.0003 Y57.1625
G01 X0.0000 Y57.1500
G01 X0.0003 Y57.1375
G01 X0.0052 Y57.0380
G01 X0.0061 Y57.0255
G01 X0.0076 Y57.0131
G01 X0.0223 Y56.9145
G01 X0.0244 Y56.9022
G01 X0.0271 Y56.8901
G01 X0.0514 Y56.7934
G01 X0.0547 Y56.7813
G01 X0.0586 Y56.7695
G01 X0.0922 Y56.6756
G01 X0.0967 Y56.6640
G01 X0.1017 Y56.6526
G01 X0.1444 Y56.5625
G01 X0.1500 Y56.5513
G01 X0.1561 Y56.5405
G01 X0.2074 Y56.4550
G01 X0.2140 Y56.4444
G01 X0.2212 Y56.4342
G01 X0.2806 Y56.3541
G01 X0.2883 Y56.3443
G01 X0.2964 Y56.3349
G01 X0.3634 Y56.2610
G01 X0.3720 Y56.2520
G01 X0.3810 Y56.2434
G01 X0.4549 Y56.1764
G01 X0.4643 Y56.1683
G01 X0.4741 Y56.1606
G01 X0.5542 Y56.1012
G01 X0.5644 Y56.0940
G01 X0.5750 Y56.0874
G01 X0.6605 Y56.0361
G01 X0.6713 Y56.0300
G01 X0.6825 Y56.0244
G01 X0.7726 Y55.9817
G01 X0.7840 Y55.9767
G01 X0.7956 Y55.9722
G01 X0.8895 Y55.9386
G01 X0.9013 Y55.9347
G01 X0.9134 Y55.9314
G01 X1.0101 Y55.9071
G01 X1.0222 Y55.9044
G01 X1.0345 Y55.9023
G01 X1.1331 Y55.8876
G01 X1.1455 Y55.8861
G01 X1.1580 Y55.8852
G01 X1.2575 Y55.8803
G01 X1.2700 Y55.8800
G01 X1.2825 Y55.8803
G01 X1.3820 Y55.8852
G01 X1.3945 Y55.8861
G01 X1.4069 Y55.8876
G01 X1.5055 Y55.9023
G01 X1.5178 Y55.9044
G01 X1.5299 Y55.9071
G01 X1.6266 Y55.9314
G01 X1.6387 Y55.9347
G01 X1.6505 Y55.9386
G01 X1.7444 Y55.9722
G01 X1.7560 Y55.9767
G01 X1.7674 Y55.9817
G01 X1.8575 Y56.0244
G01 X1.8687 Y56.0300
G01 X1.8795 Y56.0361
G01 X1.9650 Y56.0874
G01 X1.9756 Y56.0940
G01 X1.9858 Y56.1012
G01 X2.0659 Y56.1606
G01 X2.0757 Y56.1683
G01 X2.0851 Y56.1764
G01 X2.1590 Y56.2434
G01 X2.1680 Y56.2520
G01 X2.1766 Y56.2610
G01 X2.2436 Y56.3349
G01 X2.2517 Y56.3443
G01 X2.2594 Y56.3541
G01 X2.3188 Y56.4342
G01 X2.3260 Y56.4444
G01 X2.3326 Y56.4550
G01 X2.3839 Y56.5405
G01 X2.3900 Y56.5513
G01 X2.3956 Y56.5625
G01 X2.4383 Y56.6526
G01 X2.4433 Y56.6640
G01 X2.4478 Y56.6756
G01 X2.4814 Y56.7695
G01 X2.4853 Y56.7813
G01 X2.4886 Y56.7934
G01 X2.5129 Y56.8901
G01 X2.5156 Y56.9022
G01 X2.5177 Y56.9145
G01 X2.5324 Y57.0131
G00 Z5.0000
G00 X2.8590 Y56.9647
G01 F100.00
G01 Z-0.4000
G01 F325.00
G01 X2.8625 Y56.9932
G01 X2.8646 Y57.0217
G01 X2.8695 Y57.1213
G01 X2.8702 Y57.1500
G01 X2.8695 Y57.1787
G01 X2.8646 Y57.2783
G01 X2.8625 Y57.3068
G01 X2.8590 Y57.3353
G01 X2.8444 Y57.4339
G01 X2.8395 Y57.4622
G01 X2.8332 Y57.4902
G01 X2.8089 Y57.5869
G01 X2.8013 Y57.6145
G01 X2.7923 Y57.6417
G01 X2.7587 Y57.7356
G01 X2.7484 Y57.7624
G01 X2.7368 Y57.7886
G01 X2.6941 Y57.8787
G01 X2.6813 Y57.9043
G01 X2.6671 Y57.9293
G01 X2.6159 Y58.0148
G01 X2.6005 Y58.0390
G01 X2.5840 Y58.0625
G01 X2.5246 Y58.1426
G01 X2.5070 Y58.1652
G01 X2.4882 Y58.1869
G01 X2.4213 Y58.2607
G01 X2.4015 Y58.2815
G01 X2.3807 Y58.3013
G01 X2.3069 Y58.3682
G01 X2.2852 Y58.3870
G01 X2.2626 Y58.4046
G01 X2.1825 Y58.4640
G01 X2.1590 Y58.4805
G01 X2.1348 Y58.4959
G01 X2.0493 Y58.5471
G01 X2.0243 Y58.5613
G01 X1.9987 Y58.5741
G01 X1.9086 Y58.6168
G01 X1.8824 Y58.6284
G01 X1.8556 Y58.6387
G01 X1.7617 Y58.6723
G01 X1.7345 Y58.6813
G01 X1.7069 Y58.6889
G01 X1.6102 Y58.7132
G01 X1.5822 Y58.7195
G01 X1.5539 Y58.7244
G01 X1.4553 Y58.7390
G01 X1.4268 Y58.7425
G01 X1.3983 Y58.7446
G01 X1.2987 Y58.7495
G01 X1.2700 Y58.7502
G01 X1.2413 Y58.7495
G01 X1.1417 Y58.7446
G01 X1.1132 Y58.7425
G01 X1.0847 Y58.7390
G01 X0.9861 Y58.7244
G01 X0.9578 Y58.7195
G01 X0.9298 Y58.7132
G01 X0.8331 Y58.6889
G01 X0.8055 Y58.6813
G01 X0.7783 Y58.6723
G01 X0.6844 Y58.6387
G01 X0.6576 Y58.6284
G01 X0.6314 Y58.6168
G01 X0.5413 Y58.5741
G01 X0.5157 Y58.5613
G01 X0.4907 Y58.5471
G01 X0.4052 Y58.4959
G01 X0.3810 Y58.4805
G01 X0.3575 Y58.4640
G01 X0.2774 Y58.4046
G01 X0.2548 Y58.3870
G01 X0.2331 Y58.3682
G01 X0.1593 Y58.3013
G01 X0.1385 Y58.2815
G01 X0.1187 Y58.2607
G01 X0.0518 Y58.1869
G01 X0.0330 Y58.1652
G01 X0.0154 Y58.1426
G01 X-0.0440 Y58.0625
G01 X-0.0605 Y58.0390
G01 X-0.0759 Y58.0148
G01 X-0.1271 Y57.9293
G01 X-0.1413 Y57.9043
G01 X-0.1541 Y57.8787
G01 X-0.1968 Y57.7886
G01 X-0.2084 Y57.7624
G01 X-0.2187 Y57.7356
G01 X-0.2523 Y57.6417
G01 X-0.2613 Y57.6145
G01 X-0.2689 Y57.5869
G01 X-0.2932 Y57.4902
G01 X-0.2995 Y57.4622
G01 X-0.3044 Y57.4339
G01 X-0.3190 Y57.3353
G01 X-0.3225 Y57.3068
G01 X-0.3246 Y57.2783
G01 X-0.3295 Y57.1787
G01 X-0.3302 Y57.1500
G01 X-0.3295 Y57.1213
G01 X-0.3246 Y57.0217
G01 X-0.3225 Y56.9932
G01 X-0.3190 Y56.9647
G01 X-0.3044 Y56.8661
G01 X-0.2995 Y56.8378
G01 X-0.2932 Y56.8098
G01 X-0.2689 Y56.7131
G01 X-0.2613 Y56.6855
G01 X-0.2523 Y56.6583
G01 X-0.2187 Y56.5644
G01 X-0.2084 Y56.5376
G01 X-0.1968 Y56.5114
G01 X-0.1541 Y56.4213
G01 X-0.1413 Y56.3957
G01 X-0.1271 Y56.3707
G01 X-0.0759 Y56.2852
G01 X-0.0605 Y56.2610
G01 X-0.0440 Y56.2375
G01 X0.0154 Y56.1574
G01 X0.0330 Y56.1348
G01 X0.0518 Y56.1131
G01 X0.1187 Y56.0393
G01 X0.1385 Y56.0185
G01 X0.1593 Y55.9987
G01 X0.2331 Y55.9318
G01 X0.2548 Y55.9130
G01 X0.2774 Y55.8954
G01 X0.3575 Y55.8360
G01 X0.3810 Y55.8195
G01 X0.4052 Y55.8041
G01 X0.4907 Y55.7529
G01 X0.5157 Y55.7387
G01 X0.5413 Y55.7259
G01 X0.6314 Y55.6832
G01 X0.6576 Y55.6716
G01 X0.6844 Y55.6613
G01 X0.7783 Y55.6277
G01 X0.8055 Y55.6187
G01 X0.8331 Y55.6111
G01 X0.9298 Y55.5868
G01 X0.9578 Y55.5805
G01 X0.9861 Y55.5756
G01 X1.0847 Y55.5610
G01 X1.1132 Y55.5575
G01 X1.1417 Y55.5554
G01 X1.2413 Y55.5505
G01 X1.2700 Y55.5498
G01 X1.2987 Y55.5505
G01 X1.3983 Y55.5554
G01 X1.4268 Y55.5575
G01 X1.4553 Y55.5610
G01 X1.5539 Y55.5756
G01 X1.5822 Y55.5805
G01 X1.6102 Y55.5868
G01 X1.7069 Y55.6111
G01 X1.7345 Y55.6187
G01 X1.7617 Y55.6277
G01 X1.8556 Y55.6613
G01 X1.8824 Y55.6716
G01 X1.9086 Y55.6832
G01 X1.9987 Y55.7259
G01 X2.0243 Y55.7387
G01 X2.0493 Y55.7529
G01 X2.1348 Y55.8041
G01 X2.1590 Y55.8195
G01 X2.1825 Y55.8360
G01 X2.2626 Y55.8954
G01 X2.2852 Y55.9130
G01 X2.3069 Y55.9318
G01 X2.3807 Y55.9987
G01 X2.4015 Y56.0185
G01 X2.4213 Y56.0393
G01 X2.4882 Y56.1131
G01 X2.5070 Y56.1348
G01 X2.5246 Y56.1574
G01 X2.5840 Y56.2375
G01 X2.6005 Y56.2610
G01 X2.6159 Y56.2852
G01 X2.6671 Y56.3707
G01 X2.6813 Y56.3957
G01 X2.6941 Y56.4213
G01 X2.7368 Y56.5114
G01 X2.7484 Y56.5376
G01 X2.7587 Y56.5644
G01 X2.7923 Y56.6583
G01 X2.8013 Y56.6855
G01 X2.8089 Y56.7131
G01 X2.8332 Y56.8098
G01 X2.8395 Y56.8378
G01 X2.8444 Y56.8661
G01 X2.8590 Y56.9647
G00 Z5.0000
G00 X3.1856 Y56.9162
G01 F100.00
G01 Z-0.4000
G01 F325.00
G01 X3.1886 Y56.9385
G01 X3.1911 Y56.9608
G01 X3.1930 Y56.9831
G01 X3.1993 Y57.1051
G01 X3.2001 Y57.1276
G01 X3.2004 Y57.1500
G01 X3.2001 Y57.1724
G01 X3.1993 Y57.1949
G01 X3.1930 Y57.3169
G01 X3.1911 Y57.3392
G01 X3.1886 Y57.3615
G01 X3.1856 Y57.3838
G01 X3.1710 Y57.4824
G01 X3.1674 Y57.5045
G01 X3.1633 Y57.5266
G01 X3.1587 Y57.5486
G01 X3.1535 Y57.5704
G01 X3.1235 Y57.6888
G01 X3.1173 Y57.7104
G01 X3.1105 Y57.7318
G01 X3.1032 Y57.7530
G01 X3.0696 Y57.8469
G01 X3.0618 Y57.8679
G01 X3.0535 Y57.8887
G01 X3.0446 Y57.9094
G01 X3.0353 Y57.9298
G01 X2.9926 Y58.0199
G01 X2.9828 Y58.0401
G01 X2.9725 Y58.0600
G01 X2.9616 Y58.0796
G01 X2.9503 Y58.0990
G01 X2.8991 Y58.1846
G01 X2.8873 Y58.2037
G01 X2.8751 Y58.2225
G01 X2.8624 Y58.2410
G01 X2.8492 Y58.2592
G01 X2.7762 Y58.3571
G01 X2.7622 Y58.3746
G01 X2.7478 Y58.3918
G01 X2.7329 Y58.4086
G01 X2.6659 Y58.4825
G01 X2.6507 Y58.4989
G01 X2.6350 Y58.5150
G01 X2.6189 Y58.5307
G01 X2.6025 Y58.5459
G01 X2.5286 Y58.6129
G01 X2.5118 Y58.6278
G01 X2.4946 Y58.6422
G01 X2.4771 Y58.6562
G01 X2.4593 Y58.6698
G01 X2.3792 Y58.7292
G01 X2.3610 Y58.7424
G01 X2.3425 Y58.7551
G01 X2.3237 Y58.7673
G01 X2.3046 Y58.7791
G01 X2.2190 Y58.8303
G01 X2.1996 Y58.8416
G01 X2.1800 Y58.8525
G01 X2.1601 Y58.8628
G01 X2.1399 Y58.8726
G01 X2.0498 Y58.9153
G01 X2.0294 Y58.9246
G01 X2.0087 Y58.9335
G01 X1.9879 Y58.9418
G01 X1.9669 Y58.9496
G01 X1.8730 Y58.9832
G01 X1.8518 Y58.9905
G01 X1.8304 Y58.9973
G01 X1.8088 Y59.0035
G01 X1.7871 Y59.0092
G01 X1.6904 Y59.0335
G01 X1.6686 Y59.0387
G01 X1.6466 Y59.0433
G01 X1.6245 Y59.0474
G01 X1.6024 Y59.0510
G01 X1.4815 Y59.0686
G01 X1.4592 Y59.0711
G01 X1.4369 Y59.0730
G01 X1.4145 Y59.0744
G01 X1.3149 Y59.0793
G01 X1.2924 Y59.0801
G01 X1.2700 Y59.0804
G01 X1.2476 Y59.0801
G01 X1.2251 Y59.0793
G01 X1.1255 Y59.0744
G01 X1.1031 Y59.0730
G01 X1.0808 Y59.0711
G01 X1.0585 Y59.0686
G01 X1.0362 Y59.0656
G01 X0.9376 Y59.0510
G01 X0.9155 Y59.0474
G01 X0.8934 Y59.0433
G01 X0.8714 Y59.0387
G01 X0.8496 Y59.0335
G01 X0.7529 Y59.0092
G01 X0.7312 Y59.0035
G01 X0.7096 Y58.9973
G01 X0.6882 Y58.9905
G01 X0.6670 Y58.9832
G01 X0.5731 Y58.9496
G01 X0.5521 Y58.9418
G01 X0.5313 Y58.9335
G01 X0.5106 Y58.9246
G01 X0.4902 Y58.9153
G01 X0.4001 Y58.8726
G01 X0.3799 Y58.8628
G01 X0.3600 Y58.8525
G01 X0.3404 Y58.8416
G01 X0.3210 Y58.8303
G01 X0.2354 Y58.7791
G01 X0.2163 Y58.7673
G01 X0.1975 Y58.7551
G01 X0.1790 Y58.7424
G01 X0.1608 Y58.7292
G01 X0.0807 Y58.6698
G01 X0.0629 Y58.6562
G01 X0.0454 Y58.6422
G01 X0.0282 Y58.6278
G01 X0.0114 Y58.6129
G01 X-0.0625 Y58.5459
G01 X-0.0789 Y58.5307
G01 X-0.0950 Y58.5150
G01 X-0.1107 Y58.4989
G01 X-0.1259 Y58.4825
G01 X-0.1929 Y58.4086
G01 X-0.2078 Y58.3918
G01 X-0.2222 Y58.3746
G01 X-0.2362 Y58.3571
G01 X-0.2498 Y58.3393
G01 X-0.3092 Y58.2592
G01 X-0.3224 Y58.2410
G01 X-0.3351 Y58.2225
G01 X-0.3473 Y58.2037
G01 X-0.3591 Y58.1846
G01 X-0.4103 Y58.0990
G01 X-0.4216 Y58.0796
G01 X-0.4325 Y58.0600
G01 X-0.4428 Y58.0401
G01 X-0.4526 Y58.0199
G01 X-0.4953 Y57.9298
G01 X-0.5046 Y57.9094
G01 X-0.5135 Y57.8887
G01 X-0.5218 Y57.8679
G01 X-0.5296 Y57.8469
G01 X-0.5632 Y57.7530
G01 X-0.5705 Y57.7318
G01 X-0.5773 Y57.7104
G01 X-0.5835 Y57.6888
G01 X-0.5892 Y57.6671
G01 X-0.6135 Y57.5704
G01 X-0.6187 Y57.5486
G01 X-0.6233 Y57.5266
G01 X-0.6274 Y57.5045
G01 X-0.6310 Y57.4824
G01 X-0.6486 Y57.3615
G01 X-0.6511 Y57.3392
G01 X-0.6530 Y57.3169
G01 X-0.6544 Y57.2945
G01 X-0.6593 Y57.1949
G01 X-0.6601 Y57.1724
G01 X-0.6604 Y57.1500
G01 X-0.6601 Y57.1276
G01 X-0.6593 Y57.1051
G01 X-0.6544 Y57.0055
G01 X-0.6530 Y56.9831
G01 X-0.6511 Y56.9608
G01 X-0.6486 Y56.9385
G01 X-0.6456 Y56.9162
G01 X-0.6310 Y56.8176
G01 X-0.6274 Y56.7955
G01 X-0.6233 Y56.7734
G01 X-0.6187 Y56.7514
G01 X-0.6135 Y56.7296
G01 X-0.5892 Y56.6329
G01 X-0.5835 Y56.6112
G01 X-0.5773 Y56.5896
G01 X-0.5705 Y56.5682
G01 X-0.5632 Y56.5470
G01 X-0.5296 Y56.4531
G01 X-0.5218 Y56.4321
G01 X-0.5135 Y56.4113
G01 X-0.5046 Y56.3906
G01 X-0.4953 Y56.3702
G01 X-0.4526 Y56.2801
G01 X-0.4428 Y56.2599
G01 X-0.4325 Y56.2400
G01 X-0.4216 Y56.2204
G01 X-0.4103 Y56.2010
G01 X-0.3591 Y56.1154
G01 X-0.3473 Y56.0963
G01 X-0.3351 Y56.0775
G01 X-0.3224 Y56.0590
G01 X-0.3092 Y56.0408
G01 X-0.2498 Y55.9607
G01 X-0.2362 Y55.9429
G01 X-0.2222 Y55.9254
G01 X-0.2078 Y55.9082
G01 X-0.1929 Y55.8914
G01 X-0.1259 Y55.8175
G01 X-0.1107 Y55.8011
G01 X-0.0950 Y55.7850
G01 X-0.0789 Y55.7693
G01 X-0.0625 Y55.7541
G01 X0.0114 Y55.6871
G01 X0.0282 Y55.6722
G01 X0.0454 Y55.6578
G01 X0.0629 Y55.6438
G01 X0.0807 Y55.6302
G01 X0.1608 Y55.5708
G01 X0.1790 Y55.5576
G01 X0.1975 Y55.5449
G01 X0.2163 Y55.5327
G01 X0.2354 Y55.5209
G01 X0.3210 Y55.4697
G01 X0.3404 Y55.4584
G01 X0.3600 Y55.4475
G01 X0.3799 Y55.4372
G01 X0.4001 Y55.4274
G01 X0.4902 Y55.3847
G01 X0.5106 Y55.3754
G01 X0.5313 Y55.3665
G01 X0.5521 Y55.3582
G01 X0.5731 Y55.3504
G01 X0.6670 Y55.3168
G01 X0.6882 Y55.3095
G01 X0.7096 Y55.3027
G01 X0.7312 Y55.2965
G01 X0.7529 Y55.2908
G01 X0.8496 Y55.2665
G01 X0.8714 Y55.2613
G01 X0.8934 Y55.2567
G01 X0.9155 Y55.2526
G01 X0.9376 Y55.2490
G01 X1.0585 Y55.2314
G01 X1.0808 Y55.2289
G01 X1.1031 Y55.2270
G01 X1.1255 Y55.2256
G01 X1.2251 Y55.2207
G01 X1.2476 Y55.2199
G01 X1.2700 Y55.2196
G01 X1.2924 Y55.2199
G01 X1.3149 Y55.2207
G01 X1.4145 Y55.2256
G01 X1.4369 Y55.2270
G01 X1.4592 Y55.2289
G01 X1.4815 Y55.2314
G01 X1.5038 Y55.2344
G01 X1.6024 Y55.2490
G01 X1.6245 Y55.2526
G01 X1.6466 Y55.2567
G01 X1.6686 Y55.2613
G01 X1.6904 Y55.2665
G01 X1.7871 Y55.2908
G01 X1.8088 Y55.2965
G01 X1.8304 Y55.3027
G01 X1.8518 Y55.3095
G01 X1.8730 Y55.3168
G01 X1.9669 Y55.3504
G01 X1.9879 Y55.3582
G01 X2.0087 Y55.3665
G01 X2.0294 Y55.3754
G01 X2.0498 Y55.3847
G01 X2.1399 Y55.4274
G01 X2.1601 Y55.4372
G01 X2.1800 Y55.4475
G01 X2.1996 Y55.4584
G01 X2.2190 Y55.4697
G01 X2.3046 Y55.5209
G01 X2.3237 Y55.5327
G01 X2.3425 Y55.5449
G01 X2.3610 Y55.5576
G01 X2.3792 Y55.5708
G01 X2.4771 Y55.6438
G01 X2.4946 Y55.6578
G01 X2.5118 Y55.6722
G01 X2.5286 Y55.6871
G01 X2.6025 Y55.7541
G01 X2.6189 Y55.7693
G01 X2.6350 Y55.7850
G01 X2.6507 Y55.8011
G01 X2.6659 Y55.8175
G01 X2.7329 Y55.8914
G01 X2.7478 Y55.9082
G01 X2.7622 Y55.9254
G01 X2.7762 Y55.9429
G01 X2.7898 Y55.9607
G01 X2.8492 Y56.0408
G01 X2.8624 Y56.0590
G01 X2.8751 Y56.0775
G01 X2.8873 Y56.0963
G01 X2.8991 Y56.1154
G01 X2.9616 Y56.2204
G01 X2.9725 Y56.2400
G01 X2.9828 Y56.2599
G01 X2.9926 Y56.2801
G01 X3.0353 Y56.3702
G01 X3.0446 Y56.3906
G01 X3.0535 Y56.4113
G01 X3.0618 Y56.4321
G01 X3.0696 Y56.4531
G01 X3.1105 Y56.5682
G01 X3.1173 Y56.5896
G01 X3.1235 Y56.6112
G01 X3.1292 Y56.6329
G01 X3.1587 Y56.7514
G01 X3.1633 Y56.7734
G01 X3.1674 Y56.7955
G01 X3.1856 Y56.9162
G00 Z5.0000
G00 X-4.4344 Y56.9162
G01 F100.00
G01 Z-0.4000
G01 F325.00
G01 X-4.4314 Y56.9385
G01 X-4.4289 Y56.9608
G01 X-4.4270 Y56.9831
G01 X-4.4207 Y57.1051
G01 X-4.4199 Y57.1276
G01 X-4.4196 Y57.1500
G01 X-4.4199 Y57.1724
G01 X-4.4207 Y57.1949
G01 X-4.4270 Y57.3169
G01 X-4.4289 Y57.3392
G01 X-4.4314 Y57.3615
G01 X-4.4344 Y57.3838
G01 X-4.4490 Y57.4824
G01 X-4.4526 Y57.5045
G01 X-4.4567 Y57.5266
G01 X-4.4613 Y57.5486
G01 X-4.4665 Y57.5704
G01 X-4.4965 Y57.6888
G01 X-4.5027 Y57.7104
G01 X-4.5095 Y57.7318
G01 X-4.5168 Y57.7530
G01 X-4.5504 Y57.8469
G01 X-4.5582 Y57.8679
G01 X-4.5665 Y57.8887
G01 X-4.5754 Y57.9094
G01 X-4.5847 Y57.9298
G01 X-4.6274 Y58.0199
G01 X-4.6372 Y58.0401
G01 X-4.6475 Y58.0600
G01 X-4.6584 Y58.0796
G01 X-4.6697 Y58.0990
G01 X-4.7209 Y58.1846
G01 X-4.7327 Y58.2037
G01 X-4.7449 Y58.2225
G01 X-4.7576 Y58.2410
G01 X-4.7708 Y58.2592
G01 X-4.8438 Y58.3571
G01 X-4.8578 Y58.3746
G01 X-4.8722 Y58.3918
G01 X-4.8871 Y58.4086
G01 X-4.9541 Y58.4825
G01 X-4.9693 Y58.4989
G01 X-4.9850 Y58.5150
G01 X-5.0011 Y58.5307
G01 X-5.0175 Y58.5459
G01 X-5.0914 Y58.6129
G01 X-5.1082 Y58.6278
G01 X-5.1254 Y58.6422
G01 X-5.1429 Y58.6562
G01 X-5.1607 Y58.6698
G01 X-5.2408 Y58.7292
G01 X-5.2590 Y58.7424
G01 X-5.2775 Y58.7551
G01 X-5.2963 Y58.7673
G01 X-5.3154 Y58.7791
G01 X-5.4010 Y58.8303
G01 X-5.4204 Y58.8416
G01 X-5.4400 Y58.8525
G01 X-5.4599 Y58.8628
G01 X-5.4801 Y58.8726
G01 X-5.5702 Y58.9153
G01 X-5.5906 Y58.9246
G01 X-5.6113 Y58.9335
G01 X-5.6321 Y58.9418
G01 X-5.6531 Y58.9496
G01 X-5.7470 Y58.9832
G01 X-5.7682 Y58.9905
G01 X-5.7896 Y58.9973
G01 X-5.8112 Y59.0035
G01 X-5.8329 Y59.0092
G01 X-5.9296 Y59.0335
G01 X-5.9514 Y59.0387
G01 X-5.9734 Y59.0433
G01 X-5.9955 Y59.0474
G01 X-6.0176 Y59.0510
G01 X-6.1385 Y59.0686
G01 X-6.1608 Y59.0711
G01 X-6.1831 Y59.0730
G01 X-6.2055 Y59.0744
G01 X-6.3051 Y59.0793
G01 X-6.3276 Y59.0801
G01 X-6.3500 Y59.0804
G01 X-6.3724 Y59.0801
G01 X-6.3949 Y59.0793
G01 X-6.4945 Y59.0744
G01 X-6.5169 Y59.0730
G01 X-6.5392 Y59.0711
G01 X-6.5615 Y59.0686
G01 X-6.5838 Y59.0656
G01 X-6.6824 Y59.0510
G01 X-6.7045 Y59.0474
G01 X-6.7266 Y59.0433
G01 X-6.7486 Y59.0387
G01 X-6.7704 Y59.0335
G01 X-6.8671 Y59.0092
G01 X-6.8888 Y59.0035
G01 X-6.9104 Y58.9973
G01 X-6.9318 Y58.9905
G01 X-6.9530 Y58.9832
G01 X-7.0469 Y58.9496
G01 X-7.0679 Y58.9418
G01 X-7.0887 Y58.9335
G01 X-7.1094 Y58.9246
G01 X-7.1298 Y58.9153
G01 X-7.2199 Y58.8726
G01 X-7.2401 Y58.8628
G01 X-7.2600 Y58.8525
G01 X-7.2796 Y58.8416
G01 X-7.2990 Y58.8303
G01 X-7.3846 Y58.7791
G01 X-7.4037 Y58.7673
G01 X-7.4225 Y58.7551
G01 X-7.4410 Y58.7424
G01 X-7.4592 Y58.7292
G01 X-7.5393 Y58.6698
G01 X-7.5571 Y58.6562
G01 X-7.5746 Y58.6422
G01 X-7.5918 Y58.6278
G01 X-7.6086 Y58.6129
G01 X-7.6825 Y58.5459
G01 X-7.6989 Y58.5307
G01 X-7.7150 Y58.5150
G01 X-7.7307 Y58.4989
G01 X-7.7459 Y58.4825
G01 X-7.8129 Y58.4086
G01 X-7.8278 Y58.3918
G01 X-7.8422 Y58.3746
G01 X-7.8562 Y58.3571
G01 X-7.8698 Y58.3393
G01 X-7.9292 Y58.2592
G01 X-7.9424 Y58.2410
G01 X-7.9551 Y58.2225
G01 X-7.9673 Y58.2037
G01 X-7.9791 Y58.1846
G01 X-8.0303 Y58.0990
G01 X-8.0416 Y58.0796
G01 X-8.0525 Y58.0600
G01 X-8.0628 Y58.0401
G01 X-8.0726 Y58.0199
G01 X-8.1153 Y57.9298
G01 X-8.1246 Y57.9094
G01 X-8.1335 Y57.8887
G01 X-8.1418 Y57.8679
G01 X-8.1496 Y57.8469
G01 X-8.1832 Y57.7530
G01 X-8.1905 Y57.7318
G01 X-8.1973 Y57.7104
G01 X-8.2035 Y57.6888
G01 X-8.2092 Y57.6671
G01 X-8.2335 Y57.5704
G01 X-8.2387 Y57.5486
G01 X-8.2433 Y57.5266
G01 X-8.2474 Y57.5045
G01 X-8.2510 Y57.4824
G01 X-8.2686 Y57.3615
G01 X-8.2711 Y57.3392
G01 X-8.2730 Y57.3169
G01 X-8.2744 Y57.2945
G01 X-8.2793 Y57.1949
G01 X-8.2801 Y57.1724
G01 X-8.2804 Y57.1500
G01 X-8.2801 Y57.1276
G01 X-8.2793 Y57.1051
G01 X-8.2744 Y57.0055
G01 X-8.2730 Y56.9831
G01 X-8.2711 Y56.9608
G01 X-8.2686 Y56.9385
G01 X-8.2656 Y56.9162
G01 X-8.2510 Y56.8176
G01 X-8.2474 Y56.7955
G01 X-8.2433 Y56.7734
G01 X-8.2387 Y56.7514
G01 X-8.2335 Y56.7296
G01 X-8.2092 Y56.6329
G01 X-8.2035 Y56.6112
G01 X-8.1973 Y56.5896
G01 X-8.1905 Y56.5682
G01 X-8.1832 Y56.5470
G01 X-8.1496 Y56.4531
G01 X-8.1418 Y56.4321
G01 X-8.1335 Y56.4113
G01 X-8.1246 Y56.3906
G01 X-8.1153 Y56.3702
G01 X-8.0726 Y56.2801
G01 X-8.0628 Y56.2599
G01 X-8.0525 Y56.2400
G01 X-8.0416 Y56.2204
G01 X-8.0303 Y56.2010
G01 X-7.9791 Y56.1154
G01 X-7.9673 Y56.0963
G01 X-7.9551 Y56.0775
G01 X-7.9424 Y56.0590
G01 X-7.9292 Y56.0408
G01 X-7.8698 Y55.9607
G01 X-7.8562 Y55.9429
G01 X-7.8422 Y55.9254
G01 X-7.8278 Y55.9082
G01 X-7.8129 Y55.8914
G01 X-7.7459 Y55.8175
G01 X-7.7307 Y55.8011
G01 X-7.7150 Y55.7850
G01 X-7.6989 Y55.7693
G01 X-7.6825 Y55.7541
G01 X-7.6086 Y55.6871
G01 X-7.5918 Y55.6722
G01 X-7.5746 Y55.6578
G01 X-7.5571 Y55.6438
G01 X-7.5393 Y55.6302
G01 X-7.4592 Y55.5708
G01 X-7.4410 Y55.5576
G01 X-7.4225 Y55.5449
G01 X-7.4037 Y55.5327
G01 X-7.3846 Y55.5209
G01 X-7.2990 Y55.4697
G01 X-7.2796 Y55.4584
G01 X-7.2600 Y55.4475
G01 X-7.2401 Y55.4372
G01 X-7.2199 Y55.4274
G01 X-7.1298 Y55.3847
G01 X-7.1094 Y55.3754
G01 X-7.0887 Y55.3665
G01 X-7.0679 Y55.3582
G01 X-7.0469 Y55.3504
G01 X-6.9530 Y55.3168
G01 X-6.9318 Y55.3095
G01 X-6.9104 Y55.3027
G01 X-6.8888 Y55.2965
G01 X-6.8671 Y55.2908
G01 X-6.7704 Y55.2665
G01 X-6.7486 Y55.2613
G01 X-6.7266 Y55.2567
G01 X-6.7045 Y55.2526
G01 X-6.6824 Y55.2490
G01 X-6.5615 Y55.2314
G01 X-6.5392 Y55.2289
G01 X-6.5169 Y55.2270
G01 X-6.4945 Y55.2256
G01 X-6.3949 Y55.2207
G01 X-6.3724 Y55.2199
G01 X-6.3500 Y55.2196
G01 X-6.3276 Y55.2199
G01 X-6.3051 Y55.2207
G01 X-6.2055 Y55.2256
G01 X-6.1831 Y55.2270
G01 X-6.1608 Y55.2289
G01 X-6.1385 Y55.2314
G01 X-6.1162 Y55.2344
G01 X-6.0176 Y55.2490
G01 X-5.9955 Y55.2526
G01 X-5.9734 Y55.2567
G01 X-5.9514 Y55.2613
G01 X-5.9296 Y55.2665
G01 X-5.8329 Y55.2908
G01 X-5.8112 Y55.2965
G01 X-5.7896 Y55.3027
G01 X-5.7682 Y55.3095
G01 X-5.7470 Y55.3168
G01 X-5.6531 Y55.3504
G01 X-5.6321 Y55.3582
G01 X-5.6113 Y55.3665
G01 X-5.5906 Y55.3754
G01 X-5.5702 Y55.3847
G01 X-5.4801 Y55.4274
G01 X-5.4599 Y55.4372
G01 X-5.4400 Y55.4475
G01 X-5.4204 Y55.4584
G01 X-5.4010 Y55.4697
G01 X-5.3154 Y55.5209
G01 X-5.2963 Y55.5327
G01 X-5.2775 Y55.5449
G01 X-5.2590 Y55.5576
G01 X-5.2408 Y55.5708
G01 X-5.1429 Y55.6438
G01 X-5.1254 Y55.6578
G01 X-5.1082 Y55.6722
G01 X-5.0914 Y55.6871
G01 X-5.0175 Y55.7541
G01 X-5.0011 Y55.7693
G01 X-4.9850 Y55.7850
G01 X-4.9693 Y55.8011
G01 X-4.9541 Y55.8175
G01 X-4.8871 Y55.8914
G01 X-4.8722 Y55.9082
G01 X-4.8578 Y55.9254
G01 X-4.8438 Y55.9429
G01 X-4.8302 Y55.9607
G01 X-4.7708 Y56.0408
G01 X-4.7576 Y56.0590
G01 X-4.7449 Y56.0775
G01 X-4.7327 Y56.0963
G01 X-4.7209 Y56.1154
G01 X-4.6584 Y56.2204
G01 X-4.6475 Y56.2400
G01 X-4.6372 Y56.2599
G01 X-4.6274 Y56.2801
G01 X-4.5847 Y56.3702
G01 X-4.5754 Y56.3906
G01 X-4.5665 Y56.4113
G01 X-4.5582 Y56.4321
G01 X-4.5504 Y56.4531
G01 X-4.5095 Y56.5682
G01 X-4.5027 Y56.5896
G01 X-4.4965 Y56.6112
G01 X-4.4908 Y56.6329
G01 X-4.4613 Y56.7514
G01 X-4.4567 Y56.7734
G01 X-4.4526 Y56.7955
G01 X-4.4344 Y56.9162
G00 Z5.0000
G00 X-4.7610 Y56.9647
G01 F100.00
G01 Z-0.4000
G01 F325.00
G01 X-4.7575 Y56.9932
G01 X-4.7554 Y57.0217
G01 X-4.7505 Y57.1213
G01 X-4.7498 Y57.1500
G01 X-4.7505 Y57.1787
G01 X-4.7554 Y57.2783
G01 X-4.7575 Y57.3068
G01 X-4.7610 Y57.3353
G01 X-4.7756 Y57.4339
G01 X-4.7805 Y57.4622
G01 X-4.7868 Y57.4902
G01 X-4.8111 Y57.5869
G01 X-4.8187 Y57.6145
G01 X-4.8277 Y57.6417
G01 X-4.8613 Y57.7356
G01 X-4.8716 Y57.7624
G01 X-4.8832 Y57.7886
G01 X-4.9259 Y57.8787
G01 X-4.9387 Y57.9043
G01 X-4.9529 Y57.9293
G01 X-5.0041 Y58.0148
G01 X-5.0195 Y58.0390
G01 X-5.0360 Y58.0625
G01 X-5.0954 Y58.1426
G01 X-5.1130 Y58.1652
G01 X-5.1318 Y58.1869
G01 X-5.1987 Y58.2607
G01 X-5.2185 Y58.2815
G01 X-5.2393 Y58.3013
G01 X-5.3131 Y58.3682
G01 X-5.3348 Y58.3870
G01 X-5.3574 Y58.4046
G01 X-5.4375 Y58.4640
G01 X-5.4610 Y58.4805
G01 X-5.4852 Y58.4959
G01 X-5.5707 Y58.5471
G01 X-5.5957 Y58.5613
G01 X-5.6213 Y58.5741
G01 X-5.7114 Y58.6168
G01 X-5.7376 Y58.6284
G01 X-5.7644 Y58.6387
G01 X-5.8583 Y58.6723
G01 X-5.8855 Y58.6813
G01 X-5.9131 Y58.6889
G01 X-6.0098 Y58.7132
G01 X-6.0378 Y58.7195
G01 X-6.0661 Y58.7244
G01 X-6.1647 Y58.7390
G01 X-6.1932 Y58.7425
G01 X-6.2217 Y58.7446
G01 X-6.3213 Y58.7495
G01 X-6.3500 Y58.7502
G01 X-6.3787 Y58.7495
G01 X-6.4783 Y58.7446
G01 X-6.5068 Y58.7425
G01 X-6.5353 Y58.7390
G01 X-6.6339 Y58.7244
G01 X-6.6622 Y58.7195
G01 X-6.6902 Y58.7132
G01 X-6.7869 Y58.6889
G01 X-6.8145 Y58.6813
G01 X-6.8417 Y58.6723
G01 X-6.9356 Y58.6387
G01 X-6.9624 Y58.6284
G01 X-6.9886 Y58.6168
G01 X-7.0787 Y58.5741
G01 X-7.1043 Y58.5613
G01 X-7.1293 Y58.5471
G01 X-7.2148 Y58.4959
G01 X-7.2390 Y58.4805
G01 X-7.2625 Y58.4640
G01 X-7.3426 Y58.4046
G01 X-7.3652 Y58.3870
G01 X-7.3869 Y58.3682
G01 X-7.4607 Y58.3013
G01 X-7.4815 Y58.2815
G01 X-7.5013 Y58.2607
G01 X-7.5682 Y58.1869
G01 X-7.5870 Y58.1652
G01 X-7.6046 Y58.1426
G01 X-7.6640 Y58.0625
G01 X-7.6805 Y58.0390
G01 X-7.6959 Y58.0148
G01 X-7.7471 Y57.9293
G01 X-7.7613 Y57.9043
G01 X-7.7741 Y57.8787
G01 X-7.8168 Y57.7886
G01 X-7.8284 Y57.7624
G01 X-7.8387 Y57.7356
G01 X-7.8723 Y57.6417
G01 X-7.8813 Y57.6145
G01 X-7.8889 Y57.5869
G01 X-7.9132 Y57.4902
G01 X-7.9195 Y57.4622
G01 X-7.9244 Y57.4339
G01 X-7.9390 Y57.3353
G01 X-7.9425 Y57.3068
G01 X-7.9446 Y57.2783
G01 X-7.9495 Y57.1787
G01 X-7.9502 Y57.1500
G01 X-7.9495 Y57.1213
G01 X-7.9446 Y57.0217
G01 X-7.9425 Y56.9932
G01 X-7.9390 Y56.9647
G01 X-7.9244 Y56.8661
G01 X-7.9195 Y56.8378
G01 X-7.9132 Y56.8098
G01 X-7.8889 Y56.7131
G01 X-7.8813 Y56.6855
G01 X-7.8723 Y56.6583
G01 X-7.8387 Y56.5644
G01 X-7.8284 Y56.5376
G01 X-7.8168 Y56.5114
G01 X-7.7741 Y56.4213
G01 X-7.7613 Y56.3957
G01 X-7.7471 Y56.3707
G01 X-7.6959 Y56.2852
G01 X-7.6805 Y56.2610
G01 X-7.6640 Y56.2375
G01 X-7.6046 Y56.1574
G01 X-7.5870 Y56.1348
G01 X-7.5682 Y56.1131
G01 X-7.5013 Y56.0393
G01 X-7.4815 Y56.0185
G01 X-7.4607 Y55.9987
G01 X-7.3869 Y55.9318
G01 X-7.3652 Y55.9130
G01 X-7.3426 Y55.8954
G01 X-7.2625 Y55.8360
G01 X-7.2390 Y55.8195
G01 X-7.2148 Y55.8041
G01 X-7.1293 Y55.7529
G01 X-7.1043 Y55.7387
G01 X-7.0787 Y55.7259
G01 X-6.9886 Y55.6832
G01 X-6.9624 Y55.6716
G01 X-6.9356 Y55.6613
G01 X-6.8417 Y55.6277
G01 X-6.8145 Y55.6187
G01 X-6.7869 Y55.6111
G01 X-6.6902 Y55.5868
G01 X-6.6622 Y55.5805
G01 X-6.6339 Y55.5756
G01 X-6.5353 Y55.5610
G01 X-6.5068 Y55.5575
G01 X-6.4783 Y55.5554
G01 X-6.3787 Y55.5505
G01 X-6.3500 Y55.5498
G01 X-6.3213 Y55.5505
G01 X-6.2217 Y55.5554
G01 X-6.1932 Y55.5575
G01 X-6.1647 Y55.5610
G01 X-6.0661 Y55.5756
G01 X-6.0378 Y55.5805
G01 X-6.0098 Y55.5868
G01 X-5.9131 Y55.6111
G01 X-5.8855 Y55.6187
G01 X-5.8583 Y55.6277
G01 X-5.7644 Y55.6613
G01 X-5.7376 Y55.6716
G01 X-5.7114 Y55.6832
G01 X-5.6213 Y55.7259
G01 X-5.5957 Y55.7387
G01 X-5.5707 Y55.7529
G01 X-5.4852 Y55.8041
G01 X-5.4610 Y55.8195
G01 X-5.4375 Y55.8360
G01 X-5.3574 Y55.8954
G01 X-5.3348 Y55.9130
G01 X-5.3131 Y55.9318
G01 X-5.2393 Y55.9987
G01 X-5.2185 Y56.0185
G01 X-5.1987 Y56.0393
G01 X-5.1318 Y56.1131
G01 X-5.1130 Y56.1348
G01 X-5.0954 Y56.1574
G01 X-5.0360 Y56.2375
G01 X-5.0195 Y56.2610
G01 X-5.0041 Y56.2852
G01 X-4.9529 Y56.3707
G01 X-4.9387 Y56.3957
G01 X-4.9259 Y56.4213
G01 X-4.8832 Y56.5114
G01 X-4.8716 Y56.5376
G01 X-4.8613 Y56.5644
G01 X-4.8277 Y56.6583
G01 X-4.8187 Y56.6855
G01 X-4.8111 Y56.7131
G01 X-4.7868 Y56.8098
G01 X-4.7805 Y56.8378
G01 X-4.7756 Y56.8661
G01 X-4.7610 Y56.9647
G00 Z5.0000
G00 X-5.0876 Y57.0131
G01 F100.00
G01 Z-0.4000
G01 F325.00
G01 X-5.0861 Y57.0255
G01 X-5.0852 Y57.0380
G01 X-5.0803 Y57.1375
G01 X-5.0800 Y57.1500
G01 X-5.0803 Y57.1625
G01 X-5.0852 Y57.2620
G01 X-5.0861 Y57.2745
G01 X-5.0876 Y57.2869
G01 X-5.1023 Y57.3855
G01 X-5.1044 Y57.3978
G01 X-5.1071 Y57.4099
G01 X-5.1314 Y57.5066
G01 X-5.1347 Y57.5187
G01 X-5.1386 Y57.5305
G01 X-5.1722 Y57.6244
G01 X-5.1767 Y57.6360
G01 X-5.1817 Y57.6474
G01 X-5.2244 Y57.7375
G01 X-5.2300 Y57.7487
G01 X-5.2361 Y57.7595
G01 X-5.2874 Y57.8450
G01 X-5.2940 Y57.8556
G01 X-5.3012 Y57.8658
G01 X-5.3606 Y57.9459
G01 X-5.3683 Y57.9557
G01 X-5.3764 Y57.9651
G01 X-5.4434 Y58.0390
G01 X-5.4520 Y58.0480
G01 X-5.4610 Y58.0566
G01 X-5.5349 Y58.1236
G01 X-5.5443 Y58.1317
G01 X-5.5541 Y58.1394
G01 X-5.6342 Y58.1988
G01 X-5.6444 Y58.2060
G01 X-5.6550 Y58.2126
G01 X-5.7405 Y58.2639
G01 X-5.7513 Y58.2700
G01 X-5.7625 Y58.2756
G01 X-5.8526 Y58.3183
G01 X-5.8640 Y58.3233
G01 X-5.8756 Y58.3278
G01 X-5.9695 Y58.3614
G01 X-5.9813 Y58.3653
G01 X-5.9934 Y58.3686
G01 X-6.0901 Y58.3929
G01 X-6.1022 Y58.3956
G01 X-6.1145 Y58.3977
G01 X-6.2131 Y58.4124
G01 X-6.2255 Y58.4139
G01 X-6.2380 Y58.4148
G01 X-6.3375 Y58.4197
G01 X-6.3500 Y58.4200
G01 X-6.3625 Y58.4197
G01 X-6.4620 Y58.4148
G01 X-6.4745 Y58.4139
G01 X-6.4869 Y58.4124
G01 X-6.5855 Y58.3977
G01 X-6.5978 Y58.3956
G01 X-6.6099 Y58.3929
G01 X-6.7066 Y58.3686
G01 X-6.7187 Y58.3653
G01 X-6.7305 Y58.3614
G01 X-6.8244 Y58.3278
G01 X-6.8360 Y58.3233
G01 X-6.8474 Y58.3183
G01 X-6.9375 Y58.2756
G01 X-6.9487 Y58.2700
G01 X-6.9595 Y58.2639
G01 X-7.0450 Y58.2126
G01 X-7.0556 Y58.2060
G01 X-7.0658 Y58.1988
G01 X-7.1459 Y58.1394
G01 X-7.1557 Y58.1317
G01 X-7.1651 Y58.1236
G01 X-7.2390 Y58.0566
G01 X-7.2480 Y58.0480
G01 X-7.2566 Y58.0390
G01 X-7.3236 Y57.9651
G01 X-7.3317 Y57.9557
G01 X-7.3394 Y57.9459
G01 X-7.3988 Y57.8658
G01 X-7.4060 Y57.8556
G01 X-7.4126 Y57.8450
G01 X-7.4639 Y57.7595
G01 X-7.4700 Y57.7487
G01 X-7.4756 Y57.7375
G01 X-7.5183 Y57.6474
G01 X-7.5233 Y57.6360
G01 X-7.5278 Y57.6244
G01 X-7.5614 Y57.5305
G01 X-7.5653 Y57.5187
G01 X-7.5686 Y57.5066
G01 X-7.5929 Y57.4099
G01 X-7.5956 Y57.3978
G01 X-7.5977 Y57.3855
G01 X-7.6124 Y57.2869
G01 X-7.6139 Y57.2745
G01 X-7.6148 Y57.2620
G01 X-7.6197 Y57.1625
G01 X-7.6200 Y57.1500
G01 X-7.6197 Y57.1375
G01 X-7.6148 Y57.0380
G01 X-7.6139 Y57.0255
G01 X-7.6124 Y57.0131
G01 X-7.5977 Y56.9145
G01 X-7.5956 Y56.9022
G01 X-7.5929 Y56.8901
G01 X-7.5686 Y56.7934
G01 X-7.5653 Y56.7813
G01 X-7.5614 Y56.7695
G01 X-7.5278 Y56.6756
G01 X-7.5233 Y56.6640
G01 X-7.5183 Y56.6526
G01 X-7.4756 Y56.5625
G01 X-7.4700 Y56.5513
G01 X-7.4639 Y56.5405
G01 X-7.4126 Y56.4550
G01 X-7.4060 Y56.4444
G01 X-7.3988 Y56.4342
G01 X-7.3394 Y56.3541
G01 X-7.3317 Y56.3443
G01 X-7.3236 Y56.3349
G01 X-7.2566 Y56.2610
G01 X-7.2480 Y56.2520
G01 X-7.2390 Y56.2434
G01 X-7.1651 Y56.1764
G01 X-7.1557 Y56.1683
G01 X-7.1459 Y56.1606
G01 X-7.0658 Y56.1012
G01 X-7.0556 Y56.0940
G01 X-7.0450 Y56.0874
G01 X-6.9595 Y56.0361
G01 X-6.9487 Y56.0300
G01 X-6.9375 Y56.0244
G01 X-6.8474 Y55.9817
G01 X-6.8360 Y55.9767
G01 X-6.8244 Y55.9722
G01 X-6.7305 Y55.9386
G01 X-6.7187 Y55.9347
G01 X-6.7066 Y55.9314
G01 X-6.6099 Y55.9071
G01 X-6.5978 Y55.9044
G01 X-6.5855 Y55.9023
G01 X-6.4869 Y55.8876
G01 X-6.4745 Y55.8861
G01 X-6.4620 Y55.8852
G01 X-6.3625 Y55.8803
G01 X-6.3500 Y55.8800
G01 X-6.3375 Y55.8803
G01 X-6.2380 Y55.8852
G01 X-6.2255 Y55.8861
G01 X-6.2131 Y55.8876
G01 X-6.1145 Y55.9023
G01 X-6.1022 Y55.9044
G01 X-6.0901 Y55.9071
G01 X-5.9934 Y55.9314
G01 X-5.9813 Y55.9347
G01 X-5.9695 Y55.9386
G01 X-5.8756 Y55.9722
G01 X-5.8640 Y55.9767
G01 X-5.8526 Y55.9817
G01 X-5.7625 Y56.0244
G01 X-5.7513 Y56.0300
G01 X-5.7405 Y56.0361
G01 X-5.6550 Y56.0874
G01 X-5.6444 Y56.0940
G01 X-5.6342 Y56.1012
G01 X-5.5541 Y56.1606
G01 X-5.5443 Y56.1683
G01 X-5.5349 Y56.1764
G01 X-5.4610 Y56.2434
G01 X-5.4520 Y56.2520
G01 X-5.4434 Y56.2610
G01 X-5.3764 Y56.3349
G01 X-5.3683 Y56.3443
G01 X-5.3606 Y56.3541
G01 X-5.3012 Y56.4342
G01 X-5.2940 Y56.4444
G01 X-5.2874 Y56.4550
G01 X-5.2361 Y56.5405
G01 X-5.2300 Y56.5513
G01 X-5.2244 Y56.5625
G01 X-5.1817 Y56.6526
G01 X-5.1767 Y56.6640
G01 X-5.1722 Y56.6756
G01 X-5.1386 Y56.7695
G01 X-5.1347 Y56.7813
G01 X-5.1314 Y56.7934
G01 X-5.1071 Y56.8901
G01 X-5.1044 Y56.9022
G01 X-5.1023 Y56.9145
G01 X-5.0876 Y57.0131
G00 Z5.0000
G00 X-6.0022 Y54.5083
G01 F100.00
G01 Z-0.4000
G01 F325.00
G01 X-5.3303 Y54.6884
G01 X-4.7279 Y55.0361
G01 X-4.2361 Y55.5279
G01 X-3.8884 Y56.1303
G01 X-3.7083 Y56.8022
G01 X-3.7083 Y57.4978
G01 X-3.8884 Y58.1697
G01 X-4.2361 Y58.7721
G01 X-4.7279 Y59.2639
G01 X-5.3303 Y59.6116
G01 X-6.0022 Y59.7917
G01 X-6.6978 Y59.7917
G01 X-7.3697 Y59.6116
G01 X-7.9721 Y59.2639
G01 X-8.4639 Y58.7721
G01 X-8.8116 Y58.1697
G01 X-8.9917 Y57.4978
G01 X-8.9917 Y56.8022
G01 X-8.8116 Y56.1303
G01 X-8.4639 Y55.5279
G01 X-7.9721 Y55.0361
G01 X-7.3697 Y54.6884
G01 X-6.6978 Y54.5083
G01 X-6.0022 Y54.5083
G00 Z5.0000
G00 X-5.9587 Y54.1781
G01 F100.00
G01 Z-0.4000
G01 F325.00
G01 X-5.2029 Y54.3807
G01 X-4.5252 Y54.7719
G01 X-3.9719 Y55.3252
G01 X-3.5807 Y56.0029
G01 X-3.3781 Y56.7587
G01 X-3.3781 Y57.5413
G01 X-3.5807 Y58.2971
G01 X-3.9719 Y58.9748
G01 X-4.5252 Y59.5281
G01 X-5.2029 Y59.9193
G01 X-5.9587 Y60.1219
G01 X-6.7413 Y60.1219
G01 X-7.4971 Y59.9193
G01 X-8.1748 Y59.5281
G01 X-8.7281 Y58.9748
G01 X-9.1193 Y58.2971
G01 X-9.3219 Y57.5413
G01 X-9.3219 Y56.7587
G01 X-9.1193 Y56.0029
G01 X-8.7281 Y55.3252
G01 X-8.1748 Y54.7719
G01 X-7.4971 Y54.3807
G01 X-6.7413 Y54.1781
G01 X-5.9587 Y54.1781
G00 Z5.0000
G00 X-5.9152 Y53.8479
G01 F100.00
G01 Z-0.4000
G01 F325.00
G01 X-5.0754 Y54.0730
G01 X-4.3225 Y54.5077
G01 X-3.7077 Y55.1225
G01 X-3.2730 Y55.8754
G01 X-3.0479 Y56.7152
G01 X-3.0479 Y57.5848
G01 X-3.2730 Y58.4246
G01 X-3.7077 Y59.1775
G01 X-4.3225 Y59.7923
G01 X-5.0754 Y60.2270
G01 X-5.9152 Y60.4521
G01 X-6.7848 Y60.4521
G01 X-7.6246 Y60.2270
G01 X-8.3775 Y59.7923
G01 X-8.9923 Y59.1775
G01 X-9.4270 Y58.4246
G01 X-9.6521 Y57.5848
G01 X-9.6521 Y56.7152
G01 X-9.4270 Y55.8754
G01 X-8.9923 Y55.1225
G01 X-8.3775 Y54.5077
G01 X-7.6246 Y54.0730
G01 X-6.7848 Y53.8479
G01 X-5.9152 Y53.8479
G00 Z5.0000
G00 X-16.6408 Y54.4019
G01 F100.00
G01 Z-0.4000
G01 F325.00
G01 X-16.6377 Y54.4241
G01 X-16.6353 Y54.4464
G01 X-16.6333 Y54.4688
G01 X-16.6283 Y54.5651
G01 X-16.6275 Y54.5876
G01 X-16.6272 Y54.6100
G01 X-16.6275 Y54.6324
G01 X-16.6283 Y54.6549
G01 X-16.6320 Y54.7288
G01 X-16.6333 Y54.7512
G01 X-16.6353 Y54.7736
G01 X-16.6377 Y54.7959
G01 X-16.6516 Y54.8913
G01 X-16.6552 Y54.9135
G01 X-16.6593 Y54.9356
G01 X-16.6639 Y54.9575
G01 X-16.6691 Y54.9794
G01 X-16.6871 Y55.0512
G01 X-16.6928 Y55.0729
G01 X-16.6991 Y55.0944
G01 X-16.7059 Y55.1158
G01 X-16.7132 Y55.1370
G01 X-16.7459 Y55.2278
G01 X-16.7543 Y55.2486
G01 X-16.7631 Y55.2692
G01 X-16.7724 Y55.2896
G01 X-16.8041 Y55.3566
G01 X-16.8139 Y55.3767
G01 X-16.8243 Y55.3967
G01 X-16.8351 Y55.4163
G01 X-16.8464 Y55.4357
G01 X-16.8845 Y55.4992
G01 X-16.8962 Y55.5183
G01 X-16.9085 Y55.5371
G01 X-16.9212 Y55.5556
G01 X-16.9343 Y55.5738
G01 X-16.9920 Y55.6511
G01 X-17.0060 Y55.6687
G01 X-17.0205 Y55.6858
G01 X-17.0353 Y55.7026
G01 X-17.0850 Y55.7575
G01 X-17.1003 Y55.7739
G01 X-17.1160 Y55.7900
G01 X-17.1321 Y55.8057
G01 X-17.1485 Y55.8210
G01 X-17.2139 Y55.8800
G01 X-17.1485 Y55.9390
G01 X-17.1321 Y55.9543
G01 X-17.1160 Y55.9700
G01 X-17.1003 Y55.9861
G01 X-17.0850 Y56.0025
G01 X-17.0205 Y56.0742
G01 X-17.0060 Y56.0913
G01 X-16.9920 Y56.1089
G01 X-16.9343 Y56.1862
G01 X-16.9212 Y56.2044
G01 X-16.9085 Y56.2229
G01 X-16.8962 Y56.2417
G01 X-16.8464 Y56.3243
G01 X-16.8351 Y56.3437
G01 X-16.8243 Y56.3633
G01 X-16.8139 Y56.3833
G01 X-16.8041 Y56.4034
G01 X-16.7631 Y56.4908
G01 X-16.7543 Y56.5114
G01 X-16.7459 Y56.5322
G01 X-16.7132 Y56.6230
G01 X-16.7059 Y56.6442
G01 X-16.6991 Y56.6656
G01 X-16.6928 Y56.6871
G01 X-16.6691 Y56.7806
G01 X-16.6639 Y56.8025
G01 X-16.6593 Y56.8244
G01 X-16.6552 Y56.8465
G01 X-16.6516 Y56.8687
G01 X-16.6377 Y56.9641
G01 X-16.6353 Y56.9864
G01 X-16.6333 Y57.0088
G01 X-16.6283 Y57.1051
G01 X-16.6275 Y57.1276
G01 X-16.6272 Y57.1500
G01 X-16.6275 Y57.1724
G01 X-16.6283 Y57.1949
G01 X-16.6320 Y57.2688
G01 X-16.6333 Y57.2912
G01 X-16.6353 Y57.3136
G01 X-16.6377 Y57.3359
G01 X-16.6408 Y57.3581
G01 X-16.6516 Y57.4313
G01 X-16.6552 Y57.4535
G01 X-16.6593 Y57.4756
G01 X-16.6639 Y57.4975
G01 X-16.6871 Y57.5912
G01 X-16.6928 Y57.6129
G01 X-16.6991 Y57.6344
G01 X-16.7059 Y57.6558
G01 X-16.7132 Y57.6770
G01 X-16.7381 Y57.7467
G01 X-16.7459 Y57.7678
G01 X-16.7543 Y57.7886
G01 X-16.7631 Y57.8092
G01 X-16.7724 Y57.8296
G01 X-16.8041 Y57.8966
G01 X-16.8139 Y57.9167
G01 X-16.8243 Y57.9367
G01 X-16.8351 Y57.9563
G01 X-16.8464 Y57.9757
G01 X-16.8962 Y58.0583
G01 X-16.9085 Y58.0771
G01 X-16.9212 Y58.0956
G01 X-16.9343 Y58.1138
G01 X-16.9784 Y58.1733
G01 X-16.9920 Y58.1911
G01 X-17.0060 Y58.2087
G01 X-17.0205 Y58.2258
G01 X-17.0353 Y58.2426
G01 X-17.0850 Y58.2975
G01 X-17.1003 Y58.3139
G01 X-17.1160 Y58.3300
G01 X-17.1321 Y58.3457
G01 X-17.1485 Y58.3610
G01 X-17.2139 Y58.4200
G01 X-17.1485 Y58.4790
G01 X-17.1321 Y58.4943
G01 X-17.1160 Y58.5100
G01 X-17.1003 Y58.5261
G01 X-17.0850 Y58.5425
G01 X-17.0353 Y58.5974
G01 X-17.0205 Y58.6142
G01 X-17.0060 Y58.6313
G01 X-16.9920 Y58.6489
G01 X-16.9784 Y58.6667
G01 X-16.9343 Y58.7262
G01 X-16.9212 Y58.7444
G01 X-16.9085 Y58.7629
G01 X-16.8962 Y58.7817
G01 X-16.8845 Y58.8008
G01 X-16.8351 Y58.8837
G01 X-16.8243 Y58.9033
G01 X-16.8139 Y58.9233
G01 X-16.8041 Y58.9434
G01 X-16.7631 Y59.0308
G01 X-16.7543 Y59.0514
G01 X-16.7459 Y59.0722
G01 X-16.7132 Y59.1630
G01 X-16.7059 Y59.1842
G01 X-16.6991 Y59.2056
G01 X-16.6928 Y59.2271
G01 X-16.6871 Y59.2488
G01 X-16.6639 Y59.3425
G01 X-16.6593 Y59.3644
G01 X-16.6552 Y59.3865
G01 X-16.6408 Y59.4819
G01 X-16.6377 Y59.5041
G01 X-16.6353 Y59.5264
G01 X-16.6333 Y59.5488
G01 X-16.6320 Y59.5712
G01 X-16.6283 Y59.6451
G01 X-16.6275 Y59.6676
G01 X-16.6272 Y59.6900
G01 X-16.6275 Y59.7124
G01 X-16.6283 Y59.7349
G01 X-16.6320 Y59.8088
G01 X-16.6333 Y59.8312
G01 X-16.6353 Y59.8536
G01 X-16.6377 Y59.8759
G01 X-16.6408 Y59.8981
G01 X-16.6552 Y59.9935
G01 X-16.6593 Y60.0156
G01 X-16.6639 Y60.0375
G01 X-16.6871 Y60.1312
G01 X-16.6928 Y60.1529
G01 X-16.6991 Y60.1744
G01 X-16.7059 Y60.1958
G01 X-16.7381 Y60.2867
G01 X-16.7459 Y60.3078
G01 X-16.7543 Y60.3286
G01 X-16.7631 Y60.3492
G01 X-16.8041 Y60.4366
G01 X-16.8139 Y60.4567
G01 X-16.8243 Y60.4767
G01 X-16.8351 Y60.4963
G01 X-16.8464 Y60.5157
G01 X-16.8845 Y60.5792
G01 X-16.8962 Y60.5983
G01 X-16.9085 Y60.6171
G01 X-16.9212 Y60.6356
G01 X-16.9343 Y60.6538
G01 X-16.9784 Y60.7133
G01 X-16.9920 Y60.7311
G01 X-17.0060 Y60.7487
G01 X-17.0205 Y60.7658
G01 X-17.0850 Y60.8375
G01 X-17.1003 Y60.8539
G01 X-17.1160 Y60.8700
G01 X-17.1321 Y60.8857
G01 X-17.1485 Y60.9010
G01 X-17.2202 Y60.9655
G01 X-17.2373 Y60.9800
G01 X-17.2549 Y60.9940
G01 X-17.3322 Y61.0517
G01 X-17.3504 Y61.0648
G01 X-17.3689 Y61.0775
G01 X-17.3877 Y61.0898
G01 X-17.4068 Y61.1015
G01 X-17.4703 Y61.1396
G01 X-17.4897 Y61.1509
G01 X-17.5093 Y61.1617
G01 X-17.5293 Y61.1721
G01 X-17.5494 Y61.1819
G01 X-17.6164 Y61.2136
G01 X-17.6368 Y61.2229
G01 X-17.6574 Y61.2317
G01 X-17.6782 Y61.2401
G01 X-17.6993 Y61.2479
G01 X-17.7690 Y61.2728
G01 X-17.7902 Y61.2801
G01 X-17.8116 Y61.2869
G01 X-17.8331 Y61.2932
G01 X-17.8548 Y61.2989
G01 X-17.9266 Y61.3169
G01 X-17.9485 Y61.3221
G01 X-17.9704 Y61.3267
G01 X-17.9925 Y61.3308
G01 X-18.0879 Y61.3452
G01 X-18.1101 Y61.3483
G01 X-18.1324 Y61.3507
G01 X-18.1548 Y61.3527
G01 X-18.1772 Y61.3540
G01 X-18.2511 Y61.3577
G01 X-18.2736 Y61.3585
G01 X-18.2960 Y61.3588
G01 X-19.8040 Y61.3588
G01 X-19.8264 Y61.3585
G01 X-19.8489 Y61.3577
G01 X-19.9452 Y61.3527
G01 X-19.9676 Y61.3507
G01 X-19.9899 Y61.3483
G01 X-20.0121 Y61.3452
G01 X-20.0853 Y61.3344
G01 X-20.1075 Y61.3308
G01 X-20.1296 Y61.3267
G01 X-20.1515 Y61.3221
G01 X-20.1734 Y61.3169
G01 X-20.2452 Y61.2989
G01 X-20.2669 Y61.2932
G01 X-20.2884 Y61.2869
G01 X-20.3098 Y61.2801
G01 X-20.3310 Y61.2728
G01 X-20.4007 Y61.2479
G01 X-20.4218 Y61.2401
G01 X-20.4426 Y61.2317
G01 X-20.4632 Y61.2229
G01 X-20.5506 Y61.1819
G01 X-20.5707 Y61.1721
G01 X-20.5907 Y61.1617
G01 X-20.6103 Y61.1509
G01 X-20.6297 Y61.1396
G01 X-20.6932 Y61.1015
G01 X-20.7123 Y61.0898
G01 X-20.7311 Y61.0775
G01 X-20.7496 Y61.0648
G01 X-20.7678 Y61.0517
G01 X-20.8273 Y61.0076
G01 X-20.8451 Y60.9940
G01 X-20.8627 Y60.9800
G01 X-20.8798 Y60.9655
G01 X-20.9515 Y60.9010
G01 X-20.9679 Y60.8857
G01 X-20.9840 Y60.8700
G01 X-20.9997 Y60.8539
G01 X-21.0150 Y60.8375
G01 X-21.0647 Y60.7826
G01 X-21.0795 Y60.7658
G01 X-21.0940 Y60.7487
G01 X-21.1080 Y60.7311
G01 X-21.1216 Y60.7133
G01 X-21.1657 Y60.6538
G01 X-21.1788 Y60.6356
G01 X-21.1915 Y60.6171
G01 X-21.2038 Y60.5983
G01 X-21.2536 Y60.5157
G01 X-21.2649 Y60.4963
G01 X-21.2757 Y60.4767
G01 X-21.2861 Y60.4567
G01 X-21.2959 Y60.4366
G01 X-21.3276 Y60.3696
G01 X-21.3369 Y60.3492
G01 X-21.3457 Y60.3286
G01 X-21.3541 Y60.3078
G01 X-21.3619 Y60.2867
G01 X-21.3941 Y60.1958
G01 X-21.4009 Y60.1744
G01 X-21.4072 Y60.1529
G01 X-21.4129 Y60.1312
G01 X-21.4309 Y60.0594
G01 X-21.4361 Y60.0375
G01 X-21.4407 Y60.0156
G01 X-21.4448 Y59.9935
G01 X-21.4484 Y59.9713
G01 X-21.4592 Y59.8981
G01 X-21.4623 Y59.8759
G01 X-21.4647 Y59.8536
G01 X-21.4667 Y59.8312
G01 X-21.4717 Y59.7349
G01 X-21.4725 Y59.7124
G01 X-21.4728 Y59.6900
G01 X-21.4725 Y59.6676
G01 X-21.4717 Y59.6451
G01 X-21.4680 Y59.5712
G01 X-21.4667 Y59.5488
G01 X-21.4647 Y59.5264
G01 X-21.4623 Y59.5041
G01 X-21.4592 Y59.4819
G01 X-21.4484 Y59.4087
G01 X-21.4448 Y59.3865
G01 X-21.4407 Y59.3644
G01 X-21.4361 Y59.3425
G01 X-21.4129 Y59.2488
G01 X-21.4072 Y59.2271
G01 X-21.4009 Y59.2056
G01 X-21.3941 Y59.1842
G01 X-21.3868 Y59.1630
G01 X-21.3619 Y59.0933
G01 X-21.3541 Y59.0722
G01 X-21.3457 Y59.0514
G01 X-21.3369 Y59.0308
G01 X-21.3276 Y59.0104
G01 X-21.2959 Y58.9434
G01 X-21.2861 Y58.9233
G01 X-21.2757 Y58.9033
G01 X-21.2649 Y58.8837
G01 X-21.2536 Y58.8643
G01 X-21.2038 Y58.7817
G01 X-21.1915 Y58.7629
G01 X-21.1788 Y58.7444
G01 X-21.1657 Y58.7262
G01 X-21.1216 Y58.6667
G01 X-21.1080 Y58.6489
G01 X-21.0940 Y58.6313
G01 X-21.0795 Y58.6142
G01 X-21.0647 Y58.5974
G01 X-21.0150 Y58.5425
G01 X-20.9997 Y58.5261
G01 X-20.9840 Y58.5100
G01 X-20.9679 Y58.4943
G01 X-20.9515 Y58.4790
G01 X-20.8861 Y58.4200
G01 X-20.9515 Y58.3610
G01 X-20.9679 Y58.3457
G01 X-20.9840 Y58.3300
G01 X-20.9997 Y58.3139
G01 X-21.0150 Y58.2975
G01 X-21.0795 Y58.2258
G01 X-21.0940 Y58.2087
G01 X-21.1080 Y58.1911
G01 X-21.1657 Y58.1138
G01 X-21.1788 Y58.0956
G01 X-21.1915 Y58.0771
G01 X-21.2038 Y58.0583
G01 X-21.2536 Y57.9757
G01 X-21.2649 Y57.9563
G01 X-21.2757 Y57.9367
G01 X-21.2861 Y57.9167
G01 X-21.2959 Y57.8966
G01 X-21.3369 Y57.8092
G01 X-21.3457 Y57.7886
G01 X-21.3541 Y57.7678
G01 X-21.3868 Y57.6770
G01 X-21.3941 Y57.6558
G01 X-21.4009 Y57.6344
G01 X-21.4072 Y57.6129
G01 X-21.4309 Y57.5194
G01 X-21.4361 Y57.4975
G01 X-21.4407 Y57.4756
G01 X-21.4448 Y57.4535
G01 X-21.4484 Y57.4313
G01 X-21.4623 Y57.3359
G01 X-21.4647 Y57.3136
G01 X-21.4667 Y57.2912
G01 X-21.4717 Y57.1949
G01 X-21.4725 Y57.1724
G01 X-21.4728 Y57.1500
G01 X-21.4725 Y57.1276
G01 X-21.4717 Y57.1051
G01 X-21.4680 Y57.0312
G01 X-21.4667 Y57.0088
G01 X-21.4647 Y56.9864
G01 X-21.4623 Y56.9641
G01 X-21.4592 Y56.9419
G01 X-21.4484 Y56.8687
G01 X-21.4448 Y56.8465
G01 X-21.4407 Y56.8244
G01 X-21.4361 Y56.8025
G01 X-21.4129 Y56.7088
G01 X-21.4072 Y56.6871
G01 X-21.4009 Y56.6656
G01 X-21.3941 Y56.6442
G01 X-21.3868 Y56.6230
G01 X-21.3619 Y56.5533
G01 X-21.3541 Y56.5322
G01 X-21.3457 Y56.5114
G01 X-21.3369 Y56.4908
G01 X-21.3276 Y56.4704
G01 X-21.2959 Y56.4034
G01 X-21.2861 Y56.3833
G01 X-21.2757 Y56.3633
G01 X-21.2649 Y56.3437
G01 X-21.2536 Y56.3243
G01 X-21.2038 Y56.2417
G01 X-21.1915 Y56.2229
G01 X-21.1788 Y56.2044
G01 X-21.1657 Y56.1862
G01 X-21.1216 Y56.1267
G01 X-21.1080 Y56.1089
G01 X-21.0940 Y56.0913
G01 X-21.0795 Y56.0742
G01 X-21.0647 Y56.0574
G01 X-21.0150 Y56.0025
G01 X-20.9997 Y55.9861
G01 X-20.9840 Y55.9700
G01 X-20.9679 Y55.9543
G01 X-20.9515 Y55.9390
G01 X-20.8861 Y55.8800
G01 X-20.9515 Y55.8210
G01 X-20.9679 Y55.8057
G01 X-20.9840 Y55.7900
G01 X-20.9997 Y55.7739
G01 X-21.0150 Y55.7575
G01 X-21.0647 Y55.7026
G01 X-21.0795 Y55.6858
G01 X-21.0940 Y55.6687
G01 X-21.1080 Y55.6511
G01 X-21.1216 Y55.6333
G01 X-21.1657 Y55.5738
G01 X-21.1788 Y55.5556
G01 X-21.1915 Y55.5371
G01 X-21.2038 Y55.5183
G01 X-21.2155 Y55.4992
G01 X-21.2649 Y55.4163
G01 X-21.2757 Y55.3967
G01 X-21.2861 Y55.3767
G01 X-21.2959 Y55.3566
G01 X-21.3369 Y55.2692
G01 X-21.3457 Y55.2486
G01 X-21.3541 Y55.2278
G01 X-21.3868 Y55.1370
G01 X-21.3941 Y55.1158
G01 X-21.4009 Y55.0944
G01 X-21.4072 Y55.0729
G01 X-21.4129 Y55.0512
G01 X-21.4361 Y54.9575
G01 X-21.4407 Y54.9356
G01 X-21.4448 Y54.9135
G01 X-21.4592 Y54.8181
G01 X-21.4623 Y54.7959
G01 X-21.4647 Y54.7736
G01 X-21.4667 Y54.7512
G01 X-21.4680 Y54.7288
G01 X-21.4717 Y54.6549
G01 X-21.4725 Y54.6324
G01 X-21.4728 Y54.6100
G01 X-21.4725 Y54.5876
G01 X-21.4717 Y54.5651
