(G-CODE GENERATED BY FLATCAM v8.994 - www.flatcam.org - Version Date: 2020/11/7)

(Name: copper_bottom.gbr_noncopper_mt_paint_cnc)
(Type: G-code from Geometry)
(Units: MM)

(Created on Sunday, 03 April 2022 at 13:27)

(This preprocessor is the default preprocessor used by FlatCAM.)
(It is made to work with MACH3 compatible motion controllers.)

(TOOL DIAMETER: 1.5875 mm)
(Feedrate_XY: 375.0 mm/min)
(Feedrate_Z: 190.0 mm/min)
(Feedrate rapids 400.0 mm/min)

(Z_Cut: -0.4 mm)
(Z_Move: 5.0 mm)
(Z Start: None mm)
(Z End: 15.0 mm)
(X,Y End: None mm)
(Steps per circle: 64)
(Preprocessor Geometry: default)

(X range:  -80.4101 ...   37.2301  mm)
(Y range:  -36.2901 ...   61.6901  mm)

(Spindle Speed: 22250.0 RPM)
G21
G90
G94

G01 F375.00

M5
G00 Z15.0000
G00 X0.0000 Y0.0000
T2
M6    
(MSG, Change to Tool Dia = 1.5875)
M0
G00 Z15.0000

M03 S22250.0
G01 F375.00
G00 X10.4813 Y2.9751
G01 F190.00
G01 Z-0.4000
G01 F375.00
G01 X11.7447 Y1.7117
G01 X11.7767 Y1.6803
G01 X11.8134 Y1.6454
G01 X11.8463 Y1.6150
G01 X11.9849 Y1.4894
G01 X12.0184 Y1.4596
G01 X12.0716 Y1.4140
G01 X12.1260 Y1.3697
G01 X12.1659 Y1.3385
G01 X12.1966 Y1.3153
G01 X12.3723 Y1.1851
G01 X12.4191 Y1.1518
G01 X12.4456 Y1.1335
G01 X12.5040 Y1.0948
G01 X12.5468 Y1.0677
G01 X12.5796 Y1.0476
G01 X12.7673 Y0.9353
G01 X12.8171 Y0.9067
G01 X12.8453 Y0.8911
G01 X12.8787 Y0.8731
G01 X12.9185 Y0.8525
G01 X12.9525 Y0.8355
G01 X12.9928 Y0.8159
G01 X13.1619 Y0.7360
G01 X13.2141 Y0.7120
G01 X13.2668 Y0.6890
G01 X13.3136 Y0.6696
G01 X13.3671 Y0.6486
G01 X13.4150 Y0.6308
G01 X13.6150 Y0.5593
G01 X13.6754 Y0.5389
G01 X13.7181 Y0.5254
G01 X13.7732 Y0.5090
G01 X13.8409 Y0.4906
G01 X14.0530 Y0.4373
G01 X14.0904 Y0.4283
G01 X14.1398 Y0.4172
G01 X14.1961 Y0.4057
G01 X14.2402 Y0.3975
G01 X14.2776 Y0.3911
G01 X14.3219 Y0.3841
G01 X14.5069 Y0.3567
G01 X14.5513 Y0.3505
G01 X14.6015 Y0.3443
G01 X14.6587 Y0.3383
G01 X14.7034 Y0.3345
G01 X14.7607 Y0.3306
G01 X14.9981 Y0.3189
G01 X15.0555 Y0.3172
G01 X15.1130 Y0.3165
G01 X35.1664 Y0.3165
G01 X35.1664 Y-0.3165
G01 X15.2400 Y-0.3165
G01 X15.1825 Y-0.3172
G01 X15.1251 Y-0.3189
G01 X14.9067 Y-0.3295
G01 X14.8682 Y-0.3318
G01 X14.8177 Y-0.3355
G01 X14.7857 Y-0.3383
G01 X14.7285 Y-0.3443
G01 X14.6783 Y-0.3505
G01 X14.6339 Y-0.3567
G01 X14.4489 Y-0.3841
G01 X14.3921 Y-0.3931
G01 X14.3356 Y-0.4033
G01 X14.2859 Y-0.4132
G01 X14.2297 Y-0.4255
G01 X14.1923 Y-0.4343
G01 X13.9740 Y-0.4890
G01 X13.9124 Y-0.5056
G01 X13.8694 Y-0.5181
G01 X13.8145 Y-0.5350
G01 X13.7480 Y-0.5573
G01 X13.5480 Y-0.6287
G01 X13.4941 Y-0.6486
G01 X13.4406 Y-0.6696
G01 X13.3938 Y-0.6890
G01 X13.3411 Y-0.7120
G01 X13.2889 Y-0.7360
G01 X13.1198 Y-0.8159
G01 X13.0795 Y-0.8355
G01 X13.0455 Y-0.8525
G01 X13.0057 Y-0.8731
G01 X12.9723 Y-0.8911
G01 X12.9221 Y-0.9191
G01 X12.8943 Y-0.9353
G01 X12.7066 Y-1.0476
G01 X12.6738 Y-1.0677
G01 X12.6310 Y-1.0948
G01 X12.6041 Y-1.1124
G01 X12.5565 Y-1.1446
G01 X12.4993 Y-1.1851
G01 X12.3236 Y-1.3153
G01 X12.2929 Y-1.3385
G01 X12.2530 Y-1.3697
G01 X12.1986 Y-1.4140
G01 X12.1454 Y-1.4596
G01 X12.1119 Y-1.4894
G01 X11.9733 Y-1.6150
G01 X11.9404 Y-1.6454
G01 X11.9037 Y-1.6803
G01 X11.8717 Y-1.7117
G01 X10.4813 Y-3.1021
G01 X10.4813 Y2.9751
G01 X10.5945 Y4.3213
G01 X12.4744 Y2.4414
G01 X12.4973 Y2.4189
G01 X12.5393 Y2.3796
G01 X12.6779 Y2.2540
G01 X12.7019 Y2.2326
G01 X12.7360 Y2.2035
G01 X12.7708 Y2.1753
G01 X12.8062 Y2.1479
G01 X12.9666 Y2.0289
G01 X12.9926 Y2.0100
G01 X13.0294 Y1.9844
G01 X13.0504 Y1.9703
G01 X13.1047 Y1.9359
G01 X13.2869 Y1.8268
G01 X13.3257 Y1.8045
G01 X13.3652 Y1.7831
G01 X13.4051 Y1.7628
G01 X13.4340 Y1.7488
G01 X13.6031 Y1.6688
G01 X13.6323 Y1.6553
G01 X13.6554 Y1.6451
G01 X13.6967 Y1.6277
G01 X13.7567 Y1.6046
G01 X13.9447 Y1.5372
G01 X13.9751 Y1.5267
G01 X14.0177 Y1.5129
G01 X14.0606 Y1.5001
G01 X14.1039 Y1.4884
G01 X14.2976 Y1.4398
G01 X14.3288 Y1.4323
G01 X14.3726 Y1.4227
G01 X14.3974 Y1.4177
G01 X14.4415 Y1.4098
G01 X14.4733 Y1.4048
G01 X14.6583 Y1.3774
G01 X14.7153 Y1.3699
G01 X14.7793 Y1.3636
G01 X14.8366 Y1.3598
G01 X15.0361 Y1.3501
G01 X15.0809 Y1.3487
G01 X15.1130 Y1.3484
G01 X36.1983 Y1.3484
G01 X36.1983 Y-1.3484
G01 X15.2400 Y-1.3484
G01 X15.2079 Y-1.3487
G01 X15.1631 Y-1.3501
G01 X14.9636 Y-1.3598
G01 X14.9063 Y-1.3636
G01 X14.8423 Y-1.3699
G01 X14.7853 Y-1.3774
G01 X14.6003 Y-1.4048
G01 X14.5685 Y-1.4098
G01 X14.5436 Y-1.4142
G01 X14.4996 Y-1.4227
G01 X14.4558 Y-1.4323
G01 X14.4246 Y-1.4398
G01 X14.2309 Y-1.4884
G01 X14.1876 Y-1.5001
G01 X14.1447 Y-1.5129
G01 X14.1021 Y-1.5267
G01 X14.0717 Y-1.5372
G01 X13.8956 Y-1.6002
G01 X13.8654 Y-1.6113
G01 X13.8237 Y-1.6277
G01 X13.8003 Y-1.6374
G01 X13.7415 Y-1.6634
G01 X13.5496 Y-1.7542
G01 X13.5094 Y-1.7742
G01 X13.4698 Y-1.7951
G01 X13.4307 Y-1.8170
G01 X13.4030 Y-1.8332
G01 X13.2426 Y-1.9294
G01 X13.2151 Y-1.9462
G01 X13.1937 Y-1.9597
G01 X13.1564 Y-1.9844
G01 X13.1038 Y-2.0214
G01 X12.9332 Y-2.1479
G01 X12.8978 Y-2.1753
G01 X12.8630 Y-2.2035
G01 X12.8289 Y-2.2326
G01 X12.8049 Y-2.2540
G01 X12.6663 Y-2.3796
G01 X12.6243 Y-2.4189
G01 X12.6014 Y-2.4414
G01 X10.5958 Y-4.4470
G01 X9.4494 Y-4.4475
G01 X9.4494 Y4.3213
G01 X10.5945 Y4.3213
G01 X11.0219 Y5.3531
G01 X13.2040 Y3.1710
G01 X13.2322 Y3.1442
G01 X13.3708 Y3.0185
G01 X13.3854 Y3.0056
G01 X13.4155 Y2.9809
G01 X13.5813 Y2.8577
G01 X13.6131 Y2.8353
G01 X13.6460 Y2.8144
G01 X13.8065 Y2.7183
G01 X13.8404 Y2.6991
G01 X13.8752 Y2.6816
G01 X14.0443 Y2.6016
G01 X14.0799 Y2.5858
G01 X14.1162 Y2.5718
G01 X14.2923 Y2.5088
G01 X14.3293 Y2.4965
G01 X14.3669 Y2.4862
G01 X14.5483 Y2.4407
G01 X14.5863 Y2.4322
G01 X14.6247 Y2.4255
G01 X14.8290 Y2.3954
G01 X14.8484 Y2.3933
G01 X14.8872 Y2.3904
G01 X15.0741 Y2.3813
G01 X15.1130 Y2.3803
G01 X37.2301 Y2.3803
G01 X37.2301 Y-2.3803
G01 X15.2400 Y-2.3803
G01 X15.2011 Y-2.3813
G01 X15.0142 Y-2.3904
G01 X14.9754 Y-2.3933
G01 X14.9367 Y-2.3981
G01 X14.7517 Y-2.4255
G01 X14.7133 Y-2.4322
G01 X14.6753 Y-2.4407
G01 X14.4939 Y-2.4862
G01 X14.4563 Y-2.4965
G01 X14.4193 Y-2.5088
G01 X14.2432 Y-2.5718
G01 X14.2069 Y-2.5858
G01 X14.1713 Y-2.6016
G01 X14.0022 Y-2.6816
G01 X13.9674 Y-2.6991
G01 X13.9335 Y-2.7183
G01 X13.7730 Y-2.8144
G01 X13.7401 Y-2.8353
G01 X13.7083 Y-2.8577
G01 X13.5425 Y-2.9809
G01 X13.5124 Y-3.0056
G01 X13.4978 Y-3.0185
G01 X13.3592 Y-3.1442
G01 X13.3310 Y-3.1710
G01 X11.0234 Y-5.4787
G01 X8.4176 Y-5.4798
G01 X8.4176 Y5.3531
G01 X11.0219 Y5.3531
G01 X11.5132 Y0.5389
G01 X11.5794 Y0.4884
G01 X11.7653 Y0.3507
G01 X11.7991 Y0.3264
G01 X11.8406 Y0.2973
G01 X11.8775 Y0.2720
G01 X11.9197 Y0.2439
G01 X11.9626 Y0.2161
G01 X12.0248 Y0.1773
G01 X12.2232 Y0.0582
G01 X12.2700 Y0.0308
G01 X12.3085 Y0.0088
G01 X12.3477 Y-0.0129
G01 X12.3892 Y-0.0353
G01 X12.3447 Y-0.0614
G01 X12.1816 Y-0.1592
G01 X12.1271 Y-0.1925
G01 X12.0843 Y-0.2195
G01 X12.0467 Y-0.2439
G01 X12.0045 Y-0.2720
G01 X11.9676 Y-0.2973
G01 X11.9158 Y-0.3337
G01 X11.8744 Y-0.3638
G01 X11.6836 Y-0.5055
G01 X11.6281 Y-0.5484
G01 X11.5930 Y-0.5762
G01 X11.5489 Y-0.6123
G01 X11.5132 Y-0.6422
G01 X11.5132 Y0.5389
G00 Z5.0000
G00 X14.8399 Y-9.2981
G01 F190.00
G01 Z-0.4000
G01 F375.00
G01 X16.3583 Y-7.7797
G01 X37.2301 Y-7.7797
G01 X37.2301 Y-16.3503
G01 X31.5983 Y-16.3503
G01 X28.5790 Y-13.3310
G01 X28.5508 Y-13.3042
G01 X28.3976 Y-13.1656
G01 X28.3827 Y-13.1531
G01 X28.3520 Y-13.1291
G01 X28.2017 Y-13.0177
G01 X28.1699 Y-12.9953
G01 X28.1370 Y-12.9744
G01 X27.9765 Y-12.8783
G01 X27.9426 Y-12.8591
G01 X27.9078 Y-12.8416
G01 X27.7387 Y-12.7616
G01 X27.7031 Y-12.7458
G01 X27.6668 Y-12.7318
G01 X27.4907 Y-12.6688
G01 X27.4537 Y-12.6565
G01 X27.4161 Y-12.6462
G01 X27.2347 Y-12.6007
G01 X27.2157 Y-12.5962
G01 X27.1775 Y-12.5886
G01 X26.9733 Y-12.5581
G01 X26.9346 Y-12.5533
G01 X26.8958 Y-12.5504
G01 X26.7089 Y-12.5413
G01 X26.6700 Y-12.5403
G01 X14.8399 Y-12.5403
G01 X14.8399 Y-9.2981
G01 X15.8717 Y-9.7255
G01 X16.7857 Y-8.8116
G01 X36.1983 Y-8.8116
G01 X36.1983 Y-15.3184
G01 X32.0257 Y-15.3184
G01 X29.3086 Y-12.6014
G01 X29.2857 Y-12.5789
G01 X29.2531 Y-12.5481
G01 X29.1051 Y-12.4140
G01 X29.0619 Y-12.3761
G01 X29.0275 Y-12.3475
G01 X28.9923 Y-12.3197
G01 X28.9666 Y-12.3003
G01 X28.8164 Y-12.1889
G01 X28.7904 Y-12.1700
G01 X28.7697 Y-12.1554
G01 X28.7326 Y-12.1303
G01 X28.6783 Y-12.0959
G01 X28.5070 Y-11.9932
G01 X28.4793 Y-11.9770
G01 X28.4402 Y-11.9551
G01 X28.4006 Y-11.9342
G01 X28.3604 Y-11.9142
G01 X28.1799 Y-11.8288
G01 X28.1507 Y-11.8153
G01 X28.1097 Y-11.7974
G01 X28.0863 Y-11.7877
G01 X28.0446 Y-11.7713
G01 X28.0144 Y-11.7602
G01 X27.8383 Y-11.6972
G01 X27.8079 Y-11.6867
G01 X27.7653 Y-11.6729
G01 X27.7224 Y-11.6601
G01 X27.6669 Y-11.6452
G01 X27.4731 Y-11.5968
G01 X27.4295 Y-11.5867
G01 X27.3856 Y-11.5777
G01 X27.3222 Y-11.5667
G01 X27.1247 Y-11.5374
G01 X27.0677 Y-11.5299
G01 X27.0231 Y-11.5252
G01 X26.9590 Y-11.5205
G01 X26.7596 Y-11.5106
G01 X26.7021 Y-11.5087
G01 X26.6700 Y-11.5084
G01 X15.8717 Y-11.5084
G01 X15.8717 Y-9.7255
G01 X16.9036 Y-10.1529
G01 X17.2131 Y-9.8435
G01 X35.1664 Y-9.8435
G01 X35.1664 Y-14.2865
G01 X32.4531 Y-14.2865
G01 X30.0248 Y-11.8584
G01 X29.9789 Y-11.8141
G01 X29.9507 Y-11.7878
G01 X29.7792 Y-11.6325
G01 X29.7359 Y-11.5947
G01 X29.7016 Y-11.5659
G01 X29.6722 Y-11.5419
G01 X29.6271 Y-11.5062
G01 X29.5813 Y-11.4715
G01 X29.4311 Y-11.3601
G01 X29.3949 Y-11.3337
G01 X29.3374 Y-11.2935
G01 X29.3059 Y-11.2724
G01 X29.2683 Y-11.2479
G01 X29.2362 Y-11.2277
G01 X29.1979 Y-11.2043
G01 X29.0375 Y-11.1081
G01 X28.9879 Y-11.0791
G01 X28.9377 Y-11.0511
G01 X28.8931 Y-11.0272
G01 X28.8419 Y-11.0011
G01 X28.7902 Y-10.9759
G01 X28.5982 Y-10.8853
G01 X28.5341 Y-10.8567
G01 X28.4812 Y-10.8344
G01 X28.4396 Y-10.8177
G01 X28.3799 Y-10.7952
G01 X28.3620 Y-10.7887
G01 X28.1859 Y-10.7257
G01 X28.1800 Y-10.7235
G01 X28.1316 Y-10.7069
G01 X28.0769 Y-10.6892
G01 X28.0285 Y-10.6745
G01 X27.9732 Y-10.6588
G01 X27.9176 Y-10.6443
G01 X27.7361 Y-10.5988
G01 X27.6803 Y-10.5855
G01 X27.6432 Y-10.5772
G01 X27.5869 Y-10.5657
G01 X27.5428 Y-10.5575
G01 X27.4861 Y-10.5480
G01 X27.2573 Y-10.5140
G01 X27.2192 Y-10.5088
G01 X27.1621 Y-10.5021
G01 X27.1243 Y-10.4983
G01 X27.0796 Y-10.4945
G01 X27.0033 Y-10.4895
G01 X26.7912 Y-10.4792
G01 X26.7528 Y-10.4778
G01 X26.6953 Y-10.4767
G01 X26.6700 Y-10.4765
G01 X16.9036 Y-10.4765
G01 X16.9036 Y-10.1529
G01 X30.4805 Y-10.8753
G01 X34.1345 Y-10.8753
G01 X34.1345 Y-13.2547
G01 X32.8805 Y-13.2547
G01 X30.7612 Y-11.1354
G01 X30.7133 Y-11.0886
G01 X30.6576 Y-11.0361
G01 X30.4805 Y-10.8753
G01 X32.9923 Y-11.9072
G01 X33.1026 Y-11.9072
G01 X33.1026 Y-12.0175
G01 X32.9923 Y-11.9072
G00 Z5.0000
G00 X21.5135 Y-23.0991
G01 F190.00
G01 Z-0.4000
G01 F375.00
G01 X22.3053 Y-23.8909
G01 X24.2065 Y-23.8909
G01 X23.4147 Y-23.0991
G01 X21.5135 Y-23.0991
G01 X19.5272 Y-22.0672
G01 X19.5272 Y-22.5721
G01 X21.8779 Y-24.9228
G01 X27.0028 Y-24.9228
G01 X26.8532 Y-24.8328
G01 X26.8017 Y-24.8009
G01 X26.7483 Y-24.7668
G01 X26.6976 Y-24.7336
G01 X26.6290 Y-24.6872
G01 X26.5745 Y-24.6491
G01 X26.5265 Y-24.6147
G01 X26.3139 Y-24.4571
G01 X26.2632 Y-24.4185
G01 X26.2109 Y-24.3775
G01 X26.1587 Y-24.3355
G01 X26.0878 Y-24.2765
G01 X26.0278 Y-24.2248
G01 X25.9695 Y-24.1729
G01 X25.8239 Y-24.0409
G01 X25.7758 Y-23.9966
G01 X25.7206 Y-23.9444
G01 X25.6648 Y-23.8898
G01 X23.8421 Y-22.0672
G01 X19.5272 Y-22.0672
G01 X18.4953 Y-21.0353
G01 X18.4953 Y-22.9995
G01 X21.4505 Y-25.9547
G01 X34.1345 Y-25.9547
G01 X34.1345 Y-24.8453
G01 X30.4547 Y-24.8452
G01 X30.3972 Y-24.8444
G01 X30.3239 Y-24.8422
G01 X30.0929 Y-24.8310
G01 X30.0386 Y-24.8278
G01 X29.9881 Y-24.8241
G01 X29.9435 Y-24.8204
G01 X29.8994 Y-24.8161
G01 X29.8485 Y-24.8106
G01 X29.8045 Y-24.8053
G01 X29.7225 Y-24.7941
G01 X29.4999 Y-24.7608
G01 X29.4245 Y-24.7481
G01 X29.3618 Y-24.7364
G01 X29.3184 Y-24.7276
G01 X29.2746 Y-24.7183
G01 X29.2252 Y-24.7071
G01 X29.1723 Y-24.6944
G01 X28.9480 Y-24.6380
G01 X28.8772 Y-24.6189
G01 X28.8280 Y-24.6048
G01 X28.7796 Y-24.5902
G01 X28.7248 Y-24.5728
G01 X28.6767 Y-24.5569
G01 X28.6284 Y-24.5401
G01 X28.4136 Y-24.4632
G01 X28.3627 Y-24.4441
G01 X28.2974 Y-24.4185
G01 X28.2506 Y-24.3993
G01 X28.2093 Y-24.3818
G01 X28.1629 Y-24.3614
G01 X28.1221 Y-24.3429
G01 X27.9158 Y-24.2455
G01 X27.8498 Y-24.2134
G01 X27.7990 Y-24.1877
G01 X27.7314 Y-24.1520
G01 X27.6755 Y-24.1212
G01 X27.6065 Y-24.0815
G01 X27.4216 Y-23.9708
G01 X27.3725 Y-23.9408
G01 X27.3083 Y-23.9002
G01 X27.2445 Y-23.8580
G01 X27.1920 Y-23.8219
G01 X27.1272 Y-23.7756
G01 X26.9540 Y-23.6473
G01 X26.9031 Y-23.6088
G01 X26.8482 Y-23.5659
G01 X26.7889 Y-23.5177
G01 X26.7401 Y-23.4766
G01 X26.6849 Y-23.4284
G01 X26.4947 Y-23.2560
G01 X26.4413 Y-23.2058
G01 X26.3911 Y-23.1568
G01 X24.2695 Y-21.0353
G01 X18.4953 Y-21.0353
G01 X17.4513 Y-20.0035
G01 X17.4611 Y-20.2051
G01 X17.4628 Y-20.2625
G01 X17.4634 Y-20.3137
G01 X17.4635 Y-23.4269
G01 X21.0231 Y-26.9865
G01 X35.1664 Y-26.9865
G01 X35.1664 Y-23.8135
G01 X30.4800 Y-23.8135
G01 X30.4352 Y-23.8131
G01 X30.3972 Y-23.8122
G01 X30.3398 Y-23.8100
G01 X30.1530 Y-23.8008
G01 X30.0956 Y-23.7974
G01 X30.0383 Y-23.7928
G01 X29.9879 Y-23.7879
G01 X29.9308 Y-23.7812
G01 X29.8802 Y-23.7743
G01 X29.6701 Y-23.7430
G01 X29.6072 Y-23.7325
G01 X29.5631 Y-23.7243
G01 X29.5068 Y-23.7128
G01 X29.4385 Y-23.6972
G01 X29.2263 Y-23.6442
G01 X29.1768 Y-23.6312
G01 X29.1215 Y-23.6155
G01 X29.0731 Y-23.6008
G01 X29.0184 Y-23.5831
G01 X28.9641 Y-23.5643
G01 X28.7880 Y-23.5013
G01 X28.7459 Y-23.4859
G01 X28.7104 Y-23.4723
G01 X28.6688 Y-23.4556
G01 X28.6338 Y-23.4410
G01 X28.6043 Y-23.4283
G01 X28.5518 Y-23.4047
G01 X28.3541 Y-23.3113
G01 X28.3195 Y-23.2945
G01 X28.2742 Y-23.2718
G01 X28.2457 Y-23.2569
G01 X28.1952 Y-23.2295
G01 X28.1288 Y-23.1915
G01 X27.9358 Y-23.0759
G01 X27.9031 Y-23.0556
G01 X27.8547 Y-23.0246
G01 X27.8231 Y-23.0036
G01 X27.7861 Y-22.9782
G01 X27.7240 Y-22.9337
G01 X27.5535 Y-22.8071
G01 X27.5229 Y-22.7838
G01 X27.4778 Y-22.7481
G01 X27.4484 Y-22.7241
G01 X27.4141 Y-22.6953
G01 X27.3566 Y-22.6448
G01 X27.1993 Y-22.5022
G01 X27.1711 Y-22.4759
G01 X27.1252 Y-22.4316
G01 X24.6969 Y-20.0035
G01 X17.4513 Y-20.0035
G01 X16.1783 Y-18.9716
G01 X16.2470 Y-19.1636
G01 X16.2613 Y-19.2061
G01 X16.2745 Y-19.2489
G01 X16.2867 Y-19.2920
G01 X16.2948 Y-19.3231
G01 X16.3402 Y-19.5046
G01 X16.3477 Y-19.5358
G01 X16.3573 Y-19.5796
G01 X16.3658 Y-19.6236
G01 X16.3702 Y-19.6485
G01 X16.3752 Y-19.6803
G01 X16.4026 Y-19.8653
G01 X16.4101 Y-19.9223
G01 X16.4148 Y-19.9669
G01 X16.4183 Y-20.0115
G01 X16.4202 Y-20.0436
G01 X16.4299 Y-20.2431
G01 X16.4313 Y-20.2879
G01 X16.4316 Y-20.3200
G01 X16.4316 Y-23.8543
G01 X20.5957 Y-28.0184
G01 X36.1983 Y-28.0184
G01 X36.1983 Y-22.7816
G01 X30.4800 Y-22.7816
G01 X30.4225 Y-22.7806
G01 X30.3904 Y-22.7794
G01 X30.2036 Y-22.7702
G01 X30.1715 Y-22.7683
G01 X30.1269 Y-22.7648
G01 X30.0823 Y-22.7601
G01 X30.0378 Y-22.7544
G01 X29.8403 Y-22.7252
G01 X29.8085 Y-22.7202
G01 X29.7644 Y-22.7123
G01 X29.7396 Y-22.7073
G01 X29.6958 Y-22.6977
G01 X29.6646 Y-22.6902
G01 X29.4831 Y-22.6448
G01 X29.4520 Y-22.6367
G01 X29.4089 Y-22.6245
G01 X29.3661 Y-22.6113
G01 X29.3236 Y-22.5970
G01 X29.1356 Y-22.5298
G01 X29.1054 Y-22.5187
G01 X29.0637 Y-22.5023
G01 X29.0224 Y-22.4849
G01 X28.9701 Y-22.4612
G01 X28.7896 Y-22.3758
G01 X28.7494 Y-22.3558
G01 X28.6927 Y-22.3255
G01 X28.6430 Y-22.2968
G01 X28.4717 Y-22.1941
G01 X28.4174 Y-22.1597
G01 X28.3803 Y-22.1346
G01 X28.3336 Y-22.1011
G01 X28.1834 Y-21.9897
G01 X28.1577 Y-21.9703
G01 X28.1378 Y-21.9547
G01 X28.1030 Y-21.9265
G01 X28.0689 Y-21.8974
G01 X28.0449 Y-21.8760
G01 X27.9063 Y-21.7504
G01 X27.8827 Y-21.7286
G01 X27.8414 Y-21.6886
G01 X25.1243 Y-18.9716
G01 X16.1783 Y-18.9716
G01 X14.8412 Y-18.6789
G01 X14.9223 Y-18.7883
G01 X14.9447 Y-18.8201
G01 X14.9656 Y-18.8530
G01 X15.0715 Y-19.0303
G01 X15.0809 Y-19.0474
G01 X15.0984 Y-19.0822
G01 X15.1784 Y-19.2513
G01 X15.1865 Y-19.2690
G01 X15.2014 Y-19.3050
G01 X15.2712 Y-19.4993
G01 X15.2835 Y-19.5363
G01 X15.2938 Y-19.5739
G01 X15.3393 Y-19.7553
G01 X15.3478 Y-19.7933
G01 X15.3545 Y-19.8317
G01 X15.3819 Y-20.0167
G01 X15.3867 Y-20.0554
G01 X15.3896 Y-20.0942
G01 X15.3987 Y-20.2811
G01 X15.3997 Y-20.3200
G01 X15.3997 Y-24.2817
G01 X20.1683 Y-29.0503
G01 X37.2301 Y-29.0503
G01 X37.2301 Y-21.7497
G01 X30.4605 Y-21.7495
G01 X30.2542 Y-21.7396
G01 X30.2154 Y-21.7367
G01 X30.1767 Y-21.7319
G01 X29.9917 Y-21.7045
G01 X29.9533 Y-21.6978
G01 X29.9153 Y-21.6893
G01 X29.7339 Y-21.6438
G01 X29.6963 Y-21.6335
G01 X29.6777 Y-21.6276
G01 X29.4832 Y-21.5582
G01 X29.4469 Y-21.5442
G01 X29.4113 Y-21.5284
G01 X29.2422 Y-21.4484
G01 X29.2074 Y-21.4309
G01 X29.1735 Y-21.4117
G01 X29.0130 Y-21.3156
G01 X28.9801 Y-21.2947
G01 X28.9483 Y-21.2723
G01 X28.7980 Y-21.1609
G01 X28.7673 Y-21.1369
G01 X28.7378 Y-21.1115
G01 X28.5992 Y-20.9858
G01 X28.5710 Y-20.9590
G01 X25.5517 Y-17.9397
G01 X14.8406 Y-17.9397
G01 X14.8412 Y-18.6789
G00 Z5.0000
G00 X9.8344 Y-30.7303
G01 F190.00
G01 Z-0.4000
G01 F375.00
G01 X9.8344 Y-31.7500
G01 X9.8340 Y-31.8075
G01 X9.8327 Y-31.8644
G01 X9.8302 Y-31.9314
G01 X9.8157 Y-32.2273
G01 X9.8124 Y-32.2847
G01 X9.8068 Y-32.3604
G01 X9.7984 Y-32.4492
G01 X9.7887 Y-32.5314
G01 X9.7783 Y-32.6071
G01 X9.7357 Y-32.8940
G01 X9.7242 Y-32.9663
G01 X9.7143 Y-33.0225
G01 X9.7010 Y-33.0913
G01 X9.6905 Y-33.1414
G01 X9.6787 Y-33.1945
G01 X12.2987 Y-33.1945
G01 X9.8344 Y-30.7303
G01 X6.6975 Y-24.5236
G01 X6.7236 Y-24.5769
G01 X6.7797 Y-24.6953
G01 X6.7985 Y-24.7360
G01 X6.8139 Y-24.7707
G01 X6.8316 Y-24.8119
G01 X6.8533 Y-24.8651
G01 X6.8715 Y-24.9123
G01 X6.8870 Y-24.9544
G01 X6.9290 Y-25.0718
G01 X6.9437 Y-25.1141
G01 X6.9596 Y-25.1622
G01 X6.9766 Y-25.2171
G01 X6.9891 Y-25.2601
G01 X7.0057 Y-25.3217
G01 X7.0407 Y-25.4611
G01 X7.0512 Y-25.5047
G01 X7.0596 Y-25.5417
G01 X7.0689 Y-25.5855
G01 X7.0798 Y-25.6420
G01 X7.0884 Y-25.6919
G01 X7.0954 Y-25.7361
G01 X7.1164 Y-25.8783
G01 X7.1215 Y-25.9164
G01 X7.1282 Y-25.9735
G01 X7.1332 Y-26.0239
G01 X7.1386 Y-26.0938
G01 X7.1412 Y-26.1385
G01 X7.1473 Y-26.2631
G01 X7.1491 Y-26.3079
G01 X7.1501 Y-26.3458
G01 X7.1506 Y-26.3842
G01 X7.1507 Y-26.4350
G01 X7.2021 Y-26.4898
G01 X7.4032 Y-26.7117
G01 X7.4371 Y-26.7500
G01 X7.4825 Y-26.8035
G01 X7.5265 Y-26.8581
G01 X7.5655 Y-26.9086
G01 X7.7589 Y-27.1695
G01 X7.7960 Y-27.2214
G01 X7.8354 Y-27.2794
G01 X7.8599 Y-27.3170
G01 X7.8936 Y-27.3711
G01 X8.0638 Y-27.6551
G01 X8.0799 Y-27.6829
G01 X8.1080 Y-27.7331
G01 X8.1408 Y-27.7950
G01 X8.1636 Y-27.8403
G01 X8.1804 Y-27.8749
G01 X8.3058 Y-28.1399
G01 X8.3298 Y-28.1921
G01 X8.3577 Y-28.2564
G01 X8.3840 Y-28.3214
G01 X8.4066 Y-28.3811
G01 X8.5097 Y-28.6690
G01 X8.5244 Y-28.7113
G01 X8.5364 Y-28.7474
G01 X8.5499 Y-28.7901
G01 X8.5663 Y-28.8452
G01 X8.5765 Y-28.8817
G01 X8.5911 Y-28.9373
G01 X8.6608 Y-29.2155
G01 X8.6741 Y-29.2714
G01 X8.6890 Y-29.3400
G01 X8.6999 Y-29.3964
G01 X8.7116 Y-29.4655
G01 X8.7603 Y-29.7931
G01 X8.7685 Y-29.8563
G01 X8.7759 Y-29.9261
G01 X8.7816 Y-29.9960
G01 X8.7847 Y-30.0470
G01 X8.7994 Y-30.3461
G01 X8.8019 Y-30.4225
G01 X8.8026 Y-30.4800
G01 X8.8026 Y-31.7500
G01 X8.8022 Y-31.7948
G01 X8.8009 Y-31.8454
G01 X8.7994 Y-31.8839
G01 X8.7847 Y-32.1830
G01 X8.7797 Y-32.2593
G01 X8.7734 Y-32.3291
G01 X8.7685 Y-32.3737
G01 X8.7603 Y-32.4369
G01 X8.7155 Y-32.7394
G01 X8.7064 Y-32.7962
G01 X8.6939 Y-32.8652
G01 X8.6797 Y-32.9339
G01 X8.6623 Y-33.0083
G01 X8.5895 Y-33.2988
G01 X8.5698 Y-33.3727
G01 X8.5573 Y-33.4157
G01 X8.5462 Y-33.4520
G01 X8.5285 Y-33.5067
G01 X8.5181 Y-33.5371
G01 X8.4131 Y-33.8310
G01 X8.3931 Y-33.8849
G01 X8.3674 Y-33.9502
G01 X8.3528 Y-33.9852
G01 X8.3298 Y-34.0379
G01 X8.3058 Y-34.0901
G01 X8.2413 Y-34.2264
G01 X14.7899 Y-34.2264
G01 X9.3184 Y-28.7548
G01 X9.2741 Y-28.7089
G01 X9.2478 Y-28.6807
G01 X9.1094 Y-28.5281
G01 X9.0713 Y-28.4851
G01 X9.0259 Y-28.4316
G01 X8.9818 Y-28.3771
G01 X8.9429 Y-28.3265
G01 X8.8201 Y-28.1611
G01 X8.7864 Y-28.1146
G01 X8.7535 Y-28.0674
G01 X8.7324 Y-28.0359
G01 X8.7079 Y-27.9983
G01 X8.6877 Y-27.9662
G01 X8.6643 Y-27.9279
G01 X8.5649 Y-27.7621
G01 X8.5454 Y-27.7289
G01 X8.5205 Y-27.6848
G01 X8.4872 Y-27.6231
G01 X8.4611 Y-27.5719
G01 X8.4469 Y-27.5430
G01 X8.3533 Y-27.3454
G01 X8.3217 Y-27.2757
G01 X8.3041 Y-27.2346
G01 X8.2896 Y-27.1994
G01 X8.2777 Y-27.1696
G01 X8.2573 Y-27.1158
G01 X8.1835 Y-26.9100
G01 X8.1709 Y-26.8736
G01 X8.1550 Y-26.8255
G01 X8.1345 Y-26.7585
G01 X8.1155 Y-26.6910
G01 X8.1043 Y-26.6476
G01 X8.0588 Y-26.4661
G01 X8.0483 Y-26.4226
G01 X8.0399 Y-26.3855
G01 X8.0306 Y-26.3417
G01 X8.0233 Y-26.3044
G01 X8.0131 Y-26.2479
G01 X8.0041 Y-26.1911
G01 X7.9767 Y-26.0061
G01 X7.9688 Y-25.9492
G01 X7.9608 Y-25.8795
G01 X7.9555 Y-25.8223
G01 X7.9506 Y-25.7523
G01 X7.9392 Y-25.5212
G01 X7.9378 Y-25.4828
G01 X7.9367 Y-25.4253
G01 X7.9365 Y-24.5236
G01 X6.6975 Y-24.5236
G01 X4.0715 Y-23.4917
G01 X4.1358 Y-23.5148
G01 X4.1777 Y-23.5307
G01 X4.2192 Y-23.5476
G01 X4.2602 Y-23.5656
G01 X4.2779 Y-23.5737
G01 X4.2894 Y-23.5790
G01 X4.4021 Y-23.6324
G01 X4.4310 Y-23.6464
G01 X4.4537 Y-23.6578
G01 X4.4933 Y-23.6787
G01 X4.5324 Y-23.7006
G01 X4.5601 Y-23.7168
G01 X4.6779 Y-23.7875
G01 X4.7159 Y-23.8113
G01 X4.7533 Y-23.8360
G01 X4.8058 Y-23.8730
G01 X4.9162 Y-23.9547
G01 X4.9618 Y-23.9897
G01 X4.9966 Y-24.0180
G01 X5.0453 Y-24.0599
G01 X5.1471 Y-24.1521
G01 X5.1890 Y-24.1914
G01 X5.2209 Y-24.2229
G01 X5.2520 Y-24.2552
G01 X5.2738 Y-24.2788
G01 X5.3660 Y-24.3806
G01 X5.4079 Y-24.4293
G01 X5.4362 Y-24.4641
G01 X5.4636 Y-24.4996
G01 X5.5455 Y-24.6098
G01 X5.5789 Y-24.6566
G01 X5.6040 Y-24.6937
G01 X5.6282 Y-24.7314
G01 X5.6450 Y-24.7588
G01 X5.7091 Y-24.8658
G01 X5.7253 Y-24.8935
G01 X5.7472 Y-24.9326
G01 X5.7681 Y-24.9722
G01 X5.7881 Y-25.0124
G01 X5.8469 Y-25.1365
G01 X5.8603 Y-25.1657
G01 X5.8783 Y-25.2067
G01 X5.8952 Y-25.2482
G01 X5.9043 Y-25.2719
G01 X5.9154 Y-25.3020
G01 X5.9616 Y-25.4314
G01 X5.9759 Y-25.4738
G01 X5.9891 Y-25.5166
G01 X6.0063 Y-25.5786
G01 X6.0397 Y-25.7118
G01 X6.0472 Y-25.7431
G01 X6.0568 Y-25.7868
G01 X6.0653 Y-25.8308
G01 X6.0728 Y-25.8750
G01 X6.0948 Y-26.0234
G01 X6.1005 Y-26.0679
G01 X6.1051 Y-26.1124
G01 X6.1098 Y-26.1765
G01 X6.1167 Y-26.3137
G01 X6.1185 Y-26.3712
G01 X6.1189 Y-26.4031
G01 X6.1190 Y-26.8830
G01 X6.3244 Y-27.0694
G01 X6.3571 Y-27.1001
G01 X6.3889 Y-27.1316
G01 X6.4200 Y-27.1639
G01 X6.4418 Y-27.1875
G01 X6.6344 Y-27.4000
G01 X6.6723 Y-27.4432
G01 X6.7009 Y-27.4777
G01 X6.7286 Y-27.5129
G01 X6.7480 Y-27.5385
G01 X6.9189 Y-27.7688
G01 X6.9378 Y-27.7948
G01 X6.9634 Y-27.8316
G01 X6.9881 Y-27.8690
G01 X7.0184 Y-27.9178
G01 X7.1659 Y-28.1638
G01 X7.1821 Y-28.1915
G01 X7.2040 Y-28.2306
G01 X7.2159 Y-28.2530
G01 X7.2363 Y-28.2929
G01 X7.2503 Y-28.3218
G01 X7.3729 Y-28.5811
G01 X7.3967 Y-28.6334
G01 X7.4140 Y-28.6747
G01 X7.4304 Y-28.7164
G01 X7.4415 Y-28.7466
G01 X7.5423 Y-29.0286
G01 X7.5566 Y-29.0710
G01 X7.5698 Y-29.1138
G01 X7.5820 Y-29.1570
G01 X7.5901 Y-29.1881
G01 X7.6598 Y-29.4663
G01 X7.6729 Y-29.5222
G01 X7.6854 Y-29.5853
G01 X7.6948 Y-29.6420
G01 X7.7369 Y-29.9257
G01 X7.7413 Y-29.9575
G01 X7.7465 Y-30.0020
G01 X7.7507 Y-30.0466
G01 X7.7537 Y-30.0913
G01 X7.7690 Y-30.4031
G01 X7.7704 Y-30.4479
G01 X7.7707 Y-30.4800
G01 X7.7707 Y-31.7500
G01 X7.7697 Y-31.8075
G01 X7.7685 Y-31.8396
G01 X7.7544 Y-32.1260
G01 X7.7525 Y-32.1581
G01 X7.7507 Y-32.1834
G01 X7.7465 Y-32.2280
G01 X7.7413 Y-32.2725
G01 X7.7369 Y-32.3043
G01 X7.6928 Y-32.6005
G01 X7.6854 Y-32.6447
G01 X7.6769 Y-32.6887
G01 X7.6673 Y-32.7325
G01 X7.6598 Y-32.7637
G01 X7.5870 Y-33.0542
G01 X7.5753 Y-33.0974
G01 X7.5625 Y-33.1404
G01 X7.5487 Y-33.1830
G01 X7.5381 Y-33.2134
G01 X7.4415 Y-33.4834
G01 X7.4304 Y-33.5136
G01 X7.4140 Y-33.5553
G01 X7.4043 Y-33.5787
G01 X7.3864 Y-33.6197
G01 X7.3729 Y-33.6489
G01 X7.2503 Y-33.9082
G01 X7.2363 Y-33.9371
G01 X7.2159 Y-33.9770
G01 X7.1946 Y-34.0164
G01 X7.1659 Y-34.0662
G01 X7.0184 Y-34.3122
G01 X7.0016 Y-34.3396
G01 X6.9775 Y-34.3773
G01 X6.9634 Y-34.3984
G01 X6.9378 Y-34.4352
G01 X6.9189 Y-34.4612
G01 X6.7404 Y-34.7016
G01 X6.7131 Y-34.7371
G01 X6.6723 Y-34.7868
G01 X6.6344 Y-34.8300
G01 X6.4418 Y-35.0425
G01 X6.4025 Y-35.0845
G01 X6.3710 Y-35.1163
G01 X6.3387 Y-35.1474
G01 X6.3151 Y-35.1692
G01 X6.2168 Y-35.2583
G01 X17.7852 Y-35.2583
G01 X17.6754 Y-35.2187
G01 X17.6337 Y-35.2023
G01 X17.5924 Y-35.1849
G01 X17.5401 Y-35.1612
G01 X17.3710 Y-35.0812
G01 X17.3421 Y-35.0672
G01 X17.3022 Y-35.0469
G01 X17.2798 Y-35.0349
G01 X17.2407 Y-35.0130
G01 X17.2130 Y-34.9968
G01 X17.0526 Y-34.9006
G01 X17.0251 Y-34.8838
G01 X16.9874 Y-34.8597
G01 X16.9503 Y-34.8346
G01 X16.9296 Y-34.8200
G01 X16.9036 Y-34.8011
G01 X16.7534 Y-34.6897
G01 X16.7078 Y-34.6547
G01 X16.6581 Y-34.6139
G01 X16.6243 Y-34.5845
G01 X16.4763 Y-34.4504
G01 X16.4527 Y-34.4286
G01 X16.4114 Y-34.3886
G01 X10.0614 Y-28.0386
G01 X10.0214 Y-27.9973
G01 X9.9996 Y-27.9737
G01 X9.8740 Y-27.8351
G01 X9.8526 Y-27.8111
G01 X9.8235 Y-27.7770
G01 X9.8075 Y-27.7575
G01 X9.7797 Y-27.7223
G01 X9.7603 Y-27.6966
G01 X9.6414 Y-27.5362
G01 X9.6044 Y-27.4836
G01 X9.5797 Y-27.4463
G01 X9.5559 Y-27.4083
G01 X9.4532 Y-27.2370
G01 X9.4370 Y-27.2093
G01 X9.4151 Y-27.1702
G01 X9.4031 Y-27.1478
G01 X9.3828 Y-27.1079
G01 X9.3688 Y-27.0790
G01 X9.2888 Y-26.9099
G01 X9.2753 Y-26.8807
G01 X9.2574 Y-26.8397
G01 X9.2477 Y-26.8163
G01 X9.2246 Y-26.7563
G01 X9.1572 Y-26.5683
G01 X9.1467 Y-26.5379
G01 X9.1329 Y-26.4953
G01 X9.1201 Y-26.4524
G01 X9.1052 Y-26.3969
G01 X9.0568 Y-26.2031
G01 X9.0467 Y-26.1595
G01 X9.0377 Y-26.1156
G01 X9.0267 Y-26.0522
G01 X8.9974 Y-25.8547
G01 X8.9930 Y-25.8229
G01 X8.9877 Y-25.7784
G01 X8.9836 Y-25.7337
G01 X8.9805 Y-25.6890
G01 X8.9706 Y-25.4896
G01 X8.9694 Y-25.4575
G01 X8.9684 Y-25.4000
G01 X8.9684 Y-23.4917
G01 X4.0715 Y-23.4917
G00 Z5.0000
G00 X-1.6435 Y-23.4917
G01 F190.00
G01 Z-0.4000
G01 F375.00
G01 X1.9737 Y-23.4917
G01 X1.8912 Y-23.5216
G01 X1.8494 Y-23.5380
G01 X1.8081 Y-23.5553
G01 X1.7558 Y-23.5790
G01 X1.6431 Y-23.6324
G01 X1.6142 Y-23.6464
G01 X1.5915 Y-23.6578
G01 X1.5519 Y-23.6787
G01 X1.5128 Y-23.7006
G01 X1.4851 Y-23.7168
G01 X1.3781 Y-23.7809
G01 X1.3507 Y-23.7977
G01 X1.3293 Y-23.8113
G01 X1.2919 Y-23.8360
G01 X1.2552 Y-23.8616
G01 X1.2291 Y-23.8804
G01 X1.1290 Y-23.9547
G01 X1.0834 Y-23.9897
G01 X1.0486 Y-24.0180
G01 X1.0145 Y-24.0470
G01 X0.9905 Y-24.0684
G01 X0.8981 Y-24.1521
G01 X0.8745 Y-24.1739
G01 X0.8422 Y-24.2050
G01 X0.8243 Y-24.2229
G01 X0.7932 Y-24.2552
G01 X0.7714 Y-24.2788
G01 X0.6877 Y-24.3712
G01 X0.6663 Y-24.3952
G01 X0.6373 Y-24.4293
G01 X0.6090 Y-24.4641
G01 X0.5740 Y-24.5097
G01 X0.4923 Y-24.6201
G01 X0.4553 Y-24.6726
G01 X0.4306 Y-24.7100
G01 X0.4002 Y-24.7588
G01 X0.3297 Y-24.8767
G01 X0.2980 Y-24.9326
G01 X0.2771 Y-24.9722
G01 X0.2517 Y-25.0238
G01 X0.1930 Y-25.1480
G01 X0.1746 Y-25.1888
G01 X0.1651 Y-25.2112
G01 X0.1556 Y-25.1888
G01 X0.1372 Y-25.1480
G01 X0.0785 Y-25.0238
G01 X0.0531 Y-24.9722
G01 X0.0322 Y-24.9326
G01 X0.0005 Y-24.8767
G01 X-0.0700 Y-24.7588
G01 X-0.1004 Y-24.7100
G01 X-0.1251 Y-24.6726
G01 X-0.1621 Y-24.6201
G01 X-0.2438 Y-24.5097
G01 X-0.2788 Y-24.4641
G01 X-0.3071 Y-24.4293
G01 X-0.3361 Y-24.3952
G01 X-0.3575 Y-24.3712
G01 X-0.4412 Y-24.2788
G01 X-0.4630 Y-24.2552
G01 X-0.4941 Y-24.2229
G01 X-0.5120 Y-24.2050
G01 X-0.5443 Y-24.1739
G01 X-0.5679 Y-24.1521
G01 X-0.6603 Y-24.0684
G01 X-0.6843 Y-24.0470
G01 X-0.7184 Y-24.0180
G01 X-0.7532 Y-23.9897
G01 X-0.7988 Y-23.9547
G01 X-0.8989 Y-23.8804
G01 X-0.9250 Y-23.8616
G01 X-0.9617 Y-23.8360
G01 X-0.9828 Y-23.8219
G01 X-1.0205 Y-23.7977
G01 X-1.0479 Y-23.7809
G01 X-1.1549 Y-23.7168
G01 X-1.1826 Y-23.7006
G01 X-1.2217 Y-23.6787
G01 X-1.2440 Y-23.6667
G01 X-1.2840 Y-23.6464
G01 X-1.3129 Y-23.6324
G01 X-1.4256 Y-23.5790
G01 X-1.4779 Y-23.5553
G01 X-1.5192 Y-23.5380
G01 X-1.5610 Y-23.5216
G01 X-1.6435 Y-23.4917
G00 Z5.0000
G00 X-21.4963 Y0.0003
G01 F190.00
G01 Z-0.4000
G01 F375.00
G01 X-21.4218 Y0.0632
G01 X-21.3424 Y0.1318
G01 X-21.2566 Y0.2080
G01 X-21.1752 Y0.2822
G01 X-21.0966 Y0.3557
G01 X-21.0234 Y0.4259
G01 X-20.9468 Y0.5015
G01 X-20.8755 Y0.5736
G01 X-20.8008 Y0.6511
G01 X-20.7314 Y0.7250
G01 X-20.6588 Y0.8045
G01 X-20.5913 Y0.8802
G01 X-20.5208 Y0.9615
G01 X-20.4554 Y1.0390
G01 X-20.3870 Y1.1221
G01 X-20.3199 Y1.2058
G01 X-20.2553 Y1.1252
G01 X-20.1852 Y1.0401
G01 X-20.1115 Y0.9532
G01 X-20.0390 Y0.8701
G01 X-19.9599 Y0.7818
G01 X-19.8811 Y0.6961
G01 X-19.8048 Y0.6155
G01 X-19.7259 Y0.5344
G01 X-19.6498 Y0.4583
G01 X-19.5711 Y0.3817
G01 X-19.4930 Y0.3077
G01 X-19.4419 Y0.2604
G01 X-19.3972 Y0.2196
G01 X-19.3128 Y0.1443
G01 X-19.2315 Y0.0738
G01 X-19.1475 Y0.0029
G01 X-19.0664 Y-0.0636
G01 X-19.1467 Y-0.1297
G01 X-19.2265 Y-0.1971
G01 X-19.3146 Y-0.2737
G01 X-19.3966 Y-0.3469
G01 X-19.4772 Y-0.4206
G01 X-19.5557 Y-0.4943
G01 X-19.6287 Y-0.5647
G01 X-19.7052 Y-0.6404
G01 X-19.7763 Y-0.7126
G01 X-19.8508 Y-0.7903
G01 X-19.9201 Y-0.8644
G01 X-19.9947 Y-0.9465
G01 X-20.0620 Y-1.0224
G01 X-20.1323 Y-1.1038
G01 X-20.1975 Y-1.1815
G01 X-20.2700 Y-1.2700
G01 X-20.3443 Y-1.1755
G01 X-20.4093 Y-1.0952
G01 X-20.4798 Y-1.0105
G01 X-20.5469 Y-0.9320
G01 X-20.6208 Y-0.8478
G01 X-20.6967 Y-0.7635
G01 X-20.7692 Y-0.6851
G01 X-20.8492 Y-0.6010
G01 X-20.9200 Y-0.5284
G01 X-20.9627 Y-0.4855
G01 X-21.0122 Y-0.4366
G01 X-21.0957 Y-0.3561
G01 X-21.1659 Y-0.2901
G01 X-21.2490 Y-0.2140
G01 X-21.3272 Y-0.1443
G01 X-21.4150 Y-0.0683
G01 X-21.4963 Y0.0003
G01 X-23.3340 Y-0.0002
G01 X-23.2734 Y0.0326
G01 X-23.2192 Y0.0626
G01 X-23.1540 Y0.0995
G01 X-23.0881 Y0.1379
G01 X-23.0272 Y0.1741
G01 X-22.9683 Y0.2100
G01 X-22.9178 Y0.2414
G01 X-22.8545 Y0.2815
G01 X-22.7981 Y0.3181
G01 X-22.7436 Y0.3542
G01 X-22.6917 Y0.3894
G01 X-22.6287 Y0.4328
G01 X-22.5698 Y0.4744
G01 X-22.5161 Y0.5131
G01 X-22.4524 Y0.5601
G01 X-22.3995 Y0.5999
G01 X-22.3522 Y0.6361
G01 X-22.2936 Y0.6820
G01 X-22.2364 Y0.7278
G01 X-22.1836 Y0.7709
G01 X-22.1327 Y0.8133
G01 X-22.0873 Y0.8518
G01 X-22.0345 Y0.8973
G01 X-21.9776 Y0.9475
G01 X-21.9300 Y0.9902
G01 X-21.8746 Y1.0408
G01 X-21.8328 Y1.0798
G01 X-21.7766 Y1.1330
G01 X-21.7304 Y1.1778
G01 X-21.6753 Y1.2322
G01 X-21.6200 Y1.2881
G01 X-21.5784 Y1.3310
G01 X-21.5268 Y1.3852
G01 X-21.4828 Y1.4323
G01 X-21.4307 Y1.4894
G01 X-21.3925 Y1.5319
G01 X-21.3438 Y1.5872
G01 X-21.2993 Y1.6388
G01 X-21.2518 Y1.6951
G01 X-21.2153 Y1.7391
G01 X-21.1681 Y1.7972
G01 X-21.1259 Y1.8502
G01 X-21.0844 Y1.9033
G01 X-21.0447 Y1.9552
G01 X-21.0038 Y2.0097
G01 X-20.9584 Y2.0715
G01 X-20.9208 Y2.1236
G01 X-20.8793 Y2.1826
G01 X-20.8389 Y2.2411
G01 X-20.8066 Y2.2890
G01 X-20.7667 Y2.3491
G01 X-20.7281 Y2.4088
G01 X-20.6907 Y2.4678
G01 X-20.6556 Y2.5243
G01 X-20.6159 Y2.5900
G01 X-20.5864 Y2.6396
G01 X-20.5496 Y2.7031
G01 X-20.5044 Y2.7829
G01 X-20.4767 Y2.8327
G01 X-20.4454 Y2.8903
G01 X-20.4108 Y2.9556
G01 X-20.3796 Y3.0160
G01 X-20.3539 Y3.0668
G01 X-20.3199 Y3.1355
G01 X-20.2927 Y3.0800
G01 X-20.2564 Y3.0078
G01 X-20.2260 Y2.9489
G01 X-20.1901 Y2.8812
G01 X-20.1528 Y2.8126
G01 X-20.1241 Y2.7610
G01 X-20.0862 Y2.6943
G01 X-20.0519 Y2.6356
G01 X-20.0126 Y2.5698
G01 X-19.9818 Y2.5193
G01 X-19.9397 Y2.4518
G01 X-19.9018 Y2.3925
G01 X-19.8613 Y2.3305
G01 X-19.8205 Y2.2694
G01 X-19.7769 Y2.2056
G01 X-19.7421 Y2.1558
G01 X-19.7018 Y2.0992
G01 X-19.6620 Y2.0445
G01 X-19.6138 Y1.9798
G01 X-19.5715 Y1.9240
G01 X-19.5342 Y1.8760
G01 X-19.4841 Y1.8128
G01 X-19.4401 Y1.7583
G01 X-19.3948 Y1.7035
G01 X-19.3450 Y1.6445
G01 X-19.2954 Y1.5871
G01 X-19.2568 Y1.5433
G01 X-19.2034 Y1.4836
G01 X-19.1539 Y1.4295
G01 X-19.1132 Y1.3858
G01 X-19.0600 Y1.3296
G01 X-19.0052 Y1.2731
G01 X-18.9537 Y1.2212
G01 X-18.9031 Y1.1712
G01 X-18.8590 Y1.1285
G01 X-18.8030 Y1.0752
G01 X-18.7540 Y1.0296
G01 X-18.6968 Y0.9775
G01 X-18.6542 Y0.9393
G01 X-18.5950 Y0.8874
G01 X-18.5363 Y0.8371
G01 X-18.4869 Y0.7956
G01 X-18.4252 Y0.7449
G01 X-18.3775 Y0.7064
G01 X-18.3191 Y0.6603
G01 X-18.2693 Y0.6217
G01 X-18.2052 Y0.5731
G01 X-18.1461 Y0.5293
G01 X-18.0867 Y0.4862
G01 X-18.0396 Y0.4528
G01 X-17.9804 Y0.4115
G01 X-17.9166 Y0.3680
G01 X-17.8509 Y0.3243
G01 X-17.7970 Y0.2893
G01 X-17.7361 Y0.2505
G01 X-17.6758 Y0.2130
G01 X-17.6245 Y0.1818
G01 X-17.5567 Y0.1413
G01 X-17.4978 Y0.1071
G01 X-17.4335 Y0.0705
G01 X-17.3743 Y0.0375
G01 X-17.3147 Y0.0049
G01 X-17.2431 Y-0.0332
G01 X-17.1848 Y-0.0634
G01 X-17.2441 Y-0.0940
G01 X-17.3118 Y-0.1299
G01 X-17.3617 Y-0.1569
G01 X-17.4299 Y-0.1947
G01 X-17.4965 Y-0.2326
G01 X-17.5516 Y-0.2647
G01 X-17.6196 Y-0.3052
G01 X-17.6716 Y-0.3369
G01 X-17.7341 Y-0.3758
G01 X-17.7883 Y-0.4103
G01 X-17.8572 Y-0.4552
G01 X-17.9183 Y-0.4960
G01 X-17.9685 Y-0.5301
G01 X-18.0260 Y-0.5701
G01 X-18.0808 Y-0.6089
G01 X-18.1414 Y-0.6528
G01 X-18.2004 Y-0.6966
G01 X-18.2457 Y-0.7308
G01 X-18.3025 Y-0.7745
G01 X-18.3571 Y-0.8174
G01 X-18.4155 Y-0.8643
G01 X-18.4723 Y-0.9109
G01 X-18.5189 Y-0.9499
G01 X-18.5721 Y-0.9953
G01 X-18.6330 Y-1.0484
G01 X-18.6829 Y-1.0928
G01 X-18.7367 Y-1.1415
G01 X-18.7900 Y-1.1907
G01 X-18.8445 Y-1.2420
G01 X-18.8958 Y-1.2913
G01 X-18.9384 Y-1.3331
G01 X-18.9931 Y-1.3878
G01 X-19.0382 Y-1.4338
G01 X-19.0918 Y-1.4896
G01 X-19.1310 Y-1.5312
G01 X-19.1845 Y-1.5890
G01 X-19.2363 Y-1.6464
G01 X-19.2790 Y-1.6946
G01 X-19.3297 Y-1.7530
G01 X-19.3684 Y-1.7985
G01 X-19.4140 Y-1.8531
G01 X-19.4587 Y-1.9078
G01 X-19.5036 Y-1.9639
G01 X-19.5451 Y-2.0168
G01 X-19.5861 Y-2.0701
G01 X-19.6312 Y-2.1300
G01 X-19.6727 Y-2.1862
G01 X-19.7117 Y-2.2401
G01 X-19.7559 Y-2.3028
G01 X-19.7888 Y-2.3502
G01 X-19.8262 Y-2.4052
G01 X-19.8687 Y-2.4691
G01 X-19.9037 Y-2.5230
G01 X-19.9425 Y-2.5839
G01 X-19.9800 Y-2.6442
G01 X-20.0112 Y-2.6955
G01 X-20.0470 Y-2.7555
G01 X-20.0840 Y-2.8189
G01 X-20.1202 Y-2.8825
G01 X-20.1593 Y-2.9525
G01 X-20.1954 Y-3.0190
G01 X-20.2272 Y-3.0789
G01 X-20.2616 Y-3.1454
G01 X-20.2892 Y-3.2000
G01 X-20.3196 Y-3.1364
G01 X-20.3451 Y-3.0845
G01 X-20.3787 Y-3.0175
G01 X-20.4148 Y-2.9475
G01 X-20.4487 Y-2.8834
G01 X-20.4827 Y-2.8207
G01 X-20.5096 Y-2.7722
G01 X-20.5502 Y-2.7007
G01 X-20.5861 Y-2.6390
G01 X-20.6211 Y-2.5802
G01 X-20.6570 Y-2.5213
G01 X-20.6897 Y-2.4687
G01 X-20.7285 Y-2.4075
G01 X-20.7669 Y-2.3485
G01 X-20.8074 Y-2.2875
G01 X-20.8517 Y-2.2222
G01 X-20.8834 Y-2.1766
G01 X-20.9305 Y-2.1101
G01 X-20.9717 Y-2.0533
G01 X-21.0122 Y-1.9985
G01 X-21.0578 Y-1.9381
G01 X-21.1019 Y-1.8811
G01 X-21.1387 Y-1.8344
G01 X-21.1846 Y-1.7772
G01 X-21.2303 Y-1.7215
G01 X-21.2729 Y-1.6707
G01 X-21.3212 Y-1.6141
G01 X-21.3694 Y-1.5589
G01 X-21.4195 Y-1.5026
G01 X-21.4644 Y-1.4532
G01 X-21.5136 Y-1.3999
G01 X-21.5620 Y-1.3485
G01 X-21.6113 Y-1.2972
G01 X-21.6531 Y-1.2546
G01 X-21.7078 Y-1.1999
G01 X-21.7640 Y-1.1448
G01 X-21.8169 Y-1.0942
G01 X-21.8688 Y-1.0456
G01 X-21.9108 Y-1.0068
G01 X-21.9664 Y-0.9567
G01 X-22.0196 Y-0.9095
G01 X-22.0749 Y-0.8616
G01 X-22.1217 Y-0.8219
G01 X-22.1731 Y-0.7790
G01 X-22.2278 Y-0.7343
G01 X-22.2839 Y-0.6894
G01 X-22.3368 Y-0.6479
G01 X-22.3901 Y-0.6069
G01 X-22.4500 Y-0.5618
G01 X-22.5062 Y-0.5203
G01 X-22.5657 Y-0.4774
G01 X-22.6228 Y-0.4371
G01 X-22.6721 Y-0.4029
G01 X-22.7309 Y-0.3630
G01 X-22.7910 Y-0.3231
G01 X-22.8449 Y-0.2880
G01 X-22.9096 Y-0.2469
G01 X-22.9662 Y-0.2118
G01 X-23.0155 Y-0.1818
G01 X-23.0814 Y-0.1425
G01 X-23.1422 Y-0.1071
G01 X-23.2054 Y-0.0712
G01 X-23.2704 Y-0.0348
G01 X-23.3340 Y-0.0002
G00 Z5.0000
G00 X-20.7336 Y22.5162
G01 F190.00
G01 Z-0.4000
G01 F375.00
G01 X-20.6450 Y22.4982
G01 X-20.5636 Y22.4828
G01 X-20.4716 Y22.4669
G01 X-20.3765 Y22.4519
G01 X-20.2395 Y22.4318
G01 X-20.1464 Y22.4194
G01 X-20.0883 Y22.4123
G01 X-20.0359 Y22.4065
G01 X-19.9262 Y22.3958
G01 X-19.9347 Y22.3400
G01 X-19.9430 Y22.2818
G01 X-19.9510 Y22.2217
G01 X-19.9584 Y22.1619
G01 X-19.9695 Y22.0596
G01 X-19.9746 Y22.0057
G01 X-19.9800 Y21.9437
G01 X-19.9876 Y21.8370
G01 X-19.9910 Y21.7764
G01 X-19.9940 Y21.7118
G01 X-19.9961 Y21.6564
G01 X-19.9977 Y21.5991
G01 X-19.9992 Y21.4828
G01 X-19.9992 Y6.2230
G01 X-19.9988 Y6.1572
G01 X-19.9978 Y6.0978
G01 X-19.9964 Y6.0425
G01 X-19.9948 Y5.9940
G01 X-19.9921 Y5.9330
G01 X-19.9887 Y5.8707
G01 X-19.9850 Y5.8132
G01 X-19.9770 Y5.7096
G01 X-19.9712 Y5.6470
G01 X-19.9658 Y5.5928
G01 X-19.9588 Y5.5299
G01 X-19.9519 Y5.4718
G01 X-19.9371 Y5.3616
G01 X-19.9285 Y5.3037
G01 X-19.9197 Y5.2480
G01 X-19.9019 Y5.1442
G01 X-19.8903 Y5.0824
G01 X-19.8800 Y5.0298
G01 X-19.8573 Y4.9225
G01 X-19.8444 Y4.8654
G01 X-19.8311 Y4.8090
G01 X-19.8168 Y4.7514
G01 X-19.8033 Y4.6983
G01 X-19.7749 Y4.5939
G01 X-19.7449 Y4.4906
G01 X-19.7281 Y4.4357
G01 X-19.7110 Y4.3814
G01 X-19.6896 Y4.3163
G01 X-19.6693 Y4.2564
G01 X-19.6525 Y4.2086
G01 X-19.6308 Y4.1486
G01 X-19.6087 Y4.0893
G01 X-19.5881 Y4.0357
G01 X-19.5623 Y3.9711
G01 X-19.5381 Y3.9121
G01 X-19.5099 Y3.8456
G01 X-19.4827 Y3.7829
G01 X-19.4552 Y3.7216
G01 X-19.4351 Y3.6777
G01 X-19.4067 Y3.6174
G01 X-19.3811 Y3.5644
G01 X-19.3484 Y3.4988
G01 X-19.3209 Y3.4449
G01 X-19.2961 Y3.3977
G01 X-19.2614 Y3.3331
G01 X-19.2314 Y3.2787
G01 X-19.2002 Y3.2236
G01 X-19.1656 Y3.1641
G01 X-19.1315 Y3.1068
G01 X-19.1046 Y3.0627
G01 X-19.0718 Y3.0099
G01 X-19.0421 Y2.9633
G01 X-19.0065 Y2.9086
G01 X-18.9675 Y2.8501
G01 X-18.9396 Y2.8091
G01 X-18.9056 Y2.7601
G01 X-18.8649 Y2.7028
G01 X-18.8317 Y2.6572
G01 X-18.7964 Y2.6097
G01 X-18.7656 Y2.5689
G01 X-18.7262 Y2.5179
G01 X-18.6866 Y2.4677
G01 X-18.6512 Y2.4237
G01 X-18.6055 Y2.3682
G01 X-18.5681 Y2.3238
G01 X-18.5359 Y2.2862
G01 X-18.4927 Y2.2369
G01 X-18.4423 Y2.1804
G01 X-18.3982 Y2.1321
G01 X-18.3627 Y2.0939
G01 X-18.3188 Y2.0475
G01 X-18.2775 Y2.0048
G01 X-18.2302 Y1.9570
G01 X-18.1820 Y1.9093
G01 X-18.1434 Y1.8719
G01 X-18.0983 Y1.8290
G01 X-18.0549 Y1.7885
G01 X-18.0001 Y1.7387
G01 X-17.9545 Y1.6981
G01 X-17.9153 Y1.6638
G01 X-17.8629 Y1.6190
G01 X-17.8212 Y1.5841
G01 X-17.7692 Y1.5414
G01 X-17.7164 Y1.4990
G01 X-17.6694 Y1.4622
G01 X-17.6248 Y1.4279
G01 X-17.5716 Y1.3878
G01 X-17.5240 Y1.3527
G01 X-17.4731 Y1.3160
G01 X-17.4197 Y1.2783
G01 X-17.3680 Y1.2427
G01 X-17.3290 Y1.2164
G01 X-17.2695 Y1.1770
G01 X-17.2167 Y1.1430
G01 X-17.1602 Y1.1074
G01 X-17.1041 Y1.0729
G01 X-17.0455 Y1.0378
G01 X-16.9979 Y1.0100
G01 X-16.9402 Y0.9770
G01 X-16.8890 Y0.9482
G01 X-16.8364 Y0.9194
G01 X-16.7741 Y0.8861
G01 X-16.7286 Y0.8623
G01 X-16.6766 Y0.8358
G01 X-16.6119 Y0.8037
G01 X-16.5608 Y0.7790
G01 X-16.4968 Y0.7490
G01 X-16.4423 Y0.7241
G01 X-16.3968 Y0.7039
G01 X-16.3379 Y0.6783
G01 X-16.2768 Y0.6525
G01 X-16.2203 Y0.6295
G01 X-16.1646 Y0.6074
G01 X-16.0986 Y0.5821
G01 X-16.0519 Y0.5647
G01 X-15.9873 Y0.5413
G01 X-15.9316 Y0.5219
G01 X-15.8723 Y0.5018
G01 X-15.8118 Y0.4821
G01 X-15.7491 Y0.4623
G01 X-15.7019 Y0.4480
G01 X-15.6408 Y0.4301
G01 X-15.5776 Y0.4122
G01 X-15.5177 Y0.3960
G01 X-15.4617 Y0.3815
G01 X-15.4170 Y0.3703
G01 X-15.3473 Y0.3536
G01 X-15.2910 Y0.3408
G01 X-15.2303 Y0.3276
G01 X-15.1675 Y0.3146
G01 X-15.1051 Y0.3024
G01 X-15.0452 Y0.2911
G01 X-14.9842 Y0.2803
G01 X-14.9263 Y0.2706
G01 X-14.8648 Y0.2610
G01 X-14.8008 Y0.2516
G01 X-14.7391 Y0.2433
G01 X-14.6689 Y0.2346
G01 X-14.6225 Y0.2294
G01 X-14.5666 Y0.2235
G01 X-14.5007 Y0.2173
G01 X-14.4477 Y0.2128
G01 X-14.3906 Y0.2085
G01 X-14.2834 Y0.2020
G01 X-14.2233 Y0.1991
G01 X-14.1717 Y0.1972
G01 X-14.0829 Y0.1949
G01 X-13.9965 Y0.1939
G01 X-13.5769 Y0.1938
G01 X-13.5769 Y-0.3208
G01 X-14.0185 Y-0.3210
G01 X-14.1142 Y-0.3226
G01 X-14.1782 Y-0.3245
G01 X-14.2272 Y-0.3264
G01 X-14.3033 Y-0.3302
G01 X-14.3534 Y-0.3332
G01 X-14.4161 Y-0.3376
G01 X-14.4816 Y-0.3429
G01 X-14.5460 Y-0.3488
G01 X-14.6071 Y-0.3550
G01 X-14.6719 Y-0.3622
G01 X-14.7420 Y-0.3707
G01 X-14.8043 Y-0.3790
G01 X-14.8734 Y-0.3890
G01 X-14.9450 Y-0.4003
G01 X-15.0091 Y-0.4111
G01 X-15.0836 Y-0.4246
G01 X-15.1490 Y-0.4372
G01 X-15.1996 Y-0.4475
G01 X-15.2705 Y-0.4627
G01 X-15.3323 Y-0.4767
G01 X-15.4028 Y-0.4935
G01 X-15.4635 Y-0.5087
G01 X-15.5292 Y-0.5259
G01 X-15.5991 Y-0.5451
G01 X-15.6706 Y-0.5656
G01 X-15.7377 Y-0.5858
G01 X-15.7981 Y-0.6047
G01 X-15.8647 Y-0.6264
G01 X-15.9127 Y-0.6425
G01 X-15.9799 Y-0.6659
G01 X-16.0488 Y-0.6908
G01 X-16.1096 Y-0.7135
G01 X-16.1749 Y-0.7389
G01 X-16.2439 Y-0.7666
G01 X-16.3086 Y-0.7935
G01 X-16.3747 Y-0.8219
G01 X-16.4467 Y-0.8536
G01 X-16.5078 Y-0.8814
G01 X-16.5741 Y-0.9126
G01 X-16.6406 Y-0.9448
G01 X-16.6987 Y-0.9738
G01 X-16.7599 Y-1.0053
G01 X-16.8203 Y-1.0372
G01 X-16.8837 Y-1.0717
G01 X-16.9288 Y-1.0968
G01 X-16.9882 Y-1.1306
G01 X-17.0519 Y-1.1680
G01 X-17.1147 Y-1.2058
G01 X-17.1711 Y-1.2407
G01 X-17.2277 Y-1.2766
G01 X-17.2898 Y-1.3170
G01 X-17.3482 Y-1.3561
G01 X-17.4027 Y-1.3934
G01 X-17.4642 Y-1.4366
G01 X-17.5057 Y-1.4664
G01 X-17.5577 Y-1.5045
G01 X-17.6140 Y-1.5467
G01 X-17.6688 Y-1.5889
G01 X-17.7266 Y-1.6344
G01 X-17.7705 Y-1.6698
G01 X-17.8199 Y-1.7104
G01 X-17.8692 Y-1.7519
G01 X-17.9044 Y-1.7820
G01 X-17.9525 Y-1.8241
G01 X-17.9965 Y-1.8632
G01 X-18.0419 Y-1.9044
G01 X-18.0893 Y-1.9481
G01 X-18.1333 Y-1.9896
G01 X-18.1773 Y-2.0320
G01 X-18.2585 Y-2.1124
G01 X-18.2978 Y-2.1524
G01 X-18.3432 Y-2.1997
G01 X-18.3767 Y-2.2352
G01 X-18.4181 Y-2.2800
G01 X-18.4577 Y-2.3236
G01 X-18.4982 Y-2.3692
G01 X-18.5303 Y-2.4060
G01 X-18.5740 Y-2.4571
G01 X-18.6089 Y-2.4988
G01 X-18.6516 Y-2.5508
G01 X-18.6811 Y-2.5874
G01 X-18.7246 Y-2.6426
G01 X-18.7615 Y-2.6904
G01 X-18.7970 Y-2.7374
G01 X-18.8367 Y-2.7911
G01 X-18.8700 Y-2.8370
G01 X-18.8972 Y-2.8754
G01 X-18.9354 Y-2.9303
G01 X-18.9673 Y-2.9771
G01 X-19.0002 Y-3.0264
G01 X-19.0344 Y-3.0790
G01 X-19.0671 Y-3.1302
G01 X-19.1018 Y-3.1861
G01 X-19.1263 Y-3.2263
G01 X-19.1575 Y-3.2784
G01 X-19.1891 Y-3.3326
G01 X-19.2215 Y-3.3896
G01 X-19.2531 Y-3.4461
G01 X-19.2805 Y-3.4962
G01 X-19.3101 Y-3.5518
G01 X-19.3583 Y-3.6457
G01 X-19.3835 Y-3.6963
G01 X-19.4098 Y-3.7505
G01 X-19.4402 Y-3.8148
G01 X-19.4611 Y-3.8603
G01 X-19.4857 Y-3.9154
G01 X-19.5141 Y-3.9805
G01 X-19.5363 Y-4.0331
G01 X-19.5590 Y-4.0884
G01 X-19.5782 Y-4.1364
G01 X-19.6026 Y-4.1994
G01 X-19.6240 Y-4.2563
G01 X-19.6419 Y-4.3052
G01 X-19.6580 Y-4.3506
G01 X-19.6819 Y-4.4197
G01 X-19.7014 Y-4.4785
G01 X-19.7192 Y-4.5339
G01 X-19.7509 Y-4.6377
G01 X-19.7690 Y-4.6999
G01 X-19.7847 Y-4.7564
G01 X-19.8094 Y-4.8496
G01 X-19.8315 Y-4.9388
G01 X-19.8554 Y-5.0430
G01 X-19.8774 Y-5.1470
G01 X-19.8954 Y-5.2393
G01 X-19.9145 Y-5.3462
G01 X-19.9307 Y-5.4462
G01 X-19.9449 Y-5.5446
G01 X-19.9584 Y-5.6511
G01 X-19.9677 Y-5.7354
G01 X-19.9769 Y-5.8328
G01 X-19.9852 Y-5.9399
G01 X-19.9910 Y-6.0366
G01 X-19.9955 Y-6.1393
G01 X-19.9978 Y-6.2230
G01 X-19.9992 Y-6.3302
G01 X-19.9990 Y-21.6341
G01 X-19.9978 Y-21.7152
G01 X-19.9960 Y-21.7844
G01 X-19.9931 Y-21.8593
G01 X-19.9887 Y-21.9423
G01 X-19.9837 Y-22.0188
G01 X-19.9774 Y-22.0982
G01 X-19.9702 Y-22.1763
G01 X-19.9622 Y-22.2535
G01 X-19.9527 Y-22.3348
G01 X-19.9427 Y-22.4115
G01 X-19.9317 Y-22.4886
G01 X-19.9197 Y-22.5650
G01 X-19.9070 Y-22.6402
G01 X-19.8930 Y-22.7163
G01 X-19.8790 Y-22.7880
G01 X-19.8624 Y-22.8673
G01 X-20.8076 Y-22.8701
G01 X-20.7881 Y-22.7855
G01 X-20.7706 Y-22.7047
G01 X-20.7554 Y-22.6293
G01 X-20.7368 Y-22.5310
G01 X-20.7205 Y-22.4371
G01 X-20.7091 Y-22.3653
G01 X-20.6972 Y-22.2833
G01 X-20.6861 Y-22.1993
G01 X-20.6764 Y-22.1155
G01 X-20.6669 Y-22.0222
G01 X-20.6598 Y-21.9407
G01 X-20.6536 Y-21.8551
G01 X-20.6489 Y-21.7749
G01 X-20.6447 Y-21.6797
G01 X-20.6425 Y-21.6065
G01 X-20.6411 Y-21.5200
G01 X-20.6408 Y-21.4638
G01 X-20.6409 Y-6.1962
G01 X-20.6425 Y-6.0840
G01 X-20.6440 Y-6.0286
G01 X-20.6462 Y-5.9710
G01 X-20.6514 Y-5.8690
G01 X-20.6553 Y-5.8080
G01 X-20.6590 Y-5.7579
G01 X-20.6644 Y-5.6941
G01 X-20.6698 Y-5.6367
G01 X-20.6750 Y-5.5859
G01 X-20.6822 Y-5.5211
G01 X-20.6889 Y-5.4654
G01 X-20.6973 Y-5.4015
G01 X-20.7064 Y-5.3371
G01 X-20.7139 Y-5.2877
G01 X-20.7234 Y-5.2289
G01 X-20.7322 Y-5.1775
G01 X-20.7524 Y-5.0682
G01 X-20.7639 Y-5.0108
G01 X-20.7758 Y-4.9540
G01 X-20.7884 Y-4.8969
G01 X-20.7996 Y-4.8482
G01 X-20.8135 Y-4.7902
G01 X-20.8271 Y-4.7357
G01 X-20.8402 Y-4.6852
G01 X-20.8559 Y-4.6271
G01 X-20.8715 Y-4.5711
G01 X-20.8910 Y-4.5042
G01 X-20.9072 Y-4.4508
G01 X-20.9252 Y-4.3934
G01 X-20.9464 Y-4.3283
G01 X-20.9620 Y-4.2818
G01 X-20.9827 Y-4.2220
G01 X-21.0048 Y-4.1605
G01 X-21.0263 Y-4.1027
G01 X-21.0474 Y-4.0475
G01 X-21.0729 Y-3.9828
G01 X-21.0914 Y-3.9374
G01 X-21.1141 Y-3.8829
G01 X-21.1419 Y-3.8183
G01 X-21.1683 Y-3.7581
G01 X-21.1961 Y-3.6968
G01 X-21.2229 Y-3.6392
G01 X-21.2492 Y-3.5843
G01 X-21.2809 Y-3.5200
G01 X-21.3044 Y-3.4735
G01 X-21.3316 Y-3.4210
G01 X-21.3653 Y-3.3577
G01 X-21.3928 Y-3.3072
G01 X-21.4246 Y-3.2503
G01 X-21.4481 Y-3.2092
G01 X-21.4812 Y-3.1525
G01 X-21.5147 Y-3.0966
G01 X-21.5456 Y-3.0462
G01 X-21.5838 Y-2.9855
G01 X-21.6171 Y-2.9337
G01 X-21.6511 Y-2.8820
G01 X-21.6836 Y-2.8338
G01 X-21.7185 Y-2.7831
G01 X-21.7536 Y-2.7331
G01 X-21.7913 Y-2.6806
G01 X-21.8303 Y-2.6276
G01 X-21.8692 Y-2.5759
G01 X-21.8987 Y-2.5374
G01 X-21.9373 Y-2.4880
G01 X-21.9777 Y-2.4375
G01 X-22.0164 Y-2.3902
G01 X-22.0538 Y-2.3453
G01 X-22.0985 Y-2.2928
G01 X-22.1314 Y-2.2550
G01 X-22.1712 Y-2.2101
G01 X-22.2168 Y-2.1594
G01 X-22.2647 Y-2.1074
G01 X-22.3073 Y-2.0621
G01 X-22.3578 Y-2.0097
G01 X-22.4051 Y-1.9618
G01 X-22.4420 Y-1.9250
G01 X-22.4869 Y-1.8812
G01 X-22.5295 Y-1.8405
G01 X-22.5753 Y-1.7977
G01 X-22.6299 Y-1.7477
G01 X-22.6687 Y-1.7129
G01 X-22.7158 Y-1.6715
G01 X-22.7720 Y-1.6233
G01 X-22.8175 Y-1.5852
G01 X-22.8655 Y-1.5457
G01 X-22.9074 Y-1.5119
G01 X-22.9626 Y-1.4684
G01 X-23.0104 Y-1.4315
G01 X-23.0562 Y-1.3969
G01 X-23.1111 Y-1.3563
G01 X-23.1570 Y-1.3230
G01 X-23.2153 Y-1.2818
G01 X-23.2553 Y-1.2541
G01 X-23.3009 Y-1.2232
G01 X-23.3578 Y-1.1853
G01 X-23.4028 Y-1.1561
G01 X-23.4592 Y-1.1203
G01 X-23.5164 Y-1.0848
G01 X-23.5684 Y-1.0534
G01 X-23.6102 Y-1.0286
G01 X-23.6632 Y-0.9979
G01 X-23.7134 Y-0.9693
G01 X-23.7760 Y-0.9344
G01 X-23.8290 Y-0.9057
G01 X-23.8847 Y-0.8762
G01 X-23.9440 Y-0.8456
G01 X-24.0018 Y-0.8166
G01 X-24.0647 Y-0.7860
G01 X-24.1099 Y-0.7645
G01 X-24.1656 Y-0.7386
G01 X-24.2176 Y-0.7151
G01 X-24.2827 Y-0.6866
G01 X-24.3382 Y-0.6630
G01 X-24.3830 Y-0.6444
G01 X-24.4444 Y-0.6196
G01 X-24.5111 Y-0.5935
G01 X-24.5607 Y-0.5748
G01 X-24.6220 Y-0.5522
G01 X-24.6706 Y-0.5350
G01 X-24.7334 Y-0.5132
G01 X-24.7985 Y-0.4916
G01 X-24.8586 Y-0.4723
G01 X-24.9179 Y-0.4540
G01 X-24.9880 Y-0.4332
G01 X-25.0391 Y-0.4186
G01 X-25.0973 Y-0.4026
G01 X-25.1680 Y-0.3840
G01 X-25.2249 Y-0.3698
G01 X-25.2847 Y-0.3554
G01 X-25.3349 Y-0.3438
G01 X-25.3954 Y-0.3305
G01 X-25.4524 Y-0.3186
G01 X-25.5140 Y-0.3063
G01 X-25.5774 Y-0.2943
G01 X-25.6409 Y-0.2829
G01 X-25.7078 Y-0.2716
G01 X-25.7662 Y-0.2623
G01 X-25.8333 Y-0.2525
G01 X-25.8810 Y-0.2459
G01 X-25.9412 Y-0.2382
G01 X-26.0070 Y-0.2305
G01 X-26.0674 Y-0.2241
G01 X-26.1213 Y-0.2189
G01 X-26.2238 Y-0.2104
G01 X-26.2839 Y-0.2062
G01 X-26.3445 Y-0.2026
G01 X-26.4032 Y-0.1997
G01 X-26.4616 Y-0.1974
G01 X-26.5430 Y-0.1952
G01 X-26.6435 Y-0.1939
G01 X-27.0631 Y-0.1938
G01 X-27.0631 Y0.1938
G01 X-26.6285 Y0.1940
G01 X-26.5396 Y0.1953
G01 X-26.4479 Y0.1980
G01 X-26.3834 Y0.2007
G01 X-26.3229 Y0.2040
G01 X-26.2602 Y0.2080
G01 X-26.2118 Y0.2115
G01 X-26.1566 Y0.2160
G01 X-26.0915 Y0.2220
G01 X-26.0355 Y0.2277
G01 X-25.9705 Y0.2349
G01 X-25.9124 Y0.2419
G01 X-25.8485 Y0.2503
G01 X-25.7841 Y0.2594
G01 X-25.7332 Y0.2672
G01 X-25.6695 Y0.2775
G01 X-25.6039 Y0.2888
G01 X-25.5421 Y0.3003
G01 X-25.4736 Y0.3137
G01 X-25.4026 Y0.3285
G01 X-25.3439 Y0.3414
G01 X-25.2952 Y0.3526
G01 X-25.2262 Y0.3692
G01 X-25.1632 Y0.3851
G01 X-25.1108 Y0.3989
G01 X-25.0424 Y0.4176
G01 X-24.9801 Y0.4355
G01 X-24.9330 Y0.4494
G01 X-24.8676 Y0.4696
G01 X-24.8058 Y0.4893
G01 X-24.7393 Y0.5114
G01 X-24.6735 Y0.5341
G01 X-24.6209 Y0.5529
G01 X-24.5541 Y0.5776
G01 X-24.4960 Y0.5998
G01 X-24.4254 Y0.6277
G01 X-24.3649 Y0.6524
G01 X-24.3183 Y0.6721
G01 X-24.2394 Y0.7062
G01 X-24.1917 Y0.7273
G01 X-24.1319 Y0.7546
G01 X-24.0729 Y0.7822
G01 X-24.0196 Y0.8079
G01 X-23.9554 Y0.8397
G01 X-23.9012 Y0.8673
G01 X-23.8564 Y0.8907
G01 X-23.7918 Y0.9252
G01 X-23.7356 Y0.9561
G01 X-23.6732 Y0.9913
G01 X-23.6220 Y1.0210
G01 X-23.5660 Y1.0542
G01 X-23.5098 Y1.0883
G01 X-23.4656 Y1.1159
G01 X-23.4051 Y1.1543
G01 X-23.3446 Y1.1938
G01 X-23.2919 Y1.2291
G01 X-23.2430 Y1.2625
G01 X-23.1852 Y1.3029
G01 X-23.1390 Y1.3360
G01 X-23.0482 Y1.4030
G01 X-23.0079 Y1.4336
G01 X-22.9584 Y1.4719
G01 X-22.8747 Y1.5386
G01 X-22.8263 Y1.5784
G01 X-22.7863 Y1.6118
G01 X-22.7032 Y1.6833
G01 X-22.6571 Y1.7242
G01 X-22.6081 Y1.7683
G01 X-22.5655 Y1.8074
G01 X-22.5189 Y1.8511
G01 X-22.4422 Y1.9249
G01 X-22.3708 Y1.9962
G01 X-22.3294 Y2.0387
G01 X-22.2864 Y2.0837
G01 X-22.2139 Y2.1617
G01 X-22.1722 Y2.2079
G01 X-22.1351 Y2.2498
G01 X-22.0617 Y2.3352
G01 X-22.0225 Y2.3821
G01 X-21.9884 Y2.4238
G01 X-21.9589 Y2.4604
G01 X-21.9169 Y2.5136
G01 X-21.8512 Y2.5995
G01 X-21.7854 Y2.6887
G01 X-21.7524 Y2.7348
G01 X-21.7193 Y2.7820
G01 X-21.6838 Y2.8338
G01 X-21.6499 Y2.8842
G01 X-21.5941 Y2.9699
G01 X-21.5648 Y3.0161
G01 X-21.5350 Y3.0642
G01 X-21.4779 Y3.1593
G01 X-21.4486 Y3.2096
G01 X-21.4188 Y3.2620
G01 X-21.3882 Y3.3167
G01 X-21.3610 Y3.3664
G01 X-21.3115 Y3.4602
G01 X-21.2850 Y3.5121
G01 X-21.2592 Y3.5638
G01 X-21.2143 Y3.6569
G01 X-21.1879 Y3.7137
G01 X-21.1645 Y3.7653
G01 X-21.1209 Y3.8654
G01 X-21.0983 Y3.9192
G01 X-21.0765 Y3.9727
G01 X-21.0388 Y4.0689
G01 X-21.0172 Y4.1260
G01 X-20.9967 Y4.1823
G01 X-20.9761 Y4.2403
G01 X-20.9539 Y4.3056
G01 X-20.9384 Y4.3524
G01 X-20.9166 Y4.4206
G01 X-20.8982 Y4.4804
G01 X-20.8784 Y4.5476
G01 X-20.8631 Y4.6016
G01 X-20.8463 Y4.6630
G01 X-20.8297 Y4.7266
G01 X-20.8177 Y4.7745
G01 X-20.8028 Y4.8364
G01 X-20.7881 Y4.9005
G01 X-20.7749 Y4.9611
G01 X-20.7628 Y5.0192
G01 X-20.7389 Y5.1434
G01 X-20.7275 Y5.2073
G01 X-20.7176 Y5.2667
G01 X-20.7080 Y5.3282
G01 X-20.6988 Y5.3907
G01 X-20.6905 Y5.4524
G01 X-20.6847 Y5.4987
G01 X-20.6775 Y5.5600
G01 X-20.6707 Y5.6249
G01 X-20.6654 Y5.6803
G01 X-20.6598 Y5.7453
G01 X-20.6548 Y5.8129
G01 X-20.6512 Y5.8690
G01 X-20.6487 Y5.9156
G01 X-20.6455 Y5.9863
G01 X-20.6433 Y6.0507
G01 X-20.6419 Y6.1101
G01 X-20.6408 Y6.2222
G01 X-20.6408 Y21.4656
G01 X-20.6411 Y21.5245
G01 X-20.6422 Y21.5899
G01 X-20.6438 Y21.6522
G01 X-20.6462 Y21.7150
G01 X-20.6486 Y21.7669
G01 X-20.6525 Y21.8360
G01 X-20.6564 Y21.8935
G01 X-20.6614 Y21.9574
G01 X-20.6681 Y22.0321
G01 X-20.6742 Y22.0932
G01 X-20.6822 Y22.1649
G01 X-20.6911 Y22.2382
G01 X-20.7010 Y22.3117
G01 X-20.7112 Y22.3807
G01 X-20.7213 Y22.4444
G01 X-20.7336 Y22.5162
G01 X-22.6516 Y24.4337
G01 X-22.5920 Y24.3934
G01 X-22.5439 Y24.3619
G01 X-22.4879 Y24.3261
G01 X-22.4404 Y24.2966
G01 X-22.3985 Y24.2711
G01 X-22.2803 Y24.2005
G01 X-22.2278 Y24.1701
G01 X-22.1644 Y24.1344
G01 X-22.1167 Y24.1083
G01 X-22.0608 Y24.0787
G01 X-22.0097 Y24.0524
G01 X-21.9530 Y24.0241
G01 X-21.8928 Y23.9949
G01 X-21.7840 Y23.9435
G01 X-21.7246 Y23.9162
G01 X-21.6726 Y23.8929
G01 X-21.6140 Y23.8676
G01 X-21.5556 Y23.8433
G01 X-21.4993 Y23.8207
G01 X-21.4403 Y23.7978
G01 X-21.3671 Y23.7707
G01 X-21.2554 Y23.7306
G01 X-21.2091 Y23.7144
G01 X-21.1546 Y23.6959
G01 X-21.1035 Y23.6792
G01 X-21.0487 Y23.6619
G01 X-20.9880 Y23.6437
G01 X-20.9328 Y23.6278
G01 X-20.8748 Y23.6118
G01 X-20.8269 Y23.5992
G01 X-20.6611 Y23.5577
G01 X-20.6021 Y23.5438
G01 X-20.5310 Y23.5281
G01 X-20.4747 Y23.5164
G01 X-20.3934 Y23.5007
G01 X-20.3279 Y23.4891
G01 X-20.2728 Y23.4800
G01 X-20.1210 Y23.4572
G01 X-20.0186 Y23.4433
G01 X-19.9588 Y23.4361
G01 X-19.8985 Y23.4297
G01 X-19.8387 Y23.4240
G01 X-19.7814 Y23.4192
G01 X-19.7246 Y23.4152
G01 X-19.6577 Y23.4112
G01 X-19.5012 Y23.4037
G01 X-19.4469 Y23.4019
G01 X-19.3868 Y23.4005
G01 X-19.3262 Y23.3999
G01 X-19.2628 Y23.4000
G01 X-19.2054 Y23.4008
G01 X-19.1421 Y23.4025
G01 X-19.0752 Y23.4051
G01 X-18.9487 Y23.4113
G01 X-18.8834 Y23.4152
G01 X-18.8203 Y23.4197
G01 X-18.7599 Y23.4248
G01 X-18.6843 Y23.4323
G01 X-18.6240 Y23.4390
G01 X-18.5563 Y23.4476
G01 X-18.5800 Y23.3921
G01 X-18.6045 Y23.3324
G01 X-18.6267 Y23.2763
G01 X-18.6456 Y23.2273
G01 X-18.6635 Y23.1790
G01 X-18.6839 Y23.1222
G01 X-18.7045 Y23.0626
G01 X-18.7244 Y23.0021
G01 X-18.7415 Y22.9483
G01 X-18.7591 Y22.8905
G01 X-18.7776 Y22.8267
G01 X-18.7937 Y22.7686
G01 X-18.8106 Y22.7043
G01 X-18.8251 Y22.6457
G01 X-18.8403 Y22.5810
G01 X-18.8534 Y22.5221
G01 X-18.8663 Y22.4603
G01 X-18.8787 Y22.3965
G01 X-18.8921 Y22.3233
G01 X-18.9022 Y22.2639
G01 X-18.9117 Y22.2040
G01 X-18.9204 Y22.1444
G01 X-18.9280 Y22.0872
G01 X-18.9352 Y22.0274
G01 X-18.9423 Y21.9610
G01 X-18.9480 Y21.9011
G01 X-18.9528 Y21.8436
G01 X-18.9570 Y21.7835
G01 X-18.9602 Y21.7289
G01 X-18.9633 Y21.6627
G01 X-18.9655 Y21.5976
G01 X-18.9668 Y21.5363
G01 X-18.9674 Y21.4630
G01 X-18.9674 Y6.2230
G01 X-18.9671 Y6.1745
G01 X-18.9659 Y6.1048
G01 X-18.9627 Y6.0108
G01 X-18.9586 Y5.9313
G01 X-18.9535 Y5.8548
G01 X-18.9475 Y5.7823
G01 X-18.9392 Y5.6973
G01 X-18.9290 Y5.6080
G01 X-18.9194 Y5.5345
G01 X-18.9087 Y5.4606
G01 X-18.8969 Y5.3874
G01 X-18.8815 Y5.3012
G01 X-18.8679 Y5.2311
G01 X-18.8520 Y5.1554
G01 X-18.8362 Y5.0858
G01 X-18.8152 Y4.9991
G01 X-18.7943 Y4.9195
G01 X-18.7807 Y4.8702
G01 X-18.7632 Y4.8094
G01 X-18.7466 Y4.7545
G01 X-18.7276 Y4.6941
G01 X-18.7097 Y4.6395
G01 X-18.6892 Y4.5797
G01 X-18.6700 Y4.5255
G01 X-18.6480 Y4.4662
G01 X-18.6274 Y4.4126
G01 X-18.6040 Y4.3538
G01 X-18.5822 Y4.3007
G01 X-18.5556 Y4.2384
G01 X-18.5343 Y4.1897
G01 X-18.5095 Y4.1346
G01 X-18.4827 Y4.0772
G01 X-18.4551 Y4.0197
G01 X-18.4268 Y3.9630
G01 X-18.3992 Y3.9092
G01 X-18.3712 Y3.8561
G01 X-18.3438 Y3.8059
G01 X-18.3096 Y3.7449
G01 X-18.2810 Y3.6954
G01 X-18.2606 Y3.6610
G01 X-18.2261 Y3.6040
G01 X-18.1941 Y3.5527
G01 X-18.1641 Y3.5058
G01 X-18.1305 Y3.4547
G01 X-18.0948 Y3.4017
G01 X-18.0617 Y3.3540
G01 X-18.0247 Y3.3019
G01 X-17.9904 Y3.2550
G01 X-17.9521 Y3.2038
G01 X-17.9167 Y3.1578
G01 X-17.8772 Y3.1076
G01 X-17.8407 Y3.0625
G01 X-17.7998 Y3.0133
G01 X-17.7622 Y2.9691
G01 X-17.7202 Y2.9209
G01 X-17.6737 Y2.8690
G01 X-17.6311 Y2.8224
G01 X-17.5851 Y2.7733
G01 X-17.5474 Y2.7342
G01 X-17.5002 Y2.6863
G01 X-17.4592 Y2.6457
G01 X-17.4107 Y2.5990
G01 X-17.3814 Y2.5713
G01 X-17.3390 Y2.5321
G01 X-17.2941 Y2.4916
G01 X-17.2483 Y2.4512
G01 X-17.1998 Y2.4096
G01 X-17.1529 Y2.3704
G01 X-17.1113 Y2.3364
G01 X-17.0635 Y2.2983
G01 X-17.0190 Y2.2636
G01 X-16.9678 Y2.2248
G01 X-16.9190 Y2.1886
G01 X-16.8718 Y2.1546
G01 X-16.8221 Y2.1196
G01 X-16.7767 Y2.0884
G01 X-16.7261 Y2.0547
G01 X-16.6697 Y2.0180
G01 X-16.6184 Y1.9856
G01 X-16.5688 Y1.9551
G01 X-16.5193 Y1.9254
G01 X-16.4716 Y1.8976
G01 X-16.4220 Y1.8694
G01 X-16.3734 Y1.8422
G01 X-16.3222 Y1.8144
G01 X-16.2796 Y1.7919
G01 X-16.2278 Y1.7651
G01 X-16.1732 Y1.7378
G01 X-16.1207 Y1.7123
G01 X-16.0626 Y1.6850
G01 X-16.0154 Y1.6635
G01 X-15.9566 Y1.6376
G01 X-15.9059 Y1.6159
G01 X-15.8108 Y1.5770
G01 X-15.7594 Y1.5570
G01 X-15.7053 Y1.5366
G01 X-15.6460 Y1.5151
G01 X-15.5956 Y1.4975
G01 X-15.5468 Y1.4810
G01 X-15.4863 Y1.4613
G01 X-15.4312 Y1.4441
G01 X-15.3732 Y1.4268
G01 X-15.3177 Y1.4110
G01 X-15.2655 Y1.3967
G01 X-15.1725 Y1.3728
G01 X-15.1137 Y1.3587
G01 X-15.0574 Y1.3459
G01 X-15.0014 Y1.3338
G01 X-14.9479 Y1.3230
G01 X-14.8777 Y1.3095
G01 X-14.8244 Y1.2998
G01 X-14.7412 Y1.2860
G01 X-14.6514 Y1.2726
G01 X-14.5733 Y1.2624
G01 X-14.4800 Y1.2519
G01 X-14.3961 Y1.2439
G01 X-14.3055 Y1.2370
G01 X-14.2269 Y1.2323
G01 X-14.1317 Y1.2283
G01 X-14.0581 Y1.2265
G01 X-13.9750 Y1.2257
G01 X-12.5451 Y1.2256
G01 X-12.5451 Y-1.3526
G01 X-13.9752 Y-1.3527
G01 X-14.0605 Y-1.3535
G01 X-14.1436 Y-1.3558
G01 X-14.2202 Y-1.3591
G01 X-14.2755 Y-1.3622
G01 X-14.3210 Y-1.3652
G01 X-14.4107 Y-1.3725
G01 X-14.4974 Y-1.3810
G01 X-14.5946 Y-1.3922
G01 X-14.6841 Y-1.4042
G01 X-14.7802 Y-1.4189
G01 X-14.8632 Y-1.4332
G01 X-14.9203 Y-1.4439
G01 X-14.9745 Y-1.4547
G01 X-15.0250 Y-1.4653
G01 X-15.0821 Y-1.4780
G01 X-15.1417 Y-1.4920
G01 X-15.2017 Y-1.5068
G01 X-15.2552 Y-1.5207
G01 X-15.3136 Y-1.5367
G01 X-15.3744 Y-1.5541
G01 X-15.4264 Y-1.5697
G01 X-15.5230 Y-1.6002
G01 X-15.5745 Y-1.6174
G01 X-15.6342 Y-1.6381
G01 X-15.6823 Y-1.6555
G01 X-15.7416 Y-1.6776
G01 X-15.7952 Y-1.6983
G01 X-15.8539 Y-1.7219
G01 X-15.9069 Y-1.7440
G01 X-15.9623 Y-1.7677
G01 X-16.0185 Y-1.7925
G01 X-16.0706 Y-1.8161
G01 X-16.1188 Y-1.8387
G01 X-16.1733 Y-1.8649
G01 X-16.2300 Y-1.8932
G01 X-16.2838 Y-1.9208
G01 X-16.3369 Y-1.9488
G01 X-16.3871 Y-1.9762
G01 X-16.4220 Y-1.9956
G01 X-16.4799 Y-2.0287
G01 X-16.5291 Y-2.0577
G01 X-16.5805 Y-2.0887
G01 X-16.6389 Y-2.1250
G01 X-16.6858 Y-2.1550
G01 X-16.7383 Y-2.1895
G01 X-16.7913 Y-2.2252
G01 X-16.8390 Y-2.2583
G01 X-16.8911 Y-2.2953
G01 X-16.9380 Y-2.3296
G01 X-16.9892 Y-2.3679
G01 X-17.0352 Y-2.4033
G01 X-17.0854 Y-2.4428
G01 X-17.1305 Y-2.4793
G01 X-17.1797 Y-2.5202
G01 X-17.2239 Y-2.5578
G01 X-17.2721 Y-2.5998
G01 X-17.3240 Y-2.6463
G01 X-17.3706 Y-2.6889
G01 X-17.4197 Y-2.7349
G01 X-17.4588 Y-2.7726
G01 X-17.5067 Y-2.8198
G01 X-17.5473 Y-2.8608
G01 X-17.5940 Y-2.9093
G01 X-17.6217 Y-2.9386
G01 X-17.6609 Y-2.9810
G01 X-17.7081 Y-3.0334
G01 X-17.7462 Y-3.0768
G01 X-17.7899 Y-3.1279
G01 X-17.8247 Y-3.1697
G01 X-17.8671 Y-3.2218
G01 X-17.9082 Y-3.2736
G01 X-17.9432 Y-3.3191
G01 X-17.9791 Y-3.3668
G01 X-18.0187 Y-3.4206
G01 X-18.0507 Y-3.4655
G01 X-18.0872 Y-3.5179
G01 X-18.1316 Y-3.5837
G01 X-18.1618 Y-3.6298
G01 X-18.1962 Y-3.6836
G01 X-18.2253 Y-3.7305
G01 X-18.2567 Y-3.7825
G01 X-18.2847 Y-3.8300
G01 X-18.3195 Y-3.8908
G01 X-18.3512 Y-3.9475
G01 X-18.3792 Y-3.9990
G01 X-18.4094 Y-4.0562
G01 X-18.4361 Y-4.1084
G01 X-18.4648 Y-4.1664
G01 X-18.4901 Y-4.2192
G01 X-18.5174 Y-4.2779
G01 X-18.5414 Y-4.3314
G01 X-18.5672 Y-4.3906
G01 X-18.5899 Y-4.4447
G01 X-18.6141 Y-4.5046
G01 X-18.6384 Y-4.5668
G01 X-18.6583 Y-4.6199
G01 X-18.6794 Y-4.6782
G01 X-18.7013 Y-4.7410
G01 X-18.7214 Y-4.8014
G01 X-18.7405 Y-4.8616
G01 X-18.7581 Y-4.9193
G01 X-18.7731 Y-4.9703
G01 X-18.7893 Y-5.0284
G01 X-18.8064 Y-5.0926
G01 X-18.8212 Y-5.1511
G01 X-18.8358 Y-5.2126
G01 X-18.8498 Y-5.2747
G01 X-18.8663 Y-5.3527
G01 X-18.8800 Y-5.4231
G01 X-18.8937 Y-5.4986
G01 X-18.9056 Y-5.5699
G01 X-18.9152 Y-5.6329
G01 X-18.9240 Y-5.6955
G01 X-18.9338 Y-5.7737
G01 X-18.9411 Y-5.8400
G01 X-18.9480 Y-5.9119
G01 X-18.9528 Y-5.9694
G01 X-18.9576 Y-6.0385
G01 X-18.9619 Y-6.1172
G01 X-18.9643 Y-6.1778
G01 X-18.9661 Y-6.2420
G01 X-18.9672 Y-6.3153
G01 X-18.9674 Y-21.5900
G01 X-18.9670 Y-21.6402
G01 X-18.9661 Y-21.6979
G01 X-18.9641 Y-21.7671
G01 X-18.9609 Y-21.8402
G01 X-18.9555 Y-21.9306
G01 X-18.9502 Y-21.9997
G01 X-18.9439 Y-22.0692
G01 X-18.9365 Y-22.1405
G01 X-18.9278 Y-22.2146
G01 X-18.9190 Y-22.2817
G01 X-18.9087 Y-22.3524
G01 X-18.8969 Y-22.4256
G01 X-18.8862 Y-22.4864
G01 X-18.8704 Y-22.5692
G01 X-18.8554 Y-22.6418
G01 X-18.8420 Y-22.7021
G01 X-18.8242 Y-22.7774
G01 X-18.8084 Y-22.8404
G01 X-18.7927 Y-22.8996
G01 X-18.7738 Y-22.9671
G01 X-18.7503 Y-23.0464
G01 X-18.7305 Y-23.1099
G01 X-18.7097 Y-23.1735
G01 X-18.6850 Y-23.2453
G01 X-18.6645 Y-23.3023
G01 X-18.6390 Y-23.3705
G01 X-18.6088 Y-23.4475
G01 X-18.5858 Y-23.5036
G01 X-18.5546 Y-23.5768
G01 X-18.5248 Y-23.6446
G01 X-18.4983 Y-23.7026
G01 X-18.4609 Y-23.7814
G01 X-18.4268 Y-23.8500
G01 X-18.3979 Y-23.9063
G01 X-22.3115 Y-23.9063
G01 X-22.2705 Y-23.8321
G01 X-22.2329 Y-23.7612
G01 X-22.2006 Y-23.6978
G01 X-22.1635 Y-23.6224
G01 X-22.1307 Y-23.5527
G01 X-22.1000 Y-23.4849
G01 X-22.0706 Y-23.4171
G01 X-22.0384 Y-23.3395
G01 X-22.0121 Y-23.2734
G01 X-21.9836 Y-23.1983
G01 X-21.9562 Y-23.1223
G01 X-21.9310 Y-23.0489
G01 X-21.9083 Y-22.9793
G01 X-21.8865 Y-22.9089
G01 X-21.8659 Y-22.8387
G01 X-21.8429 Y-22.7554
G01 X-21.8229 Y-22.6779
G01 X-21.8057 Y-22.6067
G01 X-21.7868 Y-22.5224
G01 X-21.7731 Y-22.4565
G01 X-21.7560 Y-22.3678
G01 X-21.7427 Y-22.2936
G01 X-21.7292 Y-22.2099
G01 X-21.7176 Y-22.1294
G01 X-21.7091 Y-22.0633
G01 X-21.6998 Y-21.9820
G01 X-21.6920 Y-21.9011
G01 X-21.6866 Y-21.8346
G01 X-21.6811 Y-21.7530
G01 X-21.6771 Y-21.6718
G01 X-21.6744 Y-21.5930
G01 X-21.6730 Y-21.5159
G01 X-21.6726 Y-21.4630
G01 X-21.6726 Y-6.2230
G01 X-21.6730 Y-6.1728
G01 X-21.6739 Y-6.1151
G01 X-21.6753 Y-6.0632
G01 X-21.6777 Y-6.0004
G01 X-21.6812 Y-5.9347
G01 X-21.6852 Y-5.8720
G01 X-21.6907 Y-5.8030
G01 X-21.6956 Y-5.7490
G01 X-21.7008 Y-5.6973
G01 X-21.7079 Y-5.6341
G01 X-21.7146 Y-5.5792
G01 X-21.7233 Y-5.5153
G01 X-21.7318 Y-5.4574
G01 X-21.7415 Y-5.3969
G01 X-21.7515 Y-5.3393
G01 X-21.7608 Y-5.2886
G01 X-21.7721 Y-5.2311
G01 X-21.7846 Y-5.1712
G01 X-21.7972 Y-5.1140
G01 X-21.8120 Y-5.0513
G01 X-21.8268 Y-4.9913
G01 X-21.8407 Y-4.9378
G01 X-21.8584 Y-4.8733
G01 X-21.8741 Y-4.8186
G01 X-21.8906 Y-4.7635
G01 X-21.9085 Y-4.7062
G01 X-21.9273 Y-4.6485
G01 X-21.9466 Y-4.5916
G01 X-21.9787 Y-4.5018
G01 X-21.9998 Y-4.4455
G01 X-22.0207 Y-4.3920
G01 X-22.0443 Y-4.3333
G01 X-22.0677 Y-4.2774
G01 X-22.1136 Y-4.1720
G01 X-22.1354 Y-4.1241
G01 X-22.1616 Y-4.0680
G01 X-22.1874 Y-4.0147
G01 X-22.2106 Y-3.9680
G01 X-22.2360 Y-3.9183
G01 X-22.2618 Y-3.8692
G01 X-22.3089 Y-3.7830
G01 X-22.3362 Y-3.7348
G01 X-22.3659 Y-3.6836
G01 X-22.3910 Y-3.6417
G01 X-22.4218 Y-3.5912
G01 X-22.4548 Y-3.5388
G01 X-22.4824 Y-3.4959
G01 X-22.5102 Y-3.4537
G01 X-22.5404 Y-3.4088
G01 X-22.5709 Y-3.3646
G01 X-22.6071 Y-3.3135
G01 X-22.6368 Y-3.2725
G01 X-22.6722 Y-3.2247
G01 X-22.7067 Y-3.1794
G01 X-22.7374 Y-3.1398
G01 X-22.7708 Y-3.0978
G01 X-22.8044 Y-3.0564
G01 X-22.8651 Y-2.9840
G01 X-22.8999 Y-2.9437
G01 X-22.9409 Y-2.8973
G01 X-22.9797 Y-2.8542
G01 X-23.0227 Y-2.8076
G01 X-23.0573 Y-2.7709
G01 X-23.0996 Y-2.7269
G01 X-23.1446 Y-2.6815
G01 X-23.1808 Y-2.6457
G01 X-23.2562 Y-2.5736
G01 X-23.2935 Y-2.5390
G01 X-23.3334 Y-2.5028
G01 X-23.3765 Y-2.4645
G01 X-23.4197 Y-2.4271
G01 X-23.4948 Y-2.3640
G01 X-23.5392 Y-2.3280
G01 X-23.5817 Y-2.2942
G01 X-23.6222 Y-2.2627
G01 X-23.6722 Y-2.2248
G01 X-23.7210 Y-2.1886
G01 X-23.7608 Y-2.1599
G01 X-23.8104 Y-2.1249
G01 X-23.8533 Y-2.0953
G01 X-23.9342 Y-2.0413
G01 X-23.9780 Y-2.0131
G01 X-24.0294 Y-1.9807
G01 X-24.0712 Y-1.9551
G01 X-24.1234 Y-1.9239
G01 X-24.1684 Y-1.8976
G01 X-24.2185 Y-1.8691
G01 X-24.2675 Y-1.8418
G01 X-24.3162 Y-1.8153
G01 X-24.3619 Y-1.7911
G01 X-24.4140 Y-1.7642
G01 X-24.4951 Y-1.7240
G01 X-24.5392 Y-1.7029
G01 X-24.5949 Y-1.6770
G01 X-24.6366 Y-1.6581
G01 X-24.6869 Y-1.6360
G01 X-24.7737 Y-1.5994
G01 X-24.8216 Y-1.5801
G01 X-24.8702 Y-1.5610
G01 X-24.9181 Y-1.5428
G01 X-24.9732 Y-1.5225
G01 X-25.0704 Y-1.4885
G01 X-25.1182 Y-1.4727
G01 X-25.1657 Y-1.4574
G01 X-25.2520 Y-1.4311
G01 X-25.3063 Y-1.4154
G01 X-25.3612 Y-1.4002
G01 X-25.4126 Y-1.3866
G01 X-25.4615 Y-1.3742
G01 X-25.5520 Y-1.3527
G01 X-25.5947 Y-1.3432
G01 X-25.6499 Y-1.3314
G01 X-25.7472 Y-1.3123
G01 X-25.8423 Y-1.2952
G01 X-25.8988 Y-1.2860
G01 X-25.9529 Y-1.2778
G01 X-26.0339 Y-1.2666
G01 X-26.1026 Y-1.2582
G01 X-26.1720 Y-1.2507
G01 X-26.2439 Y-1.2439
G01 X-26.3225 Y-1.2378
G01 X-26.3890 Y-1.2336
G01 X-26.4642 Y-1.2299
G01 X-26.5455 Y-1.2272
G01 X-26.6171 Y-1.2260
G01 X-26.6683 Y-1.2257
G01 X-28.0949 Y-1.2256
G01 X-28.0949 Y1.2256
G01 X-26.6631 Y1.2257
G01 X-26.5621 Y1.2269
G01 X-26.5102 Y1.2283
G01 X-26.4578 Y1.2303
G01 X-26.3541 Y1.2359
G01 X-26.3018 Y1.2395
G01 X-26.2500 Y1.2437
G01 X-26.1495 Y1.2533
G01 X-26.0454 Y1.2652
G01 X-25.9527 Y1.2776
G01 X-25.9044 Y1.2848
G01 X-25.8439 Y1.2945
G01 X-25.7990 Y1.3022
G01 X-25.7451 Y1.3120
G01 X-25.6529 Y1.3303
G01 X-25.5930 Y1.3431
G01 X-25.5359 Y1.3560
G01 X-25.4732 Y1.3711
G01 X-25.4071 Y1.3879
G01 X-25.3528 Y1.4024
G01 X-25.2959 Y1.4183
G01 X-25.2352 Y1.4361
G01 X-25.1773 Y1.4539
G01 X-25.1200 Y1.4722
G01 X-25.0626 Y1.4914
G01 X-25.0028 Y1.5122
G01 X-24.9250 Y1.5405
G01 X-24.8625 Y1.5644
G01 X-24.8037 Y1.5878
G01 X-24.7506 Y1.6096
G01 X-24.6960 Y1.6328
G01 X-24.6279 Y1.6626
G01 X-24.5740 Y1.6870
G01 X-24.5150 Y1.7146
G01 X-24.4617 Y1.7404
G01 X-24.4034 Y1.7695
G01 X-24.3508 Y1.7966
G01 X-24.2933 Y1.8271
G01 X-24.2414 Y1.8556
G01 X-24.1846 Y1.8876
G01 X-24.1334 Y1.9173
G01 X-24.0775 Y1.9507
G01 X-24.0271 Y1.9817
G01 X-23.9693 Y2.0183
G01 X-23.9156 Y2.0533
G01 X-23.8675 Y2.0855
G01 X-23.8168 Y2.1203
G01 X-23.7655 Y2.1565
G01 X-23.7195 Y2.1898
G01 X-23.6692 Y2.2271
G01 X-23.6165 Y2.2673
G01 X-23.5521 Y2.3180
G01 X-23.5034 Y2.3574
G01 X-23.4525 Y2.3998
G01 X-23.4049 Y2.4406
G01 X-23.3520 Y2.4870
G01 X-23.3024 Y2.5317
G01 X-23.2546 Y2.5757
G01 X-23.2057 Y2.6219
G01 X-23.1619 Y2.6644
G01 X-23.1096 Y2.7167
G01 X-23.0669 Y2.7604
G01 X-23.0183 Y2.8116
G01 X-22.9791 Y2.8540
G01 X-22.9341 Y2.9039
G01 X-22.8938 Y2.9498
G01 X-22.8479 Y3.0035
G01 X-22.8110 Y3.0478
G01 X-22.7666 Y3.1027
G01 X-22.7205 Y3.1612
G01 X-22.6754 Y3.2203
G01 X-22.6356 Y3.2740
G01 X-22.6016 Y3.3212
G01 X-22.5597 Y3.3809
G01 X-22.5236 Y3.4340
G01 X-22.4883 Y3.4872
G01 X-22.4455 Y3.5541
G01 X-22.4116 Y3.6086
G01 X-22.3786 Y3.6633
G01 X-22.3431 Y3.7240
G01 X-22.3017 Y3.7971
G01 X-22.2705 Y3.8539
G01 X-22.2403 Y3.9106
G01 X-22.2121 Y3.9652
G01 X-22.1834 Y4.0227
G01 X-22.1524 Y4.0868
G01 X-22.1253 Y4.1450
G01 X-22.1000 Y4.2011
G01 X-22.0744 Y4.2600
G01 X-22.0493 Y4.3197
G01 X-22.0240 Y4.3822
G01 X-21.9938 Y4.4606
G01 X-21.9735 Y4.5153
G01 X-21.9533 Y4.5719
G01 X-21.9310 Y4.6371
G01 X-21.9093 Y4.7037
G01 X-21.8911 Y4.7618
G01 X-21.8729 Y4.8228
G01 X-21.8537 Y4.8907
G01 X-21.8372 Y4.9522
G01 X-21.8221 Y5.0112
G01 X-21.8072 Y5.0731
G01 X-21.7922 Y5.1387
G01 X-21.7795 Y5.1979
G01 X-21.7675 Y5.2576
G01 X-21.7522 Y5.3386
G01 X-21.7383 Y5.4191
G01 X-21.7283 Y5.4820
G01 X-21.7192 Y5.5446
G01 X-21.7105 Y5.6108
G01 X-21.7025 Y5.6796
G01 X-21.6965 Y5.7369
G01 X-21.6894 Y5.8154
G01 X-21.6842 Y5.8845
G01 X-21.6806 Y5.9420
G01 X-21.6771 Y6.0142
G01 X-21.6747 Y6.0809
G01 X-21.6733 Y6.1448
G01 X-21.6727 Y6.2180
G01 X-21.6727 Y21.4699
G01 X-21.6730 Y21.5184
G01 X-21.6741 Y21.5778
G01 X-21.6758 Y21.6366
G01 X-21.6777 Y21.6856
G01 X-21.6812 Y21.7513
G01 X-21.6845 Y21.8036
G01 X-21.6925 Y21.9037
G01 X-21.6988 Y21.9697
G01 X-21.7044 Y22.0215
G01 X-21.7122 Y22.0876
G01 X-21.7193 Y22.1420
G01 X-21.7333 Y22.2381
G01 X-21.7420 Y22.2922
G01 X-21.7515 Y22.3467
G01 X-21.7639 Y22.4133
G01 X-21.7773 Y22.4801
G01 X-21.7951 Y22.5625
G01 X-21.8105 Y22.6285
G01 X-21.8280 Y22.6994
G01 X-21.8457 Y22.7665
G01 X-21.8636 Y22.8310
G01 X-21.8840 Y22.9008
G01 X-21.9085 Y22.9798
G01 X-21.9273 Y23.0375
G01 X-21.9508 Y23.1063
G01 X-21.9755 Y23.1753
G01 X-22.0010 Y23.2435
G01 X-22.0312 Y23.3205
G01 X-22.0566 Y23.3824
G01 X-22.0837 Y23.4460
G01 X-22.1109 Y23.5081
G01 X-22.1395 Y23.5708
G01 X-22.1759 Y23.6478
G01 X-22.2062 Y23.7092
G01 X-22.2375 Y23.7706
G01 X-22.2741 Y23.8397
G01 X-22.3041 Y23.8945
G01 X-22.3394 Y23.9569
G01 X-22.3709 Y24.0108
G01 X-22.4150 Y24.0837
G01 X-22.4548 Y24.1472
G01 X-22.4895 Y24.2010
G01 X-22.5228 Y24.2512
G01 X-22.5673 Y24.3162
G01 X-22.6071 Y24.3725
G01 X-22.6516 Y24.4337
G01 X-25.1957 Y25.1442
G01 X-25.1464 Y25.1781
G01 X-25.0867 Y25.2207
G01 X-24.9760 Y25.3025
G01 X-24.9277 Y25.3391
G01 X-24.8728 Y25.3820
G01 X-24.8183 Y25.4262
G01 X-24.7695 Y25.4672
G01 X-24.7264 Y25.5045
G01 X-24.6835 Y25.5428
G01 X-24.5816 Y25.6354
G01 X-24.5260 Y25.6879
G01 X-24.4804 Y25.7325
G01 X-24.4311 Y25.7823
G01 X-24.3830 Y25.8327
G01 X-24.3419 Y25.8773
G01 X-24.2538 Y25.9747
G01 X-24.2179 Y26.0155
G01 X-24.1683 Y26.0737
G01 X-24.1242 Y26.1276
G01 X-24.0807 Y26.1826
G01 X-24.0363 Y26.2409
G01 X-23.9563 Y26.3491
G01 X-23.9227 Y26.3957
G01 X-23.8826 Y26.4533
G01 X-23.8404 Y26.5164
G01 X-23.7992 Y26.5808
G01 X-23.7641 Y26.6379
G01 X-23.7063 Y26.7342
G01 X-23.6756 Y26.7865
G01 X-23.6444 Y26.8416
G01 X-23.6199 Y26.8865
G01 X-23.5877 Y26.9475
G01 X-23.5684 Y26.9135
G01 X-23.5425 Y26.8694
G01 X-23.4667 Y26.7432
G01 X-23.4448 Y26.7078
G01 X-23.4176 Y26.6651
G01 X-23.3720 Y26.5960
G01 X-23.3468 Y26.5590
G01 X-23.3213 Y26.5227
G01 X-23.2727 Y26.4556
G01 X-23.2115 Y26.3730
G01 X-23.1787 Y26.3297
G01 X-23.1438 Y26.2847
G01 X-23.1159 Y26.2496
G01 X-23.0838 Y26.2104
G01 X-23.0550 Y26.1761
G01 X-23.0220 Y26.1377
G01 X-22.9945 Y26.1064
G01 X-22.8872 Y25.9879
G01 X-22.8523 Y25.9505
G01 X-22.8173 Y25.9139
G01 X-22.7860 Y25.8819
G01 X-22.7501 Y25.8461
G01 X-22.6905 Y25.7887
G01 X-22.6367 Y25.7389
G01 X-22.5346 Y25.6465
G01 X-22.5033 Y25.6190
G01 X-22.4649 Y25.5860
G01 X-22.4012 Y25.5331
G01 X-22.3663 Y25.5051
G01 X-22.3314 Y25.4777
G01 X-22.2680 Y25.4295
G01 X-22.1573 Y25.3477
G01 X-22.1235 Y25.3233
G01 X-22.0820 Y25.2942
G01 X-22.0450 Y25.2690
G01 X-22.0029 Y25.2409
G01 X-21.9653 Y25.2165
G01 X-21.9170 Y25.1861
G01 X-21.8707 Y25.1578
G01 X-21.7825 Y25.1049
G01 X-21.7165 Y25.0663
G01 X-21.6442 Y25.0259
G01 X-21.5655 Y24.9842
G01 X-21.5146 Y24.9584
G01 X-21.4716 Y24.9373
G01 X-21.3328 Y24.8717
G01 X-21.2515 Y24.8350
G01 X-21.2104 Y24.8173
G01 X-21.1695 Y24.8003
G01 X-21.1220 Y24.7811
G01 X-21.0807 Y24.7651
G01 X-21.0061 Y24.7374
G01 X-20.8734 Y24.6902
G01 X-20.8310 Y24.6757
G01 X-20.7642 Y24.6541
G01 X-20.6915 Y24.6320
G01 X-20.6485 Y24.6197
G01 X-20.5996 Y24.6064
G01 X-20.5470 Y24.5927
G01 X-20.4473 Y24.5677
G01 X-20.3729 Y24.5499
G01 X-20.3235 Y24.5389
G01 X-20.2796 Y24.5297
G01 X-20.2299 Y24.5199
G01 X-20.1858 Y24.5118
G01 X-20.0979 Y24.4971
G01 X-19.9617 Y24.4768
G01 X-19.9111 Y24.4698
G01 X-19.8671 Y24.4643
G01 X-19.7974 Y24.4566
G01 X-19.7533 Y24.4523
G01 X-19.7086 Y24.4485
G01 X-19.6197 Y24.4426
G01 X-19.4854 Y24.4359
G01 X-19.4121 Y24.4332
G01 X-19.3678 Y24.4322
G01 X-19.3230 Y24.4317
G01 X-19.2723 Y24.4318
G01 X-19.2275 Y24.4324
G01 X-19.1385 Y24.4352
G01 X-18.9788 Y24.4431
G01 X-18.9372 Y24.4458
G01 X-18.8867 Y24.4496
G01 X-18.8421 Y24.4535
G01 X-18.7917 Y24.4585
G01 X-18.7472 Y24.4635
G01 X-18.6906 Y24.4706
G01 X-18.6369 Y24.4782
G01 X-18.5351 Y24.4932
G01 X-18.4533 Y24.5063
G01 X-18.4097 Y24.5140
G01 X-18.3657 Y24.5223
G01 X-18.2845 Y24.5389
G01 X-18.2351 Y24.5499
G01 X-18.1946 Y24.5594
G01 X-18.0395 Y24.5982
G01 X-17.9534 Y24.6214
G01 X-17.8922 Y24.6392
G01 X-17.8252 Y24.6600
G01 X-17.7590 Y24.6818
G01 X-17.7018 Y24.7017
G01 X-17.5930 Y24.7406
G01 X-17.5273 Y24.7651
G01 X-17.4561 Y24.7931
G01 X-17.3739 Y24.8275
G01 X-17.3102 Y24.8556
G01 X-17.2551 Y24.8810
G01 X-17.1393 Y24.9359
G01 X-17.0651 Y24.9726
G01 X-17.0084 Y25.0020
G01 X-16.9412 Y25.0384
G01 X-16.8805 Y25.0726
G01 X-16.8255 Y25.1049
G01 X-16.7319 Y25.1611
G01 X-16.6748 Y25.1962
G01 X-16.6104 Y25.2374
G01 X-16.5473 Y25.2796
G01 X-16.4845 Y25.3233
G01 X-16.4303 Y25.3626
G01 X-16.3223 Y25.4428
G01 X-16.2567 Y25.4933
G01 X-16.2068 Y25.5331
G01 X-16.1479 Y25.5819
G01 X-16.0952 Y25.6274
G01 X-16.0499 Y25.6677
G01 X-15.9643 Y25.7453
G01 X-15.9129 Y25.7930
G01 X-15.8809 Y25.8237
G01 X-15.8489 Y25.8550
G01 X-15.7907 Y25.9139
G01 X-15.7470 Y25.9597
G01 X-15.7059 Y26.0043
G01 X-15.6199 Y26.0994
G01 X-15.5653 Y26.1617
G01 X-15.5242 Y26.2104
G01 X-15.4760 Y26.2698
G01 X-15.4331 Y26.3247
G01 X-15.3946 Y26.3756
G01 X-15.3296 Y26.4633
G01 X-15.2903 Y26.5175
G01 X-15.2466 Y26.5803
G01 X-15.2044 Y26.6434
G01 X-15.1632 Y26.7078
G01 X-15.1248 Y26.7703
G01 X-15.0542 Y26.8885
G01 X-15.0333 Y26.9245
G01 X-15.0084 Y26.9686
G01 X-14.9690 Y27.0414
G01 X-14.9483 Y27.0812
G01 X-14.9283 Y27.1207
G01 X-14.8975 Y27.1837
G01 X-14.8494 Y27.2853
G01 X-14.8226 Y27.3432
G01 X-14.7945 Y27.4069
G01 X-14.7673 Y27.4715
G01 X-14.7435 Y27.5307
G01 X-14.7131 Y27.6111
G01 X-14.6687 Y27.7348
G01 X-14.6488 Y27.7920
G01 X-14.6270 Y27.8582
G01 X-14.6044 Y27.9312
G01 X-14.5867 Y27.9925
G01 X-14.5676 Y28.0633
G01 X-14.5462 Y28.1479
G01 X-14.3942 Y28.0352
G01 X-14.3503 Y28.0032
G01 X-14.2882 Y27.9594
G01 X-14.2248 Y27.9166
G01 X-14.1713 Y27.8819
G01 X-14.1038 Y27.8398
G01 X-13.8546 Y27.6903
G01 X-13.7995 Y27.6582
G01 X-13.7498 Y27.6302
G01 X-13.6882 Y27.5968
G01 X-13.6316 Y27.5673
G01 X-13.5863 Y27.5446
G01 X-13.5374 Y27.5209
G01 X-13.2920 Y27.4048
G01 X-13.2282 Y27.3757
G01 X-13.1581 Y27.3451
G01 X-13.0937 Y27.3185
G01 X-13.0284 Y27.2929
G01 X-12.9508 Y27.2642
G01 X-12.7130 Y27.1791
G01 X-12.6437 Y27.1551
G01 X-12.5956 Y27.1393
G01 X-12.5468 Y27.1240
G01 X-12.4796 Y27.1040
G01 X-12.4247 Y27.0887
G01 X-12.3538 Y27.0701
G01 X-12.0996 Y27.0065
G01 X-12.0468 Y26.9938
G01 X-11.9974 Y26.9826
G01 X-11.9536 Y26.9733
G01 X-11.9101 Y26.9645
G01 X-11.8599 Y26.9550
G01 X-11.8162 Y26.9474
G01 X-11.7376 Y26.9347
G01 X-11.4784 Y26.8963
G01 X-11.4246 Y26.8889
G01 X-11.3806 Y26.8834
G01 X-11.3172 Y26.8763
G01 X-11.2605 Y26.8708
G01 X-11.1906 Y26.8653
G01 X-11.1364 Y26.8618
G01 X-10.8335 Y26.8469
G01 X-10.7761 Y26.8449
G01 X-10.7028 Y26.8436
G01 X-9.2561 Y26.8434
G01 X-9.2433 Y26.7668
G01 X-9.2317 Y26.7041
G01 X-9.2164 Y26.6292
G01 X-9.2012 Y26.5612
G01 X-9.1870 Y26.5023
G01 X-9.1225 Y26.2450
G01 X-9.1046 Y26.1772
G01 X-9.0838 Y26.1036
G01 X-9.0576 Y26.0184
G01 X-9.0338 Y25.9463
G01 X-9.0149 Y25.8920
G01 X-8.9298 Y25.6542
G01 X-8.9088 Y25.5973
G01 X-8.8860 Y25.5383
G01 X-8.8669 Y25.4908
G01 X-8.8408 Y25.4288
G01 X-13.9737 Y25.4285
G01 X-14.0400 Y25.4278
G01 X-14.1092 Y25.4259
G01 X-14.1650 Y25.4235
G01 X-14.2484 Y25.4184
G01 X-14.3036 Y25.4141
G01 X-14.3558 Y25.4092
G01 X-14.4131 Y25.4032
G01 X-14.4680 Y25.3967
G01 X-14.5192 Y25.3900
G01 X-14.5771 Y25.3816
G01 X-14.6280 Y25.3734
G01 X-14.6793 Y25.3645
G01 X-14.7300 Y25.3549
G01 X-14.8000 Y25.3406
G01 X-14.8508 Y25.3294
G01 X-14.9010 Y25.3176
G01 X-14.9515 Y25.3051
G01 X-15.0048 Y25.2911
G01 X-15.0540 Y25.2774
G01 X-15.1087 Y25.2614
G01 X-15.1756 Y25.2407
G01 X-15.2182 Y25.2268
G01 X-15.2721 Y25.2084
G01 X-15.3143 Y25.1934
G01 X-15.3618 Y25.1759
G01 X-15.4154 Y25.1552
G01 X-15.4624 Y25.1364
G01 X-15.5095 Y25.1167
G01 X-15.5781 Y25.0870
G01 X-15.6212 Y25.0678
G01 X-15.6756 Y25.0425
G01 X-15.7181 Y25.0220
G01 X-15.7658 Y24.9983
G01 X-15.8196 Y24.9705
G01 X-15.8666 Y24.9454
G01 X-15.9137 Y24.9194
G01 X-15.9543 Y24.8963
G01 X-16.0007 Y24.8691
G01 X-16.0463 Y24.8415
G01 X-16.1090 Y24.8021
G01 X-16.1549 Y24.7722
G01 X-16.2080 Y24.7366
G01 X-16.2504 Y24.7072
G01 X-16.3080 Y24.6659
G01 X-16.3542 Y24.6316
G01 X-16.3902 Y24.6042
G01 X-16.4404 Y24.5647
G01 X-16.4806 Y24.5322
G01 X-16.5199 Y24.4995
G01 X-16.5736 Y24.4533
G01 X-16.6179 Y24.4140
G01 X-16.6655 Y24.3707
G01 X-16.7097 Y24.3293
G01 X-16.7440 Y24.2962
G01 X-16.7822 Y24.2584
G01 X-16.8250 Y24.2148
G01 X-16.8621 Y24.1759
G01 X-16.8990 Y24.1360
G01 X-16.9351 Y24.0961
G01 X-16.9840 Y24.0399
G01 X-17.0191 Y23.9984
G01 X-17.0532 Y23.9567
G01 X-17.0870 Y23.9143
G01 X-17.1208 Y23.8707
G01 X-17.1504 Y23.8315
G01 X-17.1827 Y23.7874
G01 X-17.2216 Y23.7325
G01 X-17.2494 Y23.6921
G01 X-17.2832 Y23.6416
G01 X-17.3098 Y23.6003
G01 X-17.3455 Y23.5433
G01 X-17.3738 Y23.4965
G01 X-17.4016 Y23.4489
G01 X-17.4407 Y23.3797
G01 X-17.4688 Y23.3282
G01 X-17.4930 Y23.2825
G01 X-17.5138 Y23.2418
G01 X-17.5396 Y23.1896
G01 X-17.5702 Y23.1249
G01 X-17.5919 Y23.0774
G01 X-17.6126 Y23.0301
G01 X-17.6354 Y22.9760
G01 X-17.6549 Y22.9281
G01 X-17.6773 Y22.8704
G01 X-17.7007 Y22.8071
G01 X-17.7184 Y22.7570
G01 X-17.7356 Y22.7061
G01 X-17.7519 Y22.6555
G01 X-17.7696 Y22.5978
G01 X-17.7844 Y22.5467
G01 X-17.7970 Y22.5014
G01 X-17.8121 Y22.4435
G01 X-17.8296 Y22.3720
G01 X-17.8400 Y22.3261
G01 X-17.8524 Y22.2676
G01 X-17.8619 Y22.2200
G01 X-17.8759 Y22.1442
G01 X-17.8840 Y22.0967
G01 X-17.8934 Y22.0367
G01 X-17.9009 Y21.9830
G01 X-17.9092 Y21.9168
G01 X-17.9158 Y21.8565
G01 X-17.9224 Y21.7840
G01 X-17.9264 Y21.7300
G01 X-17.9300 Y21.6694
G01 X-17.9333 Y21.5937
G01 X-17.9348 Y21.5329
G01 X-17.9355 Y21.4663
G01 X-17.9353 Y6.1918
G01 X-17.9336 Y6.1048
G01 X-17.9309 Y6.0350
G01 X-17.9274 Y5.9728
G01 X-17.9211 Y5.8894
G01 X-17.9134 Y5.8096
G01 X-17.9037 Y5.7250
G01 X-17.8943 Y5.6547
G01 X-17.8825 Y5.5777
G01 X-17.8715 Y5.5137
G01 X-17.8568 Y5.4372
G01 X-17.8422 Y5.3678
G01 X-17.8246 Y5.2920
G01 X-17.8064 Y5.2196
G01 X-17.7878 Y5.1512
G01 X-17.7684 Y5.0843
G01 X-17.7418 Y4.9993
G01 X-17.7277 Y4.9568
G01 X-17.7091 Y4.9030
G01 X-17.6939 Y4.8609
G01 X-17.6691 Y4.7953
G01 X-17.6481 Y4.7424
G01 X-17.6311 Y4.7010
G01 X-17.6085 Y4.6480
G01 X-17.5859 Y4.5966
G01 X-17.5664 Y4.5536
G01 X-17.5438 Y4.5054
G01 X-17.5232 Y4.4630
G01 X-17.4992 Y4.4153
G01 X-17.4775 Y4.3734
G01 X-17.4524 Y4.3264
G01 X-17.4296 Y4.2851
G01 X-17.4000 Y4.2330
G01 X-17.3761 Y4.1923
G01 X-17.3485 Y4.1467
G01 X-17.3182 Y4.0982
G01 X-17.2935 Y4.0599
G01 X-17.2686 Y4.0221
G01 X-17.2400 Y3.9797
G01 X-17.1994 Y3.9217
G01 X-17.1729 Y3.8850
G01 X-17.1386 Y3.8388
G01 X-17.1112 Y3.8028
G01 X-17.0796 Y3.7626
G01 X-17.0432 Y3.7174
G01 X-17.0106 Y3.6780
G01 X-16.9813 Y3.6435
G01 X-16.9477 Y3.6050
G01 X-16.9097 Y3.5626
G01 X-16.8731 Y3.5225
G01 X-16.8363 Y3.4833
G01 X-16.8032 Y3.4490
G01 X-16.7654 Y3.4108
G01 X-16.7315 Y3.3774
G01 X-16.6927 Y3.3401
G01 X-16.6579 Y3.3076
G01 X-16.6181 Y3.2714
G01 X-16.5825 Y3.2398
G01 X-16.5418 Y3.2046
G01 X-16.5054 Y3.1739
G01 X-16.4637 Y3.1398
G01 X-16.4239 Y3.1080
G01 X-16.3873 Y3.0796
G01 X-16.3385 Y3.0426
G01 X-16.2944 Y3.0103
G01 X-16.2594 Y2.9853
G01 X-16.2196 Y2.9575
G01 X-16.1840 Y2.9334
G01 X-16.1278 Y2.8963
G01 X-16.0817 Y2.8670
G01 X-16.0451 Y2.8443
G01 X-16.0035 Y2.8192
G01 X-15.9559 Y2.7914
G01 X-15.8929 Y2.7557
G01 X-15.8531 Y2.7338
G01 X-15.8021 Y2.7066
G01 X-15.7617 Y2.6858
G01 X-15.7157 Y2.6628
G01 X-15.6632 Y2.6374
G01 X-15.6166 Y2.6157
G01 X-15.5693 Y2.5944
G01 X-15.4980 Y2.5638
G01 X-15.4505 Y2.5443
G01 X-15.4142 Y2.5299
G01 X-15.3421 Y2.5025
G01 X-15.2964 Y2.4859
G01 X-15.2595 Y2.4731
G01 X-15.1805 Y2.4469
G01 X-15.1132 Y2.4260
G01 X-15.0704 Y2.4134
G01 X-15.0271 Y2.4012
G01 X-14.9466 Y2.3800
G01 X-14.8595 Y2.3590
G01 X-14.7848 Y2.3428
G01 X-14.6868 Y2.3236
G01 X-14.6037 Y2.3090
G01 X-14.5377 Y2.2988
G01 X-14.4537 Y2.2874
G01 X-14.3754 Y2.2785
G01 X-14.2910 Y2.2706
G01 X-14.2189 Y2.2654
G01 X-14.1343 Y2.2610
G01 X-14.0598 Y2.2586
G01 X-13.9799 Y2.2576
G01 X-11.5132 Y2.2575
G01 X-11.5132 Y-2.3845
G01 X-13.9977 Y-2.3847
G01 X-14.0398 Y-2.3852
G01 X-14.0952 Y-2.3866
G01 X-14.1441 Y-2.3885
G01 X-14.1925 Y-2.3910
G01 X-14.2483 Y-2.3946
G01 X-14.2967 Y-2.3983
G01 X-14.3834 Y-2.4066
G01 X-14.4323 Y-2.4120
G01 X-14.4808 Y-2.4179
G01 X-14.5643 Y-2.4295
G01 X-14.6153 Y-2.4375
G01 X-14.6603 Y-2.4451
G01 X-14.7110 Y-2.4544
G01 X-14.7495 Y-2.4619
G01 X-14.8252 Y-2.4778
G01 X-14.8697 Y-2.4879
G01 X-14.9198 Y-2.5000
G01 X-14.9734 Y-2.5136
G01 X-15.0139 Y-2.5244
G01 X-15.0601 Y-2.5373
G01 X-15.1087 Y-2.5516
G01 X-15.1937 Y-2.5782
G01 X-15.2362 Y-2.5923
G01 X-15.2840 Y-2.6088
G01 X-15.3262 Y-2.6239
G01 X-15.3736 Y-2.6416
G01 X-15.4506 Y-2.6719
G01 X-15.4920 Y-2.6889
G01 X-15.5377 Y-2.7084
G01 X-15.5842 Y-2.7286
G01 X-15.6273 Y-2.7480
G01 X-15.6756 Y-2.7705
G01 X-15.7181 Y-2.7910
G01 X-15.7658 Y-2.8147
G01 X-15.8019 Y-2.8332
G01 X-15.8549 Y-2.8612
G01 X-15.8963 Y-2.8839
G01 X-15.9427 Y-2.9101
G01 X-15.9950 Y-2.9405
G01 X-16.0463 Y-2.9715
G01 X-16.0976 Y-3.0036
G01 X-16.1496 Y-3.0372
G01 X-16.1922 Y-3.0656
G01 X-16.2347 Y-3.0948
G01 X-16.2869 Y-3.1318
G01 X-16.3234 Y-3.1585
G01 X-16.3695 Y-3.1930
G01 X-16.4254 Y-3.2364
G01 X-16.4607 Y-3.2647
G01 X-16.5052 Y-3.3012
G01 X-16.5495 Y-3.3387
G01 X-16.5880 Y-3.3723
G01 X-16.6371 Y-3.4163
G01 X-16.6803 Y-3.4561
G01 X-16.7243 Y-3.4977
G01 X-16.7775 Y-3.5499
G01 X-16.8109 Y-3.5837
G01 X-16.8529 Y-3.6273
G01 X-16.8854 Y-3.6621
G01 X-16.9216 Y-3.7019
G01 X-16.9621 Y-3.7476
G01 X-16.9971 Y-3.7885
G01 X-17.0319 Y-3.8302
G01 X-17.0658 Y-3.8720
G01 X-17.1060 Y-3.9230
G01 X-17.1431 Y-3.9718
G01 X-17.1791 Y-4.0207
G01 X-17.2077 Y-4.0606
G01 X-17.2460 Y-4.1159
G01 X-17.2765 Y-4.1613
G01 X-17.3065 Y-4.2075
G01 X-17.3357 Y-4.2538
G01 X-17.3707 Y-4.3113
G01 X-17.3955 Y-4.3536
G01 X-17.4249 Y-4.4051
G01 X-17.4596 Y-4.4677
G01 X-17.4840 Y-4.5133
G01 X-17.5080 Y-4.5597
G01 X-17.5311 Y-4.6059
G01 X-17.5566 Y-4.6588
G01 X-17.5810 Y-4.7115
G01 X-17.5997 Y-4.7533
G01 X-17.6280 Y-4.8191
G01 X-17.6501 Y-4.8729
G01 X-17.6739 Y-4.9335
G01 X-17.6903 Y-4.9773
G01 X-17.7097 Y-5.0309
G01 X-17.7270 Y-5.0812
G01 X-17.7499 Y-5.1512
G01 X-17.7658 Y-5.2025
G01 X-17.7808 Y-5.2535
G01 X-17.7970 Y-5.3116
G01 X-17.8105 Y-5.3630
G01 X-17.8219 Y-5.4087
G01 X-17.8355 Y-5.4669
G01 X-17.8456 Y-5.5129
G01 X-17.8564 Y-5.5649
G01 X-17.8691 Y-5.6314
G01 X-17.8800 Y-5.6926
G01 X-17.8934 Y-5.7763
G01 X-17.9041 Y-5.8543
G01 X-17.9139 Y-5.9386
G01 X-17.9208 Y-6.0105
G01 X-17.9272 Y-6.0951
G01 X-17.9315 Y-6.1737
G01 X-17.9343 Y-6.2536
G01 X-17.9355 Y-6.3467
G01 X-17.9355 Y-21.5900
G01 X-17.9345 Y-21.6736
G01 X-17.9334 Y-21.7152
G01 X-17.9315 Y-21.7641
G01 X-17.9286 Y-21.8194
G01 X-17.9259 Y-21.8614
G01 X-17.9193 Y-21.9443
G01 X-17.9134 Y-22.0034
G01 X-17.9069 Y-22.0619
G01 X-17.9013 Y-22.1072
G01 X-17.8914 Y-22.1779
G01 X-17.8825 Y-22.2353
G01 X-17.8749 Y-22.2803
G01 X-17.8632 Y-22.3437
G01 X-17.8529 Y-22.3947
G01 X-17.8378 Y-22.4645
G01 X-17.8261 Y-22.5147
G01 X-17.8129 Y-22.5684
G01 X-17.8014 Y-22.6125
G01 X-17.7878 Y-22.6618
G01 X-17.7702 Y-22.7226
G01 X-17.7553 Y-22.7715
G01 X-17.7338 Y-22.8382
G01 X-17.7154 Y-22.8921
G01 X-17.7004 Y-22.9343
G01 X-17.6784 Y-22.9936
G01 X-17.6599 Y-23.0413
G01 X-17.6335 Y-23.1062
G01 X-17.6132 Y-23.1540
G01 X-17.5859 Y-23.2164
G01 X-17.5636 Y-23.2654
G01 X-17.5320 Y-23.3321
G01 X-17.5083 Y-23.3799
G01 X-17.4837 Y-23.4278
G01 X-17.4619 Y-23.4690
G01 X-17.4361 Y-23.5163
G01 X-17.4099 Y-23.5627
G01 X-17.3795 Y-23.6150
G01 X-17.3519 Y-23.6606
G01 X-17.3218 Y-23.7092
G01 X-17.2935 Y-23.7531
G01 X-17.2544 Y-23.8122
G01 X-17.2288 Y-23.8495
G01 X-17.1957 Y-23.8965
G01 X-17.1691 Y-23.9332
G01 X-17.1309 Y-23.9844
G01 X-17.0994 Y-24.0253
G01 X-17.0677 Y-24.0654
G01 X-17.0229 Y-24.1203
G01 X-16.9896 Y-24.1598
G01 X-16.9561 Y-24.1984
G01 X-16.9179 Y-24.2414
G01 X-16.8731 Y-24.2905
G01 X-16.8363 Y-24.3297
G01 X-16.7938 Y-24.3736
G01 X-16.7559 Y-24.4117
G01 X-16.7218 Y-24.4450
G01 X-16.6829 Y-24.4821
G01 X-16.6430 Y-24.5190
G01 X-16.5876 Y-24.5688
G01 X-16.5469 Y-24.6040
G01 X-16.5054 Y-24.6391
G01 X-16.4637 Y-24.6732
G01 X-16.4213 Y-24.7070
G01 X-16.3753 Y-24.7427
G01 X-16.3336 Y-24.7740
G01 X-16.2792 Y-24.8136
G01 X-16.2345 Y-24.8451
G01 X-16.1890 Y-24.8763
G01 X-16.1435 Y-24.9065
G01 X-16.0941 Y-24.9382
G01 X-24.7601 Y-24.9382
G01 X-24.7073 Y-24.9087
G01 X-24.6561 Y-24.8790
G01 X-24.6058 Y-24.8489
G01 X-24.5445 Y-24.8107
G01 X-24.4948 Y-24.7786
G01 X-24.4464 Y-24.7463
G01 X-24.4021 Y-24.7158
G01 X-24.3455 Y-24.6756
G01 X-24.3001 Y-24.6422
G01 X-24.2548 Y-24.6079
G01 X-24.2104 Y-24.5732
G01 X-24.1564 Y-24.5296
G01 X-24.1175 Y-24.4972
G01 X-24.0700 Y-24.4564
G01 X-24.0173 Y-24.4097
G01 X-23.9745 Y-24.3707
G01 X-23.9303 Y-24.3293
G01 X-23.8960 Y-24.2962
G01 X-23.8483 Y-24.2489
G01 X-23.8103 Y-24.2100
G01 X-23.7733 Y-24.1710
G01 X-23.7229 Y-24.1161
G01 X-23.6868 Y-24.0755
G01 X-23.6429 Y-24.0245
G01 X-23.6124 Y-23.9880
G01 X-23.5742 Y-23.9410
G01 X-23.5364 Y-23.8931
G01 X-23.4969 Y-23.8412
G01 X-23.4609 Y-23.7923
G01 X-23.4323 Y-23.7524
G01 X-23.3940 Y-23.6971
G01 X-23.3635 Y-23.6517
G01 X-23.3335 Y-23.6055
G01 X-23.3043 Y-23.5592
G01 X-23.2693 Y-23.5017
G01 X-23.2445 Y-23.4594
G01 X-23.2027 Y-23.3859
G01 X-23.1808 Y-23.3461
G01 X-23.1536 Y-23.2951
G01 X-23.1241 Y-23.2375
G01 X-23.0927 Y-23.1736
G01 X-23.0681 Y-23.1213
G01 X-23.0440 Y-23.0682
G01 X-23.0210 Y-23.0152
G01 X-22.9937 Y-22.9494
G01 X-22.9745 Y-22.9012
G01 X-22.9517 Y-22.8412
G01 X-22.9329 Y-22.7894
G01 X-22.9097 Y-22.7219
G01 X-22.8939 Y-22.6735
G01 X-22.8785 Y-22.6244
G01 X-22.8604 Y-22.5634
G01 X-22.8465 Y-22.5139
G01 X-22.8285 Y-22.4457
G01 X-22.8148 Y-22.3901
G01 X-22.8018 Y-22.3338
G01 X-22.7911 Y-22.2841
G01 X-22.7809 Y-22.2337
G01 X-22.7674 Y-22.1624
G01 X-22.7550 Y-22.0907
G01 X-22.7466 Y-22.0367
G01 X-22.7391 Y-21.9830
G01 X-22.7308 Y-21.9168
G01 X-22.7242 Y-21.8565
G01 X-22.7197 Y-21.8085
G01 X-22.7162 Y-21.7660
G01 X-22.7128 Y-21.7179
G01 X-22.7100 Y-21.6694
G01 X-22.7077 Y-21.6212
G01 X-22.7059 Y-21.5666
G01 X-22.7050 Y-21.5230
G01 X-22.7045 Y-21.4630
G01 X-22.7045 Y-6.2195
G01 X-22.7056 Y-6.1325
G01 X-22.7071 Y-6.0840
G01 X-22.7091 Y-6.0350
G01 X-22.7114 Y-5.9936
G01 X-22.7146 Y-5.9447
G01 X-22.7189 Y-5.8894
G01 X-22.7231 Y-5.8441
G01 X-22.7331 Y-5.7511
G01 X-22.7387 Y-5.7058
G01 X-22.7457 Y-5.6547
G01 X-22.7514 Y-5.6159
G01 X-22.7596 Y-5.5650
G01 X-22.7674 Y-5.5200
G01 X-22.7768 Y-5.4693
G01 X-22.7871 Y-5.4183
G01 X-22.8022 Y-5.3485
G01 X-22.8154 Y-5.2920
G01 X-22.8279 Y-5.2415
G01 X-22.8419 Y-5.1882
G01 X-22.8573 Y-5.1329
G01 X-22.8772 Y-5.0657
G01 X-22.8923 Y-5.0174
G01 X-22.9082 Y-4.9688
G01 X-22.9288 Y-4.9090
G01 X-22.9439 Y-4.8668
G01 X-22.9639 Y-4.8135
G01 X-22.9895 Y-4.7482
G01 X-23.0065 Y-4.7068
G01 X-23.0313 Y-4.6486
G01 X-23.0528 Y-4.5993
G01 X-23.0719 Y-4.5573
G01 X-23.0968 Y-4.5042
G01 X-23.1170 Y-4.4627
G01 X-23.1495 Y-4.3982
G01 X-23.1768 Y-4.3463
G01 X-23.1989 Y-4.3058
G01 X-23.2243 Y-4.2603
G01 X-23.2540 Y-4.2091
G01 X-23.2807 Y-4.1644
G01 X-23.3084 Y-4.1196
G01 X-23.3363 Y-4.0756
G01 X-23.3709 Y-4.0228
G01 X-23.4029 Y-3.9757
G01 X-23.4352 Y-3.9295
G01 X-23.4684 Y-3.8834
G01 X-23.5020 Y-3.8381
G01 X-23.5443 Y-3.7831
G01 X-23.5718 Y-3.7483
G01 X-23.6074 Y-3.7046
G01 X-23.6439 Y-3.6610
G01 X-23.6808 Y-3.6183
G01 X-23.7254 Y-3.5680
G01 X-23.7669 Y-3.5225
G01 X-23.8037 Y-3.4833
G01 X-23.8462 Y-3.4394
G01 X-23.8841 Y-3.4013
G01 X-23.9182 Y-3.3680
G01 X-23.9620 Y-3.3263
G01 X-23.9970 Y-3.2940
G01 X-24.0369 Y-3.2579
G01 X-24.0931 Y-3.2090
G01 X-24.1295 Y-3.1782
G01 X-24.1763 Y-3.1398
G01 X-24.2187 Y-3.1060
G01 X-24.2623 Y-3.0722
G01 X-24.3064 Y-3.0390
G01 X-24.3456 Y-3.0103
G01 X-24.4005 Y-2.9714
G01 X-24.4409 Y-2.9436
G01 X-24.4914 Y-2.9098
G01 X-24.5275 Y-2.8865
G01 X-24.5738 Y-2.8573
G01 X-24.6313 Y-2.8223
G01 X-24.6736 Y-2.7975
G01 X-24.7476 Y-2.7554
G01 X-24.7877 Y-2.7334
G01 X-24.8390 Y-2.7060
G01 X-24.8797 Y-2.6850
G01 X-24.9259 Y-2.6619
G01 X-24.9671 Y-2.6420
G01 X-25.0139 Y-2.6200
G01 X-25.0497 Y-2.6038
G01 X-25.0970 Y-2.5829
G01 X-25.1391 Y-2.5650
G01 X-25.2109 Y-2.5357
G01 X-25.2565 Y-2.5180
G01 X-25.2973 Y-2.5027
G01 X-25.3447 Y-2.4855
G01 X-25.3949 Y-2.4681
G01 X-25.4775 Y-2.4411
G01 X-25.5225 Y-2.4272
G01 X-25.5671 Y-2.4140
G01 X-25.6380 Y-2.3943
G01 X-25.6830 Y-2.3825
G01 X-25.7351 Y-2.3696
G01 X-25.7804 Y-2.3589
G01 X-25.8264 Y-2.3488
G01 X-25.9130 Y-2.3311
G01 X-26.0066 Y-2.3140
G01 X-26.0542 Y-2.3061
G01 X-26.0963 Y-2.2996
G01 X-26.1440 Y-2.2929
G01 X-26.1863 Y-2.2874
G01 X-26.2341 Y-2.2817
G01 X-26.2765 Y-2.2772
G01 X-26.3245 Y-2.2727
G01 X-26.3670 Y-2.2692
G01 X-26.4151 Y-2.2658
G01 X-26.4576 Y-2.2633
G01 X-26.5057 Y-2.2610
G01 X-26.5544 Y-2.2592
G01 X-26.6435 Y-2.2577
G01 X-29.1268 Y-2.2575
G01 X-29.1268 Y2.2575
G01 X-26.6562 Y2.2576
G01 X-26.5795 Y2.2586
G01 X-26.5310 Y2.2601
G01 X-26.4820 Y2.2621
G01 X-26.3986 Y2.2671
G01 X-26.3157 Y2.2737
G01 X-26.2237 Y2.2831
G01 X-26.1720 Y2.2893
G01 X-26.1272 Y2.2951
G01 X-26.0566 Y2.3054
G01 X-26.0120 Y2.3126
G01 X-25.9670 Y2.3204
G01 X-25.8842 Y2.3362
G01 X-25.8337 Y2.3467
G01 X-25.7955 Y2.3552
G01 X-25.7202 Y2.3730
G01 X-25.6728 Y2.3849
G01 X-25.6322 Y2.3958
G01 X-25.5495 Y2.4192
G01 X-25.5066 Y2.4321
G01 X-25.4644 Y2.4453
G01 X-25.3978 Y2.4673
G01 X-25.3560 Y2.4818
G01 X-25.3079 Y2.4991
G01 X-25.2664 Y2.5146
G01 X-25.2246 Y2.5308
G01 X-25.1480 Y2.5619
G01 X-25.0582 Y2.6006
G01 X-25.0161 Y2.6195
G01 X-24.9747 Y2.6386
G01 X-24.9272 Y2.6614
G01 X-24.8805 Y2.6845
G01 X-24.8279 Y2.7115
G01 X-24.7818 Y2.7360
G01 X-24.7414 Y2.7582
G01 X-24.6960 Y2.7838
G01 X-24.6561 Y2.8070
G01 X-24.6058 Y2.8371
G01 X-24.5666 Y2.8614
G01 X-24.5226 Y2.8893
G01 X-24.4731 Y2.9217
G01 X-24.4227 Y2.9559
G01 X-24.3765 Y2.9882
G01 X-24.3405 Y3.0140
G01 X-24.2901 Y3.0513
G01 X-24.2498 Y3.0819
G01 X-24.1953 Y3.1248
G01 X-24.1564 Y3.1564
G01 X-24.1175 Y3.1888
G01 X-24.0794 Y3.2214
G01 X-24.0371 Y3.2587
G01 X-23.9966 Y3.2951
G01 X-23.9597 Y3.3291
G01 X-23.9157 Y3.3707
G01 X-23.8816 Y3.4039
G01 X-23.8436 Y3.4419
G01 X-23.8103 Y3.4760
G01 X-23.7733 Y3.5150
G01 X-23.7229 Y3.5699
G01 X-23.6912 Y3.6054
G01 X-23.6560 Y3.6461
G01 X-23.6252 Y3.6825
G01 X-23.5868 Y3.7293
G01 X-23.5550 Y3.7691
G01 X-23.5266 Y3.8057
G01 X-23.4896 Y3.8545
G01 X-23.4609 Y3.8937
G01 X-23.4323 Y3.9336
G01 X-23.3940 Y3.9889
G01 X-23.3669 Y4.0292
G01 X-23.3400 Y4.0703
G01 X-23.3075 Y4.1216
G01 X-23.2850 Y4.1583
G01 X-23.2570 Y4.2052
G01 X-23.2354 Y4.2424
G01 X-23.1996 Y4.3057
G01 X-23.1717 Y4.3568
G01 X-23.1477 Y4.4023
G01 X-23.1270 Y4.4428
G01 X-23.1013 Y4.4946
G01 X-23.0817 Y4.5356
G01 X-23.0519 Y4.6002
G01 X-23.0286 Y4.6531
G01 X-23.0108 Y4.6950
G01 X-22.9913 Y4.7425
G01 X-22.9745 Y4.7848
G01 X-22.9517 Y4.8448
G01 X-22.9340 Y4.8936
G01 X-22.9191 Y4.9365
G01 X-22.9017 Y4.9883
G01 X-22.8881 Y5.0307
G01 X-22.8730 Y5.0798
G01 X-22.8533 Y5.1475
G01 X-22.8399 Y5.1967
G01 X-22.8239 Y5.2588
G01 X-22.8104 Y5.3145
G01 X-22.7950 Y5.3833
G01 X-22.7846 Y5.4336
G01 X-22.7706 Y5.5062
G01 X-22.7600 Y5.5656
G01 X-22.7493 Y5.6314
G01 X-22.7399 Y5.6970
G01 X-22.7336 Y5.7453
G01 X-22.7255 Y5.8176
G01 X-22.7192 Y5.8835
G01 X-22.7140 Y5.9500
G01 X-22.7103 Y6.0106
G01 X-22.7077 Y6.0648
G01 X-22.7057 Y6.1266
G01 X-22.7047 Y6.1965
G01 X-22.7045 Y21.4630
G01 X-22.7056 Y21.5535
G01 X-22.7071 Y21.6020
G01 X-22.7091 Y21.6510
G01 X-22.7141 Y21.7344
G01 X-22.7189 Y21.7966
G01 X-22.7255 Y21.8660
G01 X-22.7331 Y21.9349
G01 X-22.7421 Y22.0058
G01 X-22.7514 Y22.0701
G01 X-22.7640 Y22.1469
G01 X-22.7768 Y22.2167
G01 X-22.7924 Y22.2930
G01 X-22.8036 Y22.3438
G01 X-22.8200 Y22.4128
G01 X-22.8386 Y22.4855
G01 X-22.8573 Y22.5531
G01 X-22.8791 Y22.6264
G01 X-22.9001 Y22.6927
G01 X-22.9225 Y22.7591
G01 X-22.9461 Y22.8251
G01 X-22.9732 Y22.8966
G01 X-22.9990 Y22.9612
G01 X-23.0268 Y23.0271
G01 X-23.0555 Y23.0927
G01 X-23.0884 Y23.1642
G01 X-23.1170 Y23.2233
G01 X-23.1495 Y23.2878
G01 X-23.1768 Y23.3397
G01 X-23.2084 Y23.3973
G01 X-23.2474 Y23.4656
G01 X-23.2841 Y23.5272
G01 X-23.3258 Y23.5940
G01 X-23.3633 Y23.6518
G01 X-23.4029 Y23.7103
G01 X-23.4424 Y23.7667
G01 X-23.4870 Y23.8279
G01 X-23.5251 Y23.8782
G01 X-23.5718 Y23.9377
G01 X-23.6154 Y23.9911
G01 X-23.6643 Y24.0488
G01 X-23.7103 Y24.1011
G01 X-23.7623 Y24.1585
G01 X-23.8130 Y24.2124
G01 X-23.8509 Y24.2514
G01 X-23.9085 Y24.3086
G01 X-23.9620 Y24.3597
G01 X-24.0169 Y24.4101
G01 X-24.0676 Y24.4551
G01 X-24.1136 Y24.4945
G01 X-24.1710 Y24.5419
G01 X-24.2187 Y24.5800
G01 X-24.2720 Y24.6212
G01 X-24.3308 Y24.6650
G01 X-24.3806 Y24.7007
G01 X-24.4409 Y24.7424
G01 X-24.4965 Y24.7795
G01 X-24.5583 Y24.8190
G01 X-24.6105 Y24.8511
G01 X-24.6736 Y24.8885
G01 X-24.7476 Y24.9306
G01 X-24.8048 Y24.9618
G01 X-24.8739 Y24.9980
G01 X-24.9376 Y25.0298
G01 X-25.0081 Y25.0632
G01 X-25.0674 Y25.0901
G01 X-25.1391 Y25.1210
G01 X-25.1957 Y25.1442
G01 X-25.1230 Y28.8425
G01 X-25.1186 Y28.8744
G01 X-25.1134 Y28.9189
G01 X-25.1109 Y28.9441
G01 X-25.1074 Y28.9887
G01 X-25.1006 Y29.1204
G01 X-25.0987 Y29.1779
G01 X-25.0987 Y29.2421
G01 X-25.1006 Y29.2996
G01 X-25.1074 Y29.4313
G01 X-25.1109 Y29.4759
G01 X-25.1155 Y29.5205
G01 X-25.1230 Y29.5775
G01 X-25.1396 Y29.6886
G01 X-25.1470 Y29.7328
G01 X-25.1555 Y29.7768
G01 X-25.1651 Y29.8205
G01 X-25.1726 Y29.8518
G01 X-25.2000 Y29.9608
G01 X-25.2050 Y29.9796
G01 X-25.2117 Y30.0040
G01 X-25.2171 Y30.0227
G01 X-25.2304 Y30.0655
G01 X-25.2446 Y30.1080
G01 X-25.2824 Y30.2138
G01 X-25.3027 Y30.2676
G01 X-25.3196 Y30.3091
G01 X-25.3375 Y30.3502
G01 X-25.3936 Y30.4695
G01 X-25.4077 Y30.4984
G01 X-25.4280 Y30.5383
G01 X-25.4493 Y30.5777
G01 X-25.4716 Y30.6166
G01 X-25.5293 Y30.7130
G01 X-25.5461 Y30.7404
G01 X-25.5597 Y30.7618
G01 X-25.5844 Y30.7992
G01 X-25.6100 Y30.8360
G01 X-25.6289 Y30.8620
G01 X-25.6959 Y30.9522
G01 X-25.7232 Y30.9877
G01 X-25.7515 Y31.0224
G01 X-25.7806 Y31.0565
G01 X-25.8019 Y31.0806
G01 X-25.8689 Y31.1544
G01 X-25.9082 Y31.1964
G01 X-25.9397 Y31.2282
G01 X-25.9720 Y31.2593
G01 X-26.0694 Y31.3481
G01 X-26.0935 Y31.3694
G01 X-26.1276 Y31.3985
G01 X-26.1471 Y31.4146
G01 X-26.1823 Y31.4423
G01 X-26.2079 Y31.4617
G01 X-26.2982 Y31.5286
G01 X-26.3508 Y31.5656
G01 X-26.3882 Y31.5903
G01 X-26.4096 Y31.6039
G01 X-26.5225 Y31.6719
G01 X-26.5502 Y31.6882
G01 X-26.5893 Y31.7101
G01 X-26.6117 Y31.7220
G01 X-26.6516 Y31.7423
G01 X-26.6805 Y31.7564
G01 X-26.7821 Y31.8044
G01 X-26.8409 Y31.8304
G01 X-26.8643 Y31.8401
G01 X-26.9060 Y31.8564
G01 X-26.9362 Y31.8676
G01 X-27.0420 Y31.9054
G01 X-27.1030 Y31.9255
G01 X-27.1273 Y31.9329
G01 X-27.1704 Y31.9450
G01 X-27.2015 Y31.9532
G01 X-27.3105 Y31.9804
G01 X-27.3732 Y31.9945
G01 X-27.4172 Y32.0030
G01 X-27.4422 Y32.0073
G01 X-27.4739 Y32.0123
G01 X-27.5851 Y32.0288
G01 X-27.6489 Y32.0366
G01 X-27.6935 Y32.0408
G01 X-27.7187 Y32.0426
G01 X-27.7508 Y32.0445
G01 X-27.8631 Y32.0500
G01 X-27.9273 Y32.0515
G01 X-27.9721 Y32.0513
G01 X-27.9975 Y32.0507
G01 X-28.0296 Y32.0494
G01 X-28.1418 Y32.0438
G01 X-28.2059 Y32.0391
G01 X-28.2311 Y32.0366
G01 X-28.2756 Y32.0314
G01 X-28.3075 Y32.0270
G01 X-28.4186 Y32.0104
G01 X-28.4819 Y31.9994
G01 X-28.5258 Y31.9904
G01 X-28.5505 Y31.9849
G01 X-28.5818 Y31.9774
G01 X-28.6908 Y31.9500
G01 X-28.7527 Y31.9329
G01 X-28.7955 Y31.9196
G01 X-28.8196 Y31.9117
G01 X-28.8500 Y31.9012
G01 X-28.9557 Y31.8632
G01 X-29.0157 Y31.8401
G01 X-29.0391 Y31.8304
G01 X-29.0802 Y31.8125
G01 X-29.1094 Y31.7990
G01 X-29.2109 Y31.7509
G01 X-29.2683 Y31.7220
G01 X-29.3077 Y31.7007
G01 X-29.3298 Y31.6882
G01 X-29.3575 Y31.6719
G01 X-29.4538 Y31.6141
G01 X-29.5082 Y31.5797
G01 X-29.5453 Y31.5546
G01 X-29.5660 Y31.5400
G01 X-29.5920 Y31.5211
G01 X-29.6822 Y31.4541
G01 X-29.7329 Y31.4146
G01 X-29.7524 Y31.3985
G01 X-29.7865 Y31.3694
G01 X-29.8106 Y31.3481
G01 X-29.8938 Y31.2726
G01 X-29.9403 Y31.2282
G01 X-29.9718 Y31.1964
G01 X-29.9893 Y31.1780
G01 X-30.0111 Y31.1544
G01 X-30.0865 Y31.0711
G01 X-30.1285 Y31.0224
G01 X-30.1446 Y31.0029
G01 X-30.1723 Y30.9677
G01 X-30.1917 Y30.9421
G01 X-30.2586 Y30.8518
G01 X-30.2956 Y30.7992
G01 X-30.3097 Y30.7782
G01 X-30.3339 Y30.7404
G01 X-30.3507 Y30.7130
G01 X-30.4084 Y30.6166
G01 X-30.4401 Y30.5607
G01 X-30.4610 Y30.5210
G01 X-30.4723 Y30.4984
G01 X-30.4864 Y30.4695
G01 X-30.5344 Y30.3679
G01 X-30.5604 Y30.3091
G01 X-30.5773 Y30.2676
G01 X-30.5932 Y30.2257
G01 X-30.6312 Y30.1200
G01 X-30.6417 Y30.0896
G01 X-30.6555 Y30.0470
G01 X-30.6629 Y30.0227
G01 X-30.6800 Y29.9608
G01 X-30.7074 Y29.8518
G01 X-30.7149 Y29.8205
G01 X-30.7204 Y29.7958
G01 X-30.7294 Y29.7519
G01 X-30.7404 Y29.6886
G01 X-30.7570 Y29.5775
G01 X-30.7614 Y29.5456
G01 X-30.7666 Y29.5011
G01 X-30.7691 Y29.4759
G01 X-30.7726 Y29.4313
G01 X-30.7794 Y29.2996
G01 X-30.7807 Y29.2675
G01 X-30.7815 Y29.2227
G01 X-30.7813 Y29.1779
G01 X-30.7807 Y29.1525
G01 X-30.7794 Y29.1204
G01 X-30.7738 Y29.0082
G01 X-30.7708 Y28.9635
G01 X-30.7666 Y28.9189
G01 X-30.7614 Y28.8744
G01 X-30.7570 Y28.8425
G01 X-30.7423 Y28.7439
G01 X-30.7330 Y28.6872
G01 X-30.7245 Y28.6432
G01 X-30.7149 Y28.5995
G01 X-30.7074 Y28.5682
G01 X-30.6800 Y28.4592
G01 X-30.6683 Y28.4160
G01 X-30.6555 Y28.3730
G01 X-30.6417 Y28.3304
G01 X-30.6312 Y28.3000
G01 X-30.5864 Y28.1760
G01 X-30.5773 Y28.1524
G01 X-30.5604 Y28.1109
G01 X-30.5344 Y28.0521
G01 X-30.4864 Y27.9505
G01 X-30.4723 Y27.9216
G01 X-30.4520 Y27.8817
G01 X-30.4307 Y27.8423
G01 X-30.4084 Y27.8034
G01 X-30.3507 Y27.7070
G01 X-30.3203 Y27.6582
G01 X-30.2956 Y27.6208
G01 X-30.2700 Y27.5840
G01 X-30.1917 Y27.4779
G01 X-30.1723 Y27.4523
G01 X-30.1446 Y27.4171
G01 X-30.1160 Y27.3826
G01 X-30.0865 Y27.3489
G01 X-30.0111 Y27.2656
G01 X-29.9893 Y27.2420
G01 X-29.9582 Y27.2097
G01 X-29.9264 Y27.1782
G01 X-29.8844 Y27.1389
G01 X-29.8106 Y27.0719
G01 X-29.7865 Y27.0506
G01 X-29.7524 Y27.0215
G01 X-29.7329 Y27.0054
G01 X-29.6977 Y26.9777
G01 X-29.6721 Y26.9583
G01 X-29.5818 Y26.8914
G01 X-29.5453 Y26.8654
G01 X-29.5082 Y26.8403
G01 X-29.4704 Y26.8161
G01 X-29.4430 Y26.7993
G01 X-29.3298 Y26.7318
G01 X-29.2907 Y26.7099
G01 X-29.2510 Y26.6890
G01 X-29.2284 Y26.6777
G01 X-29.1995 Y26.6636
G01 X-29.0979 Y26.6156
G01 X-29.0570 Y26.5973
G01 X-29.0157 Y26.5799
G01 X-28.9740 Y26.5636
G01 X-28.9438 Y26.5524
G01 X-28.8500 Y26.5188
G01 X-28.7955 Y26.5004
G01 X-28.7527 Y26.4871
G01 X-28.7096 Y26.4750
G01 X-28.6785 Y26.4668
G01 X-28.5695 Y26.4396
G01 X-28.5258 Y26.4296
G01 X-28.4819 Y26.4206
G01 X-28.4186 Y26.4096
G01 X-28.3075 Y26.3930
G01 X-28.2756 Y26.3886
G01 X-28.2311 Y26.3834
G01 X-28.2059 Y26.3809
G01 X-28.1613 Y26.3774
G01 X-28.1292 Y26.3755
G01 X-28.0296 Y26.3706
G01 X-27.9721 Y26.3687
G01 X-27.9273 Y26.3685
G01 X-27.8825 Y26.3693
G01 X-27.8504 Y26.3706
G01 X-27.7382 Y26.3762
G01 X-27.6935 Y26.3792
G01 X-27.6489 Y26.3834
G01 X-27.5851 Y26.3912
G01 X-27.4739 Y26.4077
G01 X-27.4422 Y26.4127
G01 X-27.3981 Y26.4206
G01 X-27.3732 Y26.4255
G01 X-27.3295 Y26.4351
G01 X-27.2982 Y26.4426
G01 X-27.1892 Y26.4700
G01 X-27.1273 Y26.4871
G01 X-27.0845 Y26.5004
G01 X-27.0420 Y26.5146
G01 X-26.9362 Y26.5524
G01 X-26.9060 Y26.5636
G01 X-26.8643 Y26.5799
G01 X-26.8409 Y26.5896
G01 X-26.7821 Y26.6156
G01 X-26.6805 Y26.6636
G01 X-26.6516 Y26.6777
G01 X-26.6117 Y26.6980
G01 X-26.5893 Y26.7099
G01 X-26.5502 Y26.7318
G01 X-26.5225 Y26.7481
G01 X-26.4370 Y26.7993
G01 X-26.3882 Y26.8297
G01 X-26.3347 Y26.8654
G01 X-26.2982 Y26.8914
G01 X-26.1978 Y26.9659
G01 X-26.1471 Y27.0054
G01 X-26.1126 Y27.0340
G01 X-26.0694 Y27.0719
G01 X-25.9720 Y27.1607
G01 X-25.9397 Y27.1918
G01 X-25.9218 Y27.2097
G01 X-25.8774 Y27.2562
G01 X-25.7935 Y27.3489
G01 X-25.7515 Y27.3976
G01 X-25.7232 Y27.4323
G01 X-25.6883 Y27.4779
G01 X-25.6100 Y27.5840
G01 X-25.5844 Y27.6208
G01 X-25.5703 Y27.6418
G01 X-25.5461 Y27.6796
G01 X-25.4781 Y27.7925
G01 X-25.4618 Y27.8202
G01 X-25.4399 Y27.8593
G01 X-25.4190 Y27.8990
G01 X-25.4077 Y27.9216
G01 X-25.3510 Y28.0406
G01 X-25.3273 Y28.0930
G01 X-25.3027 Y28.1524
G01 X-25.2824 Y28.2062
G01 X-25.2446 Y28.3120
G01 X-25.2245 Y28.3730
G01 X-25.2171 Y28.3973
G01 X-25.2050 Y28.4404
G01 X-25.1726 Y28.5682
G01 X-25.1596 Y28.6242
G01 X-25.1470 Y28.6872
G01 X-25.1377 Y28.7439
G01 X-25.1230 Y28.8425
G01 X-26.1437 Y28.9939
G01 X-26.1411 Y29.0133
G01 X-26.1373 Y29.0520
G01 X-26.1312 Y29.1711
G01 X-26.1302 Y29.2100
G01 X-26.1312 Y29.2489
G01 X-26.1361 Y29.3485
G01 X-26.1390 Y29.3874
G01 X-26.1437 Y29.4261
G01 X-26.1584 Y29.5247
G01 X-26.1650 Y29.5631
G01 X-26.1736 Y29.6011
G01 X-26.2028 Y29.7166
G01 X-26.2141 Y29.7539
G01 X-26.2204 Y29.7723
G01 X-26.2540 Y29.8662
G01 X-26.2680 Y29.9026
G01 X-26.2838 Y29.9382
G01 X-26.3264 Y30.0283
G01 X-26.3350 Y30.0458
G01 X-26.3533 Y30.0802
G01 X-26.4246 Y30.1991
G01 X-26.4463 Y30.2315
G01 X-26.4577 Y30.2473
G01 X-26.5171 Y30.3274
G01 X-26.5410 Y30.3581
G01 X-26.5665 Y30.3876
G01 X-26.6334 Y30.4615
G01 X-26.6603 Y30.4897
G01 X-26.6743 Y30.5033
G01 X-26.7770 Y30.5964
G01 X-26.7919 Y30.6090
G01 X-26.8226 Y30.6329
G01 X-26.9027 Y30.6923
G01 X-26.9346 Y30.7148
G01 X-26.9675 Y30.7356
G01 X-27.0530 Y30.7869
G01 X-27.0869 Y30.8061
G01 X-27.1042 Y30.8150
G01 X-27.2118 Y30.8662
G01 X-27.2474 Y30.8820
G01 X-27.2838 Y30.8960
G01 X-27.3777 Y30.9296
G01 X-27.4147 Y30.9418
G01 X-27.4522 Y30.9522
G01 X-27.5679 Y30.9809
G01 X-27.6061 Y30.9885
G01 X-27.6253 Y30.9916
G01 X-27.7239 Y31.0063
G01 X-27.7626 Y31.0110
G01 X-27.8015 Y31.0139
G01 X-27.9011 Y31.0188
G01 X-27.9205 Y31.0195
G01 X-27.9595 Y31.0195
G01 X-28.0785 Y31.0139
G01 X-28.1174 Y31.0110
G01 X-28.1561 Y31.0063
G01 X-28.2547 Y30.9916
G01 X-28.2739 Y30.9885
G01 X-28.3121 Y30.9809
G01 X-28.4466 Y30.9472
G01 X-28.4839 Y30.9359
G01 X-28.5023 Y30.9296
G01 X-28.5962 Y30.8960
G01 X-28.6326 Y30.8820
G01 X-28.6682 Y30.8662
G01 X-28.7583 Y30.8236
G01 X-28.7758 Y30.8150
G01 X-28.8102 Y30.7967
G01 X-28.9125 Y30.7356
G01 X-28.9454 Y30.7148
G01 X-28.9773 Y30.6923
G01 X-29.0574 Y30.6329
G01 X-29.0881 Y30.6090
G01 X-29.1030 Y30.5964
G01 X-29.1915 Y30.5166
G01 X-29.2197 Y30.4897
G01 X-29.2466 Y30.4615
G01 X-29.3135 Y30.3876
G01 X-29.3390 Y30.3581
G01 X-29.3511 Y30.3429
G01 X-29.4337 Y30.2315
G01 X-29.4448 Y30.2154
G01 X-29.4656 Y30.1825
G01 X-29.5169 Y30.0970
G01 X-29.5361 Y30.0631
G01 X-29.5536 Y30.0283
G01 X-29.6043 Y29.9205
G01 X-29.6120 Y29.9026
G01 X-29.6260 Y29.8662
G01 X-29.6596 Y29.7723
G01 X-29.6718 Y29.7353
G01 X-29.6822 Y29.6978
G01 X-29.7064 Y29.6011
G01 X-29.7150 Y29.5631
G01 X-29.7216 Y29.5247
G01 X-29.7363 Y29.4261
G01 X-29.7410 Y29.3874
G01 X-29.7439 Y29.3485
G01 X-29.7488 Y29.2489
G01 X-29.7498 Y29.2100
G01 X-29.7488 Y29.1711
G01 X-29.7427 Y29.0520
G01 X-29.7389 Y29.0133
G01 X-29.7363 Y28.9939
G01 X-29.7216 Y28.8953
G01 X-29.7150 Y28.8569
G01 X-29.7064 Y28.8189
G01 X-29.6822 Y28.7222
G01 X-29.6718 Y28.6847
G01 X-29.6596 Y28.6477
G01 X-29.6260 Y28.5538
G01 X-29.6120 Y28.5174
G01 X-29.5962 Y28.4818
G01 X-29.5536 Y28.3917
G01 X-29.5361 Y28.3569
G01 X-29.5169 Y28.3230
G01 X-29.4554 Y28.2209
G01 X-29.4337 Y28.1885
G01 X-29.4223 Y28.1727
G01 X-29.3629 Y28.0926
G01 X-29.3390 Y28.0619
G01 X-29.3135 Y28.0324
G01 X-29.2466 Y27.9585
G01 X-29.2197 Y27.9303
G01 X-29.1915 Y27.9034
G01 X-29.1176 Y27.8365
G01 X-29.0881 Y27.8110
G01 X-29.0574 Y27.7871
G01 X-28.9773 Y27.7277
G01 X-28.9615 Y27.7163
G01 X-28.9291 Y27.6946
G01 X-28.8270 Y27.6331
G01 X-28.7931 Y27.6139
G01 X-28.7583 Y27.5964
G01 X-28.6682 Y27.5538
G01 X-28.6326 Y27.5380
G01 X-28.5962 Y27.5240
G01 X-28.5023 Y27.4904
G01 X-28.4653 Y27.4782
G01 X-28.4278 Y27.4678
G01 X-28.3311 Y27.4436
G01 X-28.2931 Y27.4350
G01 X-28.2547 Y27.4284
G01 X-28.1561 Y27.4137
G01 X-28.1174 Y27.4090
G01 X-28.0785 Y27.4061
G01 X-27.9595 Y27.4005
G01 X-27.9205 Y27.4005
G01 X-27.8015 Y27.4061
G01 X-27.7626 Y27.4090
G01 X-27.7239 Y27.4137
G01 X-27.6061 Y27.4315
G01 X-27.5679 Y27.4391
G01 X-27.4522 Y27.4678
G01 X-27.4147 Y27.4782
G01 X-27.3777 Y27.4904
G01 X-27.2838 Y27.5240
G01 X-27.2474 Y27.5380
G01 X-27.2118 Y27.5538
G01 X-27.1217 Y27.5964
G01 X-27.0869 Y27.6139
G01 X-27.0530 Y27.6331
G01 X-26.9675 Y27.6844
G01 X-26.9346 Y27.7052
G01 X-26.9027 Y27.7277
G01 X-26.8071 Y27.7989
G01 X-26.7919 Y27.8110
G01 X-26.7624 Y27.8365
G01 X-26.6885 Y27.9034
G01 X-26.6603 Y27.9303
G01 X-26.6334 Y27.9585
G01 X-26.5665 Y28.0324
