(G-CODE GENERATED BY FLATCAM v8.994 - www.flatcam.org - Version Date: 2020/11/7)

(Name: drill_1_16.xln_mill_cnc)
(Type: G-code from Geometry)
(Units: MM)

(Created on Sunday, 03 April 2022 at 13:11)


G01 F400.00

M5
G00 Z15.0000
G00 X0.0000 Y0.0000
T2
M6    
(MSG, Change to Tool Dia = 1.0000)
M0
G00 Z15.0000

M03 S29000.0
G01 F400.00
G00 X41.9180 Y17.7800
G01 F100.00
G01 Z-0.2500
G01 F400.00
G01 X41.9174 Y17.7769
G01 X41.9157 Y17.7743
G01 X41.9131 Y17.7726
G01 X41.9100 Y17.7720
G01 X41.9069 Y17.7726
G01 X41.9043 Y17.7743
G01 X41.9026 Y17.7769
G01 X41.9020 Y17.7800
G01 X41.9026 Y17.7831
G01 X41.9043 Y17.7857
G01 X41.9069 Y17.7874
G01 X41.9100 Y17.7880
G01 X41.9131 Y17.7874
G01 X41.9157 Y17.7857
G01 X41.9174 Y17.7831
G01 X41.9180 Y17.7800
G00 X41.9180 Y17.7800
G01 F100.00
G01 Z-0.5000
G01 F400.00
G01 X41.9174 Y17.7769
G01 X41.9157 Y17.7743
G01 X41.9131 Y17.7726
G01 X41.9100 Y17.7720
G01 X41.9069 Y17.7726
G01 X41.9043 Y17.7743
G01 X41.9026 Y17.7769
G01 X41.9020 Y17.7800
G01 X41.9026 Y17.7831
G01 X41.9043 Y17.7857
G01 X41.9069 Y17.7874
G01 X41.9100 Y17.7880
G01 X41.9131 Y17.7874
G01 X41.9157 Y17.7857
G01 X41.9174 Y17.7831
G01 X41.9180 Y17.7800
G00 X41.9180 Y17.7800
G01 F100.00
G01 Z-0.7500
G01 F400.00
G01 X41.9174 Y17.7769
G01 X41.9157 Y17.7743
G01 X41.9131 Y17.7726
G01 X41.9100 Y17.7720
G01 X41.9069 Y17.7726
G01 X41.9043 Y17.7743
G01 X41.9026 Y17.7769
G01 X41.9020 Y17.7800
G01 X41.9026 Y17.7831
G01 X41.9043 Y17.7857
G01 X41.9069 Y17.7874
G01 X41.9100 Y17.7880
G01 X41.9131 Y17.7874
G01 X41.9157 Y17.7857
G01 X41.9174 Y17.7831
G01 X41.9180 Y17.7800
G00 X41.9180 Y17.7800
G01 F100.00
G01 Z-1.0000
G01 F400.00
G01 X41.9174 Y17.7769
G01 X41.9157 Y17.7743
G01 X41.9131 Y17.7726
G01 X41.9100 Y17.7720
G01 X41.9069 Y17.7726
G01 X41.9043 Y17.7743
G01 X41.9026 Y17.7769
G01 X41.9020 Y17.7800
G01 X41.9026 Y17.7831
G01 X41.9043 Y17.7857
G01 X41.9069 Y17.7874
G01 X41.9100 Y17.7880
G01 X41.9131 Y17.7874
G01 X41.9157 Y17.7857
G01 X41.9174 Y17.7831
G01 X41.9180 Y17.7800
G00 X41.9180 Y17.7800
G01 F100.00
G01 Z-1.2500
G01 F400.00
G01 X41.9174 Y17.7769
G01 X41.9157 Y17.7743
G01 X41.9131 Y17.7726
G01 X41.9100 Y17.7720
G01 X41.9069 Y17.7726
G01 X41.9043 Y17.7743
G01 X41.9026 Y17.7769
G01 X41.9020 Y17.7800
G01 X41.9026 Y17.7831
G01 X41.9043 Y17.7857
G01 X41.9069 Y17.7874
G01 X41.9100 Y17.7880
G01 X41.9131 Y17.7874
G01 X41.9157 Y17.7857
G01 X41.9174 Y17.7831
G01 X41.9180 Y17.7800
G00 X41.9180 Y17.7800
G01 F100.00
G01 Z-1.5000
G01 F400.00
G01 X41.9174 Y17.7769
G01 X41.9157 Y17.7743
G01 X41.9131 Y17.7726
G01 X41.9100 Y17.7720
G01 X41.9069 Y17.7726
G01 X41.9043 Y17.7743
G01 X41.9026 Y17.7769
G01 X41.9020 Y17.7800
G01 X41.9026 Y17.7831
G01 X41.9043 Y17.7857
G01 X41.9069 Y17.7874
G01 X41.9100 Y17.7880
G01 X41.9131 Y17.7874
G01 X41.9157 Y17.7857
G01 X41.9174 Y17.7831
G01 X41.9180 Y17.7800
G00 X41.9180 Y17.7800
G01 F100.00
G01 Z-1.7000
G01 F400.00
G01 X41.9174 Y17.7769
G01 X41.9157 Y17.7743
G01 X41.9131 Y17.7726
G01 X41.9100 Y17.7720
G01 X41.9069 Y17.7726
G01 X41.9043 Y17.7743
G01 X41.9026 Y17.7769
G01 X41.9020 Y17.7800
G01 X41.9026 Y17.7831
G01 X41.9043 Y17.7857
G01 X41.9069 Y17.7874
G01 X41.9100 Y17.7880
G01 X41.9131 Y17.7874
G01 X41.9157 Y17.7857
G01 X41.9174 Y17.7831
G01 X41.9180 Y17.7800
G00 Z3.0000
G00 X41.9180 Y20.3200
G01 F100.00
G01 Z-0.2500
G01 F400.00
G01 X41.9174 Y20.3169
G01 X41.9157 Y20.3143
G01 X41.9131 Y20.3126
G01 X41.9100 Y20.3120
G01 X41.9069 Y20.3126
G01 X41.9043 Y20.3143
G01 X41.9026 Y20.3169
G01 X41.9020 Y20.3200
G01 X41.9026 Y20.3231
G01 X41.9043 Y20.3257
G01 X41.9069 Y20.3274
G01 X41.9100 Y20.3280
G01 X41.9131 Y20.3274
G01 X41.9157 Y20.3257
G01 X41.9174 Y20.3231
G01 X41.9180 Y20.3200
G00 X41.9180 Y20.3200
G01 F100.00
G01 Z-0.5000
G01 F400.00
G01 X41.9174 Y20.3169
G01 X41.9157 Y20.3143
G01 X41.9131 Y20.3126
G01 X41.9100 Y20.3120
G01 X41.9069 Y20.3126
G01 X41.9043 Y20.3143
G01 X41.9026 Y20.3169
G01 X41.9020 Y20.3200
G01 X41.9026 Y20.3231
G01 X41.9043 Y20.3257
G01 X41.9069 Y20.3274
G01 X41.9100 Y20.3280
G01 X41.9131 Y20.3274
G01 X41.9157 Y20.3257
G01 X41.9174 Y20.3231
G01 X41.9180 Y20.3200
G00 X41.9180 Y20.3200
G01 F100.00
G01 Z-0.7500
G01 F400.00
G01 X41.9174 Y20.3169
G01 X41.9157 Y20.3143
G01 X41.9131 Y20.3126
G01 X41.9100 Y20.3120
G01 X41.9069 Y20.3126
G01 X41.9043 Y20.3143
G01 X41.9026 Y20.3169
G01 X41.9020 Y20.3200
G01 X41.9026 Y20.3231
G01 X41.9043 Y20.3257
G01 X41.9069 Y20.3274
G01 X41.9100 Y20.3280
G01 X41.9131 Y20.3274
G01 X41.9157 Y20.3257
G01 X41.9174 Y20.3231
G01 X41.9180 Y20.3200
G00 X41.9180 Y20.3200
G01 F100.00
G01 Z-1.0000
G01 F400.00
G01 X41.9174 Y20.3169
G01 X41.9157 Y20.3143
G01 X41.9131 Y20.3126
G01 X41.9100 Y20.3120
G01 X41.9069 Y20.3126
G01 X41.9043 Y20.3143
G01 X41.9026 Y20.3169
G01 X41.9020 Y20.3200
G01 X41.9026 Y20.3231
G01 X41.9043 Y20.3257
G01 X41.9069 Y20.3274
G01 X41.9100 Y20.3280
G01 X41.9131 Y20.3274
G01 X41.9157 Y20.3257
G01 X41.9174 Y20.3231
G01 X41.9180 Y20.3200
G00 X41.9180 Y20.3200
G01 F100.00
G01 Z-1.2500
G01 F400.00
G01 X41.9174 Y20.3169
G01 X41.9157 Y20.3143
G01 X41.9131 Y20.3126
G01 X41.9100 Y20.3120
G01 X41.9069 Y20.3126
G01 X41.9043 Y20.3143
G01 X41.9026 Y20.3169
G01 X41.9020 Y20.3200
G01 X41.9026 Y20.3231
G01 X41.9043 Y20.3257
G01 X41.9069 Y20.3274
G01 X41.9100 Y20.3280
G01 X41.9131 Y20.3274
G01 X41.9157 Y20.3257
G01 X41.9174 Y20.3231
G01 X41.9180 Y20.3200
G00 X41.9180 Y20.3200
G01 F100.00
G01 Z-1.5000
G01 F400.00
G01 X41.9174 Y20.3169
G01 X41.9157 Y20.3143
G01 X41.9131 Y20.3126
G01 X41.9100 Y20.3120
G01 X41.9069 Y20.3126
G01 X41.9043 Y20.3143
G01 X41.9026 Y20.3169
G01 X41.9020 Y20.3200
G01 X41.9026 Y20.3231
G01 X41.9043 Y20.3257
G01 X41.9069 Y20.3274
G01 X41.9100 Y20.3280
G01 X41.9131 Y20.3274
G01 X41.9157 Y20.3257
G01 X41.9174 Y20.3231
G01 X41.9180 Y20.3200
G00 X41.9180 Y20.3200
G01 F100.00
G01 Z-1.7000
G01 F400.00
G01 X41.9174 Y20.3169
G01 X41.9157 Y20.3143
G01 X41.9131 Y20.3126
G01 X41.9100 Y20.3120
G01 X41.9069 Y20.3126
G01 X41.9043 Y20.3143
G01 X41.9026 Y20.3169
G01 X41.9020 Y20.3200
G01 X41.9026 Y20.3231
G01 X41.9043 Y20.3257
G01 X41.9069 Y20.3274
G01 X41.9100 Y20.3280
G01 X41.9131 Y20.3274
G01 X41.9157 Y20.3257
G01 X41.9174 Y20.3231
G01 X41.9180 Y20.3200
G00 Z3.0000
G00 X41.9180 Y22.8600
G01 F100.00
G01 Z-0.2500
G01 F400.00
G01 X41.9174 Y22.8569
G01 X41.9157 Y22.8543
G01 X41.9131 Y22.8526
G01 X41.9100 Y22.8520
G01 X41.9069 Y22.8526
G01 X41.9043 Y22.8543
G01 X41.9026 Y22.8569
G01 X41.9020 Y22.8600
G01 X41.9026 Y22.8631
G01 X41.9043 Y22.8657
G01 X41.9069 Y22.8674
G01 X41.9100 Y22.8680
G01 X41.9131 Y22.8674
G01 X41.9157 Y22.8657
G01 X41.9174 Y22.8631
G01 X41.9180 Y22.8600
G00 X41.9180 Y22.8600
G01 F100.00
G01 Z-0.5000
G01 F400.00
G01 X41.9174 Y22.8569
G01 X41.9157 Y22.8543
G01 X41.9131 Y22.8526
G01 X41.9100 Y22.8520
G01 X41.9069 Y22.8526
G01 X41.9043 Y22.8543
G01 X41.9026 Y22.8569
G01 X41.9020 Y22.8600
G01 X41.9026 Y22.8631
G01 X41.9043 Y22.8657
G01 X41.9069 Y22.8674
G01 X41.9100 Y22.8680
G01 X41.9131 Y22.8674
G01 X41.9157 Y22.8657
G01 X41.9174 Y22.8631
G01 X41.9180 Y22.8600
G00 X41.9180 Y22.8600
G01 F100.00
G01 Z-0.7500
G01 F400.00
G01 X41.9174 Y22.8569
G01 X41.9157 Y22.8543
G01 X41.9131 Y22.8526
G01 X41.9100 Y22.8520
G01 X41.9069 Y22.8526
G01 X41.9043 Y22.8543
G01 X41.9026 Y22.8569
G01 X41.9020 Y22.8600
G01 X41.9026 Y22.8631
G01 X41.9043 Y22.8657
G01 X41.9069 Y22.8674
G01 X41.9100 Y22.8680
G01 X41.9131 Y22.8674
G01 X41.9157 Y22.8657
G01 X41.9174 Y22.8631
G01 X41.9180 Y22.8600
G00 X41.9180 Y22.8600
G01 F100.00
G01 Z-1.0000
G01 F400.00
G01 X41.9174 Y22.8569
G01 X41.9157 Y22.8543
G01 X41.9131 Y22.8526
G01 X41.9100 Y22.8520
G01 X41.9069 Y22.8526
G01 X41.9043 Y22.8543
G01 X41.9026 Y22.8569
G01 X41.9020 Y22.8600
G01 X41.9026 Y22.8631
G01 X41.9043 Y22.8657
G01 X41.9069 Y22.8674
G01 X41.9100 Y22.8680
G01 X41.9131 Y22.8674
G01 X41.9157 Y22.8657
G01 X41.9174 Y22.8631
G01 X41.9180 Y22.8600
G00 X41.9180 Y22.8600
G01 F100.00
G01 Z-1.2500
G01 F400.00
G01 X41.9174 Y22.8569
G01 X41.9157 Y22.8543
G01 X41.9131 Y22.8526
G01 X41.9100 Y22.8520
G01 X41.9069 Y22.8526
G01 X41.9043 Y22.8543
G01 X41.9026 Y22.8569
G01 X41.9020 Y22.8600
G01 X41.9026 Y22.8631
G01 X41.9043 Y22.8657
G01 X41.9069 Y22.8674
G01 X41.9100 Y22.8680
G01 X41.9131 Y22.8674
G01 X41.9157 Y22.8657
G01 X41.9174 Y22.8631
G01 X41.9180 Y22.8600
G00 X41.9180 Y22.8600
G01 F100.00
G01 Z-1.5000
G01 F400.00
G01 X41.9174 Y22.8569
G01 X41.9157 Y22.8543
G01 X41.9131 Y22.8526
G01 X41.9100 Y22.8520
G01 X41.9069 Y22.8526
G01 X41.9043 Y22.8543
G01 X41.9026 Y22.8569
G01 X41.9020 Y22.8600
G01 X41.9026 Y22.8631
G01 X41.9043 Y22.8657
G01 X41.9069 Y22.8674
G01 X41.9100 Y22.8680
G01 X41.9131 Y22.8674
G01 X41.9157 Y22.8657
G01 X41.9174 Y22.8631
G01 X41.9180 Y22.8600
G00 X41.9180 Y22.8600
G01 F100.00
G01 Z-1.7000
G01 F400.00
G01 X41.9174 Y22.8569
G01 X41.9157 Y22.8543
G01 X41.9131 Y22.8526
G01 X41.9100 Y22.8520
G01 X41.9069 Y22.8526
G01 X41.9043 Y22.8543
G01 X41.9026 Y22.8569
G01 X41.9020 Y22.8600
G01 X41.9026 Y22.8631
G01 X41.9043 Y22.8657
G01 X41.9069 Y22.8674
G01 X41.9100 Y22.8680
G01 X41.9131 Y22.8674
G01 X41.9157 Y22.8657
G01 X41.9174 Y22.8631
G01 X41.9180 Y22.8600
G00 Z3.0000
G00 X41.9180 Y25.4000
G01 F100.00
G01 Z-0.2500
G01 F400.00
G01 X41.9174 Y25.3969
G01 X41.9157 Y25.3943
G01 X41.9131 Y25.3926
G01 X41.9100 Y25.3920
G01 X41.9069 Y25.3926
G01 X41.9043 Y25.3943
G01 X41.9026 Y25.3969
G01 X41.9020 Y25.4000
G01 X41.9026 Y25.4031
G01 X41.9043 Y25.4057
G01 X41.9069 Y25.4074
G01 X41.9100 Y25.4080
G01 X41.9131 Y25.4074
G01 X41.9157 Y25.4057
G01 X41.9174 Y25.4031
G01 X41.9180 Y25.4000
G00 X41.9180 Y25.4000
G01 F100.00
G01 Z-0.5000
G01 F400.00
G01 X41.9174 Y25.3969
G01 X41.9157 Y25.3943
G01 X41.9131 Y25.3926
G01 X41.9100 Y25.3920
G01 X41.9069 Y25.3926
G01 X41.9043 Y25.3943
G01 X41.9026 Y25.3969
G01 X41.9020 Y25.4000
G01 X41.9026 Y25.4031
G01 X41.9043 Y25.4057
G01 X41.9069 Y25.4074
G01 X41.9100 Y25.4080
G01 X41.9131 Y25.4074
G01 X41.9157 Y25.4057
G01 X41.9174 Y25.4031
G01 X41.9180 Y25.4000
G00 X41.9180 Y25.4000
G01 F100.00
G01 Z-0.7500
G01 F400.00
G01 X41.9174 Y25.3969
G01 X41.9157 Y25.3943
G01 X41.9131 Y25.3926
G01 X41.9100 Y25.3920
G01 X41.9069 Y25.3926
G01 X41.9043 Y25.3943
G01 X41.9026 Y25.3969
G01 X41.9020 Y25.4000
G01 X41.9026 Y25.4031
G01 X41.9043 Y25.4057
G01 X41.9069 Y25.4074
G01 X41.9100 Y25.4080
G01 X41.9131 Y25.4074
G01 X41.9157 Y25.4057
G01 X41.9174 Y25.4031
G01 X41.9180 Y25.4000
G00 X41.9180 Y25.4000
G01 F100.00
G01 Z-1.0000
G01 F400.00
G01 X41.9174 Y25.3969
G01 X41.9157 Y25.3943
G01 X41.9131 Y25.3926
G01 X41.9100 Y25.3920
G01 X41.9069 Y25.3926
G01 X41.9043 Y25.3943
G01 X41.9026 Y25.3969
G01 X41.9020 Y25.4000
G01 X41.9026 Y25.4031
G01 X41.9043 Y25.4057
G01 X41.9069 Y25.4074
G01 X41.9100 Y25.4080
G01 X41.9131 Y25.4074
G01 X41.9157 Y25.4057
G01 X41.9174 Y25.4031
G01 X41.9180 Y25.4000
G00 X41.9180 Y25.4000
G01 F100.00
G01 Z-1.2500
G01 F400.00
G01 X41.9174 Y25.3969
G01 X41.9157 Y25.3943
G01 X41.9131 Y25.3926
G01 X41.9100 Y25.3920
G01 X41.9069 Y25.3926
G01 X41.9043 Y25.3943
G01 X41.9026 Y25.3969
G01 X41.9020 Y25.4000
G01 X41.9026 Y25.4031
G01 X41.9043 Y25.4057
G01 X41.9069 Y25.4074
G01 X41.9100 Y25.4080
G01 X41.9131 Y25.4074
G01 X41.9157 Y25.4057
G01 X41.9174 Y25.4031
G01 X41.9180 Y25.4000
G00 X41.9180 Y25.4000
G01 F100.00
G01 Z-1.5000
G01 F400.00
G01 X41.9174 Y25.3969
G01 X41.9157 Y25.3943
G01 X41.9131 Y25.3926
G01 X41.9100 Y25.3920
G01 X41.9069 Y25.3926
G01 X41.9043 Y25.3943
G01 X41.9026 Y25.3969
G01 X41.9020 Y25.4000
G01 X41.9026 Y25.4031
G01 X41.9043 Y25.4057
G01 X41.9069 Y25.4074
G01 X41.9100 Y25.4080
G01 X41.9131 Y25.4074
G01 X41.9157 Y25.4057
G01 X41.9174 Y25.4031
G01 X41.9180 Y25.4000
G00 X41.9180 Y25.4000
G01 F100.00
G01 Z-1.7000
G01 F400.00
G01 X41.9174 Y25.3969
G01 X41.9157 Y25.3943
G01 X41.9131 Y25.3926
G01 X41.9100 Y25.3920
G01 X41.9069 Y25.3926
G01 X41.9043 Y25.3943
G01 X41.9026 Y25.3969
G01 X41.9020 Y25.4000
G01 X41.9026 Y25.4031
G01 X41.9043 Y25.4057
G01 X41.9069 Y25.4074
G01 X41.9100 Y25.4080
G01 X41.9131 Y25.4074
G01 X41.9157 Y25.4057
G01 X41.9174 Y25.4031
G01 X41.9180 Y25.4000
G00 Z3.0000
G00 X41.9180 Y27.9400
G01 F100.00
G01 Z-0.2500
G01 F400.00
G01 X41.9174 Y27.9369
G01 X41.9157 Y27.9343
G01 X41.9131 Y27.9326
G01 X41.9100 Y27.9320
G01 X41.9069 Y27.9326
G01 X41.9043 Y27.9343
G01 X41.9026 Y27.9369
G01 X41.9020 Y27.9400
G01 X41.9026 Y27.9431
G01 X41.9043 Y27.9457
G01 X41.9069 Y27.9474
G01 X41.9100 Y27.9480
G01 X41.9131 Y27.9474
G01 X41.9157 Y27.9457
G01 X41.9174 Y27.9431
G01 X41.9180 Y27.9400
G00 X41.9180 Y27.9400
G01 F100.00
G01 Z-0.5000
G01 F400.00
G01 X41.9174 Y27.9369
G01 X41.9157 Y27.9343
G01 X41.9131 Y27.9326
G01 X41.9100 Y27.9320
G01 X41.9069 Y27.9326
G01 X41.9043 Y27.9343
G01 X41.9026 Y27.9369
G01 X41.9020 Y27.9400
G01 X41.9026 Y27.9431
G01 X41.9043 Y27.9457
G01 X41.9069 Y27.9474
G01 X41.9100 Y27.9480
G01 X41.9131 Y27.9474
G01 X41.9157 Y27.9457
G01 X41.9174 Y27.9431
G01 X41.9180 Y27.9400
G00 X41.9180 Y27.9400
G01 F100.00
G01 Z-0.7500
G01 F400.00
G01 X41.9174 Y27.9369
G01 X41.9157 Y27.9343
G01 X41.9131 Y27.9326
G01 X41.9100 Y27.9320
G01 X41.9069 Y27.9326
G01 X41.9043 Y27.9343
G01 X41.9026 Y27.9369
G01 X41.9020 Y27.9400
G01 X41.9026 Y27.9431
G01 X41.9043 Y27.9457
G01 X41.9069 Y27.9474
G01 X41.9100 Y27.9480
G01 X41.9131 Y27.9474
G01 X41.9157 Y27.9457
G01 X41.9174 Y27.9431
G01 X41.9180 Y27.9400
G00 X41.9180 Y27.9400
G01 F100.00
G01 Z-1.0000
G01 F400.00
G01 X41.9174 Y27.9369
G01 X41.9157 Y27.9343
G01 X41.9131 Y27.9326
G01 X41.9100 Y27.9320
G01 X41.9069 Y27.9326
G01 X41.9043 Y27.9343
G01 X41.9026 Y27.9369
G01 X41.9020 Y27.9400
G01 X41.9026 Y27.9431
G01 X41.9043 Y27.9457
G01 X41.9069 Y27.9474
G01 X41.9100 Y27.9480
G01 X41.9131 Y27.9474
G01 X41.9157 Y27.9457
G01 X41.9174 Y27.9431
G01 X41.9180 Y27.9400
G00 X41.9180 Y27.9400
G01 F100.00
G01 Z-1.2500
G01 F400.00
G01 X41.9174 Y27.9369
G01 X41.9157 Y27.9343
G01 X41.9131 Y27.9326
G01 X41.9100 Y27.9320
G01 X41.9069 Y27.9326
G01 X41.9043 Y27.9343
G01 X41.9026 Y27.9369
G01 X41.9020 Y27.9400
G01 X41.9026 Y27.9431
G01 X41.9043 Y27.9457
G01 X41.9069 Y27.9474
G01 X41.9100 Y27.9480
G01 X41.9131 Y27.9474
G01 X41.9157 Y27.9457
G01 X41.9174 Y27.9431
G01 X41.9180 Y27.9400
G00 X41.9180 Y27.9400
G01 F100.00
G01 Z-1.5000
G01 F400.00
G01 X41.9174 Y27.9369
G01 X41.9157 Y27.9343
G01 X41.9131 Y27.9326
G01 X41.9100 Y27.9320
G01 X41.9069 Y27.9326
G01 X41.9043 Y27.9343
G01 X41.9026 Y27.9369
G01 X41.9020 Y27.9400
G01 X41.9026 Y27.9431
G01 X41.9043 Y27.9457
G01 X41.9069 Y27.9474
G01 X41.9100 Y27.9480
G01 X41.9131 Y27.9474
G01 X41.9157 Y27.9457
G01 X41.9174 Y27.9431
G01 X41.9180 Y27.9400
G00 X41.9180 Y27.9400
G01 F100.00
G01 Z-1.7000
G01 F400.00
G01 X41.9174 Y27.9369
G01 X41.9157 Y27.9343
G01 X41.9131 Y27.9326
G01 X41.9100 Y27.9320
G01 X41.9069 Y27.9326
G01 X41.9043 Y27.9343
G01 X41.9026 Y27.9369
G01 X41.9020 Y27.9400
G01 X41.9026 Y27.9431
G01 X41.9043 Y27.9457
G01 X41.9069 Y27.9474
G01 X41.9100 Y27.9480
G01 X41.9131 Y27.9474
G01 X41.9157 Y27.9457
G01 X41.9174 Y27.9431
G01 X41.9180 Y27.9400
G00 Z3.0000
G00 X41.9180 Y30.4800
G01 F100.00
G01 Z-0.2500
G01 F400.00
G01 X41.9174 Y30.4769
G01 X41.9157 Y30.4743
G01 X41.9131 Y30.4726
G01 X41.9100 Y30.4720
G01 X41.9069 Y30.4726
G01 X41.9043 Y30.4743
G01 X41.9026 Y30.4769
G01 X41.9020 Y30.4800
G01 X41.9026 Y30.4831
G01 X41.9043 Y30.4857
G01 X41.9069 Y30.4874
G01 X41.9100 Y30.4880
G01 X41.9131 Y30.4874
G01 X41.9157 Y30.4857
G01 X41.9174 Y30.4831
G01 X41.9180 Y30.4800
G00 X41.9180 Y30.4800
G01 F100.00
G01 Z-0.5000
G01 F400.00
G01 X41.9174 Y30.4769
G01 X41.9157 Y30.4743
G01 X41.9131 Y30.4726
G01 X41.9100 Y30.4720
G01 X41.9069 Y30.4726
G01 X41.9043 Y30.4743
G01 X41.9026 Y30.4769
G01 X41.9020 Y30.4800
G01 X41.9026 Y30.4831
G01 X41.9043 Y30.4857
G01 X41.9069 Y30.4874
G01 X41.9100 Y30.4880
G01 X41.9131 Y30.4874
G01 X41.9157 Y30.4857
G01 X41.9174 Y30.4831
G01 X41.9180 Y30.4800
G00 X41.9180 Y30.4800
G01 F100.00
G01 Z-0.7500
G01 F400.00
G01 X41.9174 Y30.4769
G01 X41.9157 Y30.4743
G01 X41.9131 Y30.4726
G01 X41.9100 Y30.4720
G01 X41.9069 Y30.4726
G01 X41.9043 Y30.4743
G01 X41.9026 Y30.4769
G01 X41.9020 Y30.4800
G01 X41.9026 Y30.4831
G01 X41.9043 Y30.4857
G01 X41.9069 Y30.4874
G01 X41.9100 Y30.4880
G01 X41.9131 Y30.4874
G01 X41.9157 Y30.4857
G01 X41.9174 Y30.4831
G01 X41.9180 Y30.4800
G00 X41.9180 Y30.4800
G01 F100.00
G01 Z-1.0000
G01 F400.00
G01 X41.9174 Y30.4769
G01 X41.9157 Y30.4743
G01 X41.9131 Y30.4726
G01 X41.9100 Y30.4720
G01 X41.9069 Y30.4726
G01 X41.9043 Y30.4743
G01 X41.9026 Y30.4769
G01 X41.9020 Y30.4800
G01 X41.9026 Y30.4831
G01 X41.9043 Y30.4857
G01 X41.9069 Y30.4874
G01 X41.9100 Y30.4880
G01 X41.9131 Y30.4874
G01 X41.9157 Y30.4857
G01 X41.9174 Y30.4831
G01 X41.9180 Y30.4800
G00 X41.9180 Y30.4800
G01 F100.00
G01 Z-1.2500
G01 F400.00
G01 X41.9174 Y30.4769
G01 X41.9157 Y30.4743
G01 X41.9131 Y30.4726
G01 X41.9100 Y30.4720
G01 X41.9069 Y30.4726
G01 X41.9043 Y30.4743
G01 X41.9026 Y30.4769
G01 X41.9020 Y30.4800
G01 X41.9026 Y30.4831
G01 X41.9043 Y30.4857
G01 X41.9069 Y30.4874
G01 X41.9100 Y30.4880
G01 X41.9131 Y30.4874
G01 X41.9157 Y30.4857
G01 X41.9174 Y30.4831
G01 X41.9180 Y30.4800
G00 X41.9180 Y30.4800
G01 F100.00
G01 Z-1.5000
G01 F400.00
G01 X41.9174 Y30.4769
G01 X41.9157 Y30.4743
G01 X41.9131 Y30.4726
G01 X41.9100 Y30.4720
G01 X41.9069 Y30.4726
G01 X41.9043 Y30.4743
G01 X41.9026 Y30.4769
G01 X41.9020 Y30.4800
G01 X41.9026 Y30.4831
G01 X41.9043 Y30.4857
G01 X41.9069 Y30.4874
G01 X41.9100 Y30.4880
G01 X41.9131 Y30.4874
G01 X41.9157 Y30.4857
G01 X41.9174 Y30.4831
G01 X41.9180 Y30.4800
G00 X41.9180 Y30.4800
G01 F100.00
G01 Z-1.7000
G01 F400.00
G01 X41.9174 Y30.4769
G01 X41.9157 Y30.4743
G01 X41.9131 Y30.4726
G01 X41.9100 Y30.4720
G01 X41.9069 Y30.4726
G01 X41.9043 Y30.4743
G01 X41.9026 Y30.4769
G01 X41.9020 Y30.4800
G01 X41.9026 Y30.4831
G01 X41.9043 Y30.4857
G01 X41.9069 Y30.4874
G01 X41.9100 Y30.4880
G01 X41.9131 Y30.4874
G01 X41.9157 Y30.4857
G01 X41.9174 Y30.4831
G01 X41.9180 Y30.4800
G00 Z3.0000
G00 X44.4580 Y30.4800
G01 F100.00
G01 Z-0.2500
G01 F400.00
G01 X44.4574 Y30.4769
G01 X44.4557 Y30.4743
G01 X44.4531 Y30.4726
G01 X44.4500 Y30.4720
G01 X44.4469 Y30.4726
G01 X44.4443 Y30.4743
G01 X44.4426 Y30.4769
G01 X44.4420 Y30.4800
G01 X44.4426 Y30.4831
G01 X44.4443 Y30.4857
G01 X44.4469 Y30.4874
G01 X44.4500 Y30.4880
G01 X44.4531 Y30.4874
G01 X44.4557 Y30.4857
G01 X44.4574 Y30.4831
G01 X44.4580 Y30.4800
G00 X44.4580 Y30.4800
G01 F100.00
G01 Z-0.5000
G01 F400.00
G01 X44.4574 Y30.4769
G01 X44.4557 Y30.4743
G01 X44.4531 Y30.4726
G01 X44.4500 Y30.4720
G01 X44.4469 Y30.4726
G01 X44.4443 Y30.4743
G01 X44.4426 Y30.4769
G01 X44.4420 Y30.4800
G01 X44.4426 Y30.4831
G01 X44.4443 Y30.4857
G01 X44.4469 Y30.4874
G01 X44.4500 Y30.4880
G01 X44.4531 Y30.4874
G01 X44.4557 Y30.4857
G01 X44.4574 Y30.4831
G01 X44.4580 Y30.4800
G00 X44.4580 Y30.4800
G01 F100.00
G01 Z-0.7500
G01 F400.00
G01 X44.4574 Y30.4769
G01 X44.4557 Y30.4743
G01 X44.4531 Y30.4726
G01 X44.4500 Y30.4720
G01 X44.4469 Y30.4726
G01 X44.4443 Y30.4743
G01 X44.4426 Y30.4769
G01 X44.4420 Y30.4800
G01 X44.4426 Y30.4831
G01 X44.4443 Y30.4857
G01 X44.4469 Y30.4874
G01 X44.4500 Y30.4880
G01 X44.4531 Y30.4874
G01 X44.4557 Y30.4857
G01 X44.4574 Y30.4831
G01 X44.4580 Y30.4800
G00 X44.4580 Y30.4800
G01 F100.00
G01 Z-1.0000
G01 F400.00
G01 X44.4574 Y30.4769
G01 X44.4557 Y30.4743
G01 X44.4531 Y30.4726
G01 X44.4500 Y30.4720
G01 X44.4469 Y30.4726
G01 X44.4443 Y30.4743
G01 X44.4426 Y30.4769
G01 X44.4420 Y30.4800
G01 X44.4426 Y30.4831
G01 X44.4443 Y30.4857
G01 X44.4469 Y30.4874
G01 X44.4500 Y30.4880
G01 X44.4531 Y30.4874
G01 X44.4557 Y30.4857
G01 X44.4574 Y30.4831
G01 X44.4580 Y30.4800
G00 X44.4580 Y30.4800
G01 F100.00
G01 Z-1.2500
G01 F400.00
G01 X44.4574 Y30.4769
G01 X44.4557 Y30.4743
G01 X44.4531 Y30.4726
G01 X44.4500 Y30.4720
G01 X44.4469 Y30.4726
G01 X44.4443 Y30.4743
G01 X44.4426 Y30.4769
G01 X44.4420 Y30.4800
G01 X44.4426 Y30.4831
G01 X44.4443 Y30.4857
G01 X44.4469 Y30.4874
G01 X44.4500 Y30.4880
G01 X44.4531 Y30.4874
G01 X44.4557 Y30.4857
G01 X44.4574 Y30.4831
G01 X44.4580 Y30.4800
G00 X44.4580 Y30.4800
G01 F100.00
G01 Z-1.5000
G01 F400.00
G01 X44.4574 Y30.4769
G01 X44.4557 Y30.4743
G01 X44.4531 Y30.4726
G01 X44.4500 Y30.4720
G01 X44.4469 Y30.4726
G01 X44.4443 Y30.4743
G01 X44.4426 Y30.4769
G01 X44.4420 Y30.4800
G01 X44.4426 Y30.4831
G01 X44.4443 Y30.4857
G01 X44.4469 Y30.4874
G01 X44.4500 Y30.4880
G01 X44.4531 Y30.4874
G01 X44.4557 Y30.4857
G01 X44.4574 Y30.4831
G01 X44.4580 Y30.4800
G00 X44.4580 Y30.4800
G01 F100.00
G01 Z-1.7000
G01 F400.00
G01 X44.4574 Y30.4769
G01 X44.4557 Y30.4743
G01 X44.4531 Y30.4726
G01 X44.4500 Y30.4720
G01 X44.4469 Y30.4726
G01 X44.4443 Y30.4743
G01 X44.4426 Y30.4769
G01 X44.4420 Y30.4800
G01 X44.4426 Y30.4831
G01 X44.4443 Y30.4857
G01 X44.4469 Y30.4874
G01 X44.4500 Y30.4880
G01 X44.4531 Y30.4874
G01 X44.4557 Y30.4857
G01 X44.4574 Y30.4831
G01 X44.4580 Y30.4800
G00 Z3.0000
G00 X44.4580 Y27.9400
G01 F100.00
G01 Z-0.2500
G01 F400.00
G01 X44.4574 Y27.9369
G01 X44.4557 Y27.9343
G01 X44.4531 Y27.9326
G01 X44.4500 Y27.9320
G01 X44.4469 Y27.9326
G01 X44.4443 Y27.9343
G01 X44.4426 Y27.9369
G01 X44.4420 Y27.9400
G01 X44.4426 Y27.9431
G01 X44.4443 Y27.9457
G01 X44.4469 Y27.9474
G01 X44.4500 Y27.9480
G01 X44.4531 Y27.9474
G01 X44.4557 Y27.9457
G01 X44.4574 Y27.9431
G01 X44.4580 Y27.9400
G00 X44.4580 Y27.9400
G01 F100.00
G01 Z-0.5000
G01 F400.00
G01 X44.4574 Y27.9369
G01 X44.4557 Y27.9343
G01 X44.4531 Y27.9326
G01 X44.4500 Y27.9320
G01 X44.4469 Y27.9326
G01 X44.4443 Y27.9343
G01 X44.4426 Y27.9369
G01 X44.4420 Y27.9400
G01 X44.4426 Y27.9431
G01 X44.4443 Y27.9457
G01 X44.4469 Y27.9474
G01 X44.4500 Y27.9480
G01 X44.4531 Y27.9474
G01 X44.4557 Y27.9457
G01 X44.4574 Y27.9431
G01 X44.4580 Y27.9400
G00 X44.4580 Y27.9400
G01 F100.00
G01 Z-0.7500
G01 F400.00
G01 X44.4574 Y27.9369
G01 X44.4557 Y27.9343
G01 X44.4531 Y27.9326
G01 X44.4500 Y27.9320
G01 X44.4469 Y27.9326
G01 X44.4443 Y27.9343
G01 X44.4426 Y27.9369
G01 X44.4420 Y27.9400
G01 X44.4426 Y27.9431
G01 X44.4443 Y27.9457
G01 X44.4469 Y27.9474
G01 X44.4500 Y27.9480
G01 X44.4531 Y27.9474
G01 X44.4557 Y27.9457
G01 X44.4574 Y27.9431
G01 X44.4580 Y27.9400
G00 X44.4580 Y27.9400
G01 F100.00
G01 Z-1.0000
G01 F400.00
G01 X44.4574 Y27.9369
G01 X44.4557 Y27.9343
G01 X44.4531 Y27.9326
G01 X44.4500 Y27.9320
G01 X44.4469 Y27.9326
G01 X44.4443 Y27.9343
G01 X44.4426 Y27.9369
G01 X44.4420 Y27.9400
G01 X44.4426 Y27.9431
G01 X44.4443 Y27.9457
G01 X44.4469 Y27.9474
G01 X44.4500 Y27.9480
G01 X44.4531 Y27.9474
G01 X44.4557 Y27.9457
G01 X44.4574 Y27.9431
G01 X44.4580 Y27.9400
G00 X44.4580 Y27.9400
G01 F100.00
G01 Z-1.2500
G01 F400.00
G01 X44.4574 Y27.9369
G01 X44.4557 Y27.9343
G01 X44.4531 Y27.9326
G01 X44.4500 Y27.9320
G01 X44.4469 Y27.9326
G01 X44.4443 Y27.9343
G01 X44.4426 Y27.9369
G01 X44.4420 Y27.9400
G01 X44.4426 Y27.9431
G01 X44.4443 Y27.9457
G01 X44.4469 Y27.9474
G01 X44.4500 Y27.9480
G01 X44.4531 Y27.9474
G01 X44.4557 Y27.9457
G01 X44.4574 Y27.9431
G01 X44.4580 Y27.9400
G00 X44.4580 Y27.9400
G01 F100.00
G01 Z-1.5000
G01 F400.00
G01 X44.4574 Y27.9369
G01 X44.4557 Y27.9343
G01 X44.4531 Y27.9326
G01 X44.4500 Y27.9320
G01 X44.4469 Y27.9326
G01 X44.4443 Y27.9343
G01 X44.4426 Y27.9369
G01 X44.4420 Y27.9400
G01 X44.4426 Y27.9431
G01 X44.4443 Y27.9457
G01 X44.4469 Y27.9474
G01 X44.4500 Y27.9480
G01 X44.4531 Y27.9474
G01 X44.4557 Y27.9457
G01 X44.4574 Y27.9431
G01 X44.4580 Y27.9400
G00 X44.4580 Y27.9400
G01 F100.00
G01 Z-1.7000
G01 F400.00
G01 X44.4574 Y27.9369
G01 X44.4557 Y27.9343
G01 X44.4531 Y27.9326
G01 X44.4500 Y27.9320
G01 X44.4469 Y27.9326
G01 X44.4443 Y27.9343
G01 X44.4426 Y27.9369
G01 X44.4420 Y27.9400
G01 X44.4426 Y27.9431
G01 X44.4443 Y27.9457
G01 X44.4469 Y27.9474
G01 X44.4500 Y27.9480
G01 X44.4531 Y27.9474
G01 X44.4557 Y27.9457
G01 X44.4574 Y27.9431
G01 X44.4580 Y27.9400
G00 Z3.0000
G00 X46.9980 Y27.9400
G01 F100.00
G01 Z-0.2500
G01 F400.00
G01 X46.9974 Y27.9369
G01 X46.9957 Y27.9343
G01 X46.9931 Y27.9326
G01 X46.9900 Y27.9320
G01 X46.9869 Y27.9326
G01 X46.9843 Y27.9343
G01 X46.9826 Y27.9369
G01 X46.9820 Y27.9400
G01 X46.9826 Y27.9431
G01 X46.9843 Y27.9457
G01 X46.9869 Y27.9474
G01 X46.9900 Y27.9480
G01 X46.9931 Y27.9474
G01 X46.9957 Y27.9457
G01 X46.9974 Y27.9431
G01 X46.9980 Y27.9400
G00 X46.9980 Y27.9400
G01 F100.00
G01 Z-0.5000
G01 F400.00
G01 X46.9974 Y27.9369
G01 X46.9957 Y27.9343
G01 X46.9931 Y27.9326
G01 X46.9900 Y27.9320
G01 X46.9869 Y27.9326
G01 X46.9843 Y27.9343
G01 X46.9826 Y27.9369
G01 X46.9820 Y27.9400
G01 X46.9826 Y27.9431
G01 X46.9843 Y27.9457
G01 X46.9869 Y27.9474
G01 X46.9900 Y27.9480
G01 X46.9931 Y27.9474
G01 X46.9957 Y27.9457
G01 X46.9974 Y27.9431
G01 X46.9980 Y27.9400
G00 X46.9980 Y27.9400
G01 F100.00
G01 Z-0.7500
G01 F400.00
G01 X46.9974 Y27.9369
G01 X46.9957 Y27.9343
G01 X46.9931 Y27.9326
G01 X46.9900 Y27.9320
G01 X46.9869 Y27.9326
G01 X46.9843 Y27.9343
G01 X46.9826 Y27.9369
G01 X46.9820 Y27.9400
G01 X46.9826 Y27.9431
G01 X46.9843 Y27.9457
G01 X46.9869 Y27.9474
G01 X46.9900 Y27.9480
G01 X46.9931 Y27.9474
G01 X46.9957 Y27.9457
G01 X46.9974 Y27.9431
G01 X46.9980 Y27.9400
G00 X46.9980 Y27.9400
G01 F100.00
G01 Z-1.0000
G01 F400.00
G01 X46.9974 Y27.9369
G01 X46.9957 Y27.9343
G01 X46.9931 Y27.9326
G01 X46.9900 Y27.9320
G01 X46.9869 Y27.9326
G01 X46.9843 Y27.9343
G01 X46.9826 Y27.9369
G01 X46.9820 Y27.9400
G01 X46.9826 Y27.9431
G01 X46.9843 Y27.9457
G01 X46.9869 Y27.9474
G01 X46.9900 Y27.9480
G01 X46.9931 Y27.9474
G01 X46.9957 Y27.9457
G01 X46.9974 Y27.9431
G01 X46.9980 Y27.9400
G00 X46.9980 Y27.9400
G01 F100.00
G01 Z-1.2500
G01 F400.00
G01 X46.9974 Y27.9369
G01 X46.9957 Y27.9343
G01 X46.9931 Y27.9326
G01 X46.9900 Y27.9320
G01 X46.9869 Y27.9326
G01 X46.9843 Y27.9343
G01 X46.9826 Y27.9369
G01 X46.9820 Y27.9400
G01 X46.9826 Y27.9431
G01 X46.9843 Y27.9457
G01 X46.9869 Y27.9474
G01 X46.9900 Y27.9480
G01 X46.9931 Y27.9474
G01 X46.9957 Y27.9457
G01 X46.9974 Y27.9431
G01 X46.9980 Y27.9400
G00 X46.9980 Y27.9400
G01 F100.00
G01 Z-1.5000
G01 F400.00
G01 X46.9974 Y27.9369
G01 X46.9957 Y27.9343
G01 X46.9931 Y27.9326
G01 X46.9900 Y27.9320
G01 X46.9869 Y27.9326
G01 X46.9843 Y27.9343
G01 X46.9826 Y27.9369
G01 X46.9820 Y27.9400
G01 X46.9826 Y27.9431
G01 X46.9843 Y27.9457
G01 X46.9869 Y27.9474
G01 X46.9900 Y27.9480
G01 X46.9931 Y27.9474
G01 X46.9957 Y27.9457
G01 X46.9974 Y27.9431
G01 X46.9980 Y27.9400
G00 X46.9980 Y27.9400
G01 F100.00
G01 Z-1.7000
G01 F400.00
G01 X46.9974 Y27.9369
G01 X46.9957 Y27.9343
G01 X46.9931 Y27.9326
G01 X46.9900 Y27.9320
G01 X46.9869 Y27.9326
G01 X46.9843 Y27.9343
G01 X46.9826 Y27.9369
G01 X46.9820 Y27.9400
G01 X46.9826 Y27.9431
G01 X46.9843 Y27.9457
G01 X46.9869 Y27.9474
G01 X46.9900 Y27.9480
G01 X46.9931 Y27.9474
G01 X46.9957 Y27.9457
G01 X46.9974 Y27.9431
G01 X46.9980 Y27.9400
G00 Z3.0000
G00 X46.9980 Y30.4800
G01 F100.00
G01 Z-0.2500
G01 F400.00
G01 X46.9974 Y30.4769
G01 X46.9957 Y30.4743
G01 X46.9931 Y30.4726
G01 X46.9900 Y30.4720
G01 X46.9869 Y30.4726
G01 X46.9843 Y30.4743
G01 X46.9826 Y30.4769
G01 X46.9820 Y30.4800
G01 X46.9826 Y30.4831
G01 X46.9843 Y30.4857
G01 X46.9869 Y30.4874
G01 X46.9900 Y30.4880
G01 X46.9931 Y30.4874
G01 X46.9957 Y30.4857
G01 X46.9974 Y30.4831
G01 X46.9980 Y30.4800
G00 X46.9980 Y30.4800
G01 F100.00
G01 Z-0.5000
G01 F400.00
G01 X46.9974 Y30.4769
G01 X46.9957 Y30.4743
G01 X46.9931 Y30.4726
G01 X46.9900 Y30.4720
G01 X46.9869 Y30.4726
G01 X46.9843 Y30.4743
G01 X46.9826 Y30.4769
G01 X46.9820 Y30.4800
G01 X46.9826 Y30.4831
G01 X46.9843 Y30.4857
G01 X46.9869 Y30.4874
G01 X46.9900 Y30.4880
G01 X46.9931 Y30.4874
G01 X46.9957 Y30.4857
G01 X46.9974 Y30.4831
G01 X46.9980 Y30.4800
G00 X46.9980 Y30.4800
G01 F100.00
G01 Z-0.7500
G01 F400.00
G01 X46.9974 Y30.4769
G01 X46.9957 Y30.4743
G01 X46.9931 Y30.4726
G01 X46.9900 Y30.4720
G01 X46.9869 Y30.4726
G01 X46.9843 Y30.4743
G01 X46.9826 Y30.4769
G01 X46.9820 Y30.4800
G01 X46.9826 Y30.4831
G01 X46.9843 Y30.4857
G01 X46.9869 Y30.4874
G01 X46.9900 Y30.4880
G01 X46.9931 Y30.4874
G01 X46.9957 Y30.4857
G01 X46.9974 Y30.4831
G01 X46.9980 Y30.4800
G00 X46.9980 Y30.4800
G01 F100.00
G01 Z-1.0000
G01 F400.00
G01 X46.9974 Y30.4769
G01 X46.9957 Y30.4743
G01 X46.9931 Y30.4726
G01 X46.9900 Y30.4720
G01 X46.9869 Y30.4726
G01 X46.9843 Y30.4743
G01 X46.9826 Y30.4769
G01 X46.9820 Y30.4800
G01 X46.9826 Y30.4831
G01 X46.9843 Y30.4857
G01 X46.9869 Y30.4874
G01 X46.9900 Y30.4880
G01 X46.9931 Y30.4874
G01 X46.9957 Y30.4857
G01 X46.9974 Y30.4831
G01 X46.9980 Y30.4800
G00 X46.9980 Y30.4800
G01 F100.00
G01 Z-1.2500
G01 F400.00
G01 X46.9974 Y30.4769
G01 X46.9957 Y30.4743
G01 X46.9931 Y30.4726
G01 X46.9900 Y30.4720
G01 X46.9869 Y30.4726
G01 X46.9843 Y30.4743
G01 X46.9826 Y30.4769
G01 X46.9820 Y30.4800
G01 X46.9826 Y30.4831
G01 X46.9843 Y30.4857
G01 X46.9869 Y30.4874
G01 X46.9900 Y30.4880
G01 X46.9931 Y30.4874
G01 X46.9957 Y30.4857
G01 X46.9974 Y30.4831
G01 X46.9980 Y30.4800
G00 X46.9980 Y30.4800
G01 F100.00
G01 Z-1.5000
G01 F400.00
G01 X46.9974 Y30.4769
G01 X46.9957 Y30.4743
G01 X46.9931 Y30.4726
G01 X46.9900 Y30.4720
G01 X46.9869 Y30.4726
G01 X46.9843 Y30.4743
G01 X46.9826 Y30.4769
G01 X46.9820 Y30.4800
G01 X46.9826 Y30.4831
G01 X46.9843 Y30.4857
G01 X46.9869 Y30.4874
G01 X46.9900 Y30.4880
G01 X46.9931 Y30.4874
G01 X46.9957 Y30.4857
G01 X46.9974 Y30.4831
G01 X46.9980 Y30.4800
G00 X46.9980 Y30.4800
G01 F100.00
G01 Z-1.7000
G01 F400.00
G01 X46.9974 Y30.4769
G01 X46.9957 Y30.4743
G01 X46.9931 Y30.4726
G01 X46.9900 Y30.4720
G01 X46.9869 Y30.4726
G01 X46.9843 Y30.4743
G01 X46.9826 Y30.4769
G01 X46.9820 Y30.4800
G01 X46.9826 Y30.4831
G01 X46.9843 Y30.4857
G01 X46.9869 Y30.4874
G01 X46.9900 Y30.4880
G01 X46.9931 Y30.4874
G01 X46.9957 Y30.4857
G01 X46.9974 Y30.4831
G01 X46.9980 Y30.4800
G00 Z3.0000
G00 X49.5380 Y30.4800
G01 F100.00
G01 Z-0.2500
G01 F400.00
G01 X49.5374 Y30.4769
G01 X49.5357 Y30.4743
G01 X49.5331 Y30.4726
G01 X49.5300 Y30.4720
G01 X49.5269 Y30.4726
G01 X49.5243 Y30.4743
G01 X49.5226 Y30.4769
G01 X49.5220 Y30.4800
G01 X49.5226 Y30.4831
G01 X49.5243 Y30.4857
G01 X49.5269 Y30.4874
G01 X49.5300 Y30.4880
G01 X49.5331 Y30.4874
G01 X49.5357 Y30.4857
G01 X49.5374 Y30.4831
G01 X49.5380 Y30.4800
G00 X49.5380 Y30.4800
G01 F100.00
G01 Z-0.5000
G01 F400.00
G01 X49.5374 Y30.4769
G01 X49.5357 Y30.4743
G01 X49.5331 Y30.4726
G01 X49.5300 Y30.4720
G01 X49.5269 Y30.4726
G01 X49.5243 Y30.4743
G01 X49.5226 Y30.4769
G01 X49.5220 Y30.4800
G01 X49.5226 Y30.4831
G01 X49.5243 Y30.4857
G01 X49.5269 Y30.4874
G01 X49.5300 Y30.4880
G01 X49.5331 Y30.4874
G01 X49.5357 Y30.4857
G01 X49.5374 Y30.4831
G01 X49.5380 Y30.4800
G00 X49.5380 Y30.4800
G01 F100.00
G01 Z-0.7500
G01 F400.00
G01 X49.5374 Y30.4769
G01 X49.5357 Y30.4743
G01 X49.5331 Y30.4726
G01 X49.5300 Y30.4720
G01 X49.5269 Y30.4726
G01 X49.5243 Y30.4743
G01 X49.5226 Y30.4769
G01 X49.5220 Y30.4800
G01 X49.5226 Y30.4831
G01 X49.5243 Y30.4857
G01 X49.5269 Y30.4874
G01 X49.5300 Y30.4880
G01 X49.5331 Y30.4874
G01 X49.5357 Y30.4857
G01 X49.5374 Y30.4831
G01 X49.5380 Y30.4800
G00 X49.5380 Y30.4800
G01 F100.00
G01 Z-1.0000
G01 F400.00
G01 X49.5374 Y30.4769
G01 X49.5357 Y30.4743
G01 X49.5331 Y30.4726
G01 X49.5300 Y30.4720
G01 X49.5269 Y30.4726
G01 X49.5243 Y30.4743
G01 X49.5226 Y30.4769
G01 X49.5220 Y30.4800
G01 X49.5226 Y30.4831
G01 X49.5243 Y30.4857
G01 X49.5269 Y30.4874
G01 X49.5300 Y30.4880
G01 X49.5331 Y30.4874
G01 X49.5357 Y30.4857
G01 X49.5374 Y30.4831
G01 X49.5380 Y30.4800
G00 X49.5380 Y30.4800
G01 F100.00
G01 Z-1.2500
G01 F400.00
G01 X49.5374 Y30.4769
G01 X49.5357 Y30.4743
G01 X49.5331 Y30.4726
G01 X49.5300 Y30.4720
G01 X49.5269 Y30.4726
G01 X49.5243 Y30.4743
G01 X49.5226 Y30.4769
G01 X49.5220 Y30.4800
G01 X49.5226 Y30.4831
G01 X49.5243 Y30.4857
G01 X49.5269 Y30.4874
G01 X49.5300 Y30.4880
G01 X49.5331 Y30.4874
G01 X49.5357 Y30.4857
G01 X49.5374 Y30.4831
G01 X49.5380 Y30.4800
G00 X49.5380 Y30.4800
G01 F100.00
G01 Z-1.5000
G01 F400.00
G01 X49.5374 Y30.4769
G01 X49.5357 Y30.4743
G01 X49.5331 Y30.4726
G01 X49.5300 Y30.4720
G01 X49.5269 Y30.4726
G01 X49.5243 Y30.4743
G01 X49.5226 Y30.4769
G01 X49.5220 Y30.4800
G01 X49.5226 Y30.4831
G01 X49.5243 Y30.4857
G01 X49.5269 Y30.4874
G01 X49.5300 Y30.4880
G01 X49.5331 Y30.4874
G01 X49.5357 Y30.4857
G01 X49.5374 Y30.4831
G01 X49.5380 Y30.4800
G00 X49.5380 Y30.4800
G01 F100.00
G01 Z-1.7000
G01 F400.00
G01 X49.5374 Y30.4769
G01 X49.5357 Y30.4743
G01 X49.5331 Y30.4726
G01 X49.5300 Y30.4720
G01 X49.5269 Y30.4726
G01 X49.5243 Y30.4743
G01 X49.5226 Y30.4769
G01 X49.5220 Y30.4800
G01 X49.5226 Y30.4831
G01 X49.5243 Y30.4857
G01 X49.5269 Y30.4874
G01 X49.5300 Y30.4880
G01 X49.5331 Y30.4874
G01 X49.5357 Y30.4857
G01 X49.5374 Y30.4831
G01 X49.5380 Y30.4800
G00 Z3.0000
G00 X49.5380 Y27.9400
G01 F100.00
G01 Z-0.2500
G01 F400.00
G01 X49.5374 Y27.9369
G01 X49.5357 Y27.9343
G01 X49.5331 Y27.9326
G01 X49.5300 Y27.9320
G01 X49.5269 Y27.9326
G01 X49.5243 Y27.9343
G01 X49.5226 Y27.9369
G01 X49.5220 Y27.9400
G01 X49.5226 Y27.9431
G01 X49.5243 Y27.9457
G01 X49.5269 Y27.9474
G01 X49.5300 Y27.9480
G01 X49.5331 Y27.9474
G01 X49.5357 Y27.9457
G01 X49.5374 Y27.9431
G01 X49.5380 Y27.9400
G00 X49.5380 Y27.9400
G01 F100.00
G01 Z-0.5000
G01 F400.00
G01 X49.5374 Y27.9369
G01 X49.5357 Y27.9343
G01 X49.5331 Y27.9326
G01 X49.5300 Y27.9320
G01 X49.5269 Y27.9326
G01 X49.5243 Y27.9343
G01 X49.5226 Y27.9369
G01 X49.5220 Y27.9400
G01 X49.5226 Y27.9431
G01 X49.5243 Y27.9457
G01 X49.5269 Y27.9474
G01 X49.5300 Y27.9480
G01 X49.5331 Y27.9474
G01 X49.5357 Y27.9457
G01 X49.5374 Y27.9431
G01 X49.5380 Y27.9400
G00 X49.5380 Y27.9400
G01 F100.00
G01 Z-0.7500
G01 F400.00
G01 X49.5374 Y27.9369
G01 X49.5357 Y27.9343
G01 X49.5331 Y27.9326
G01 X49.5300 Y27.9320
G01 X49.5269 Y27.9326
G01 X49.5243 Y27.9343
G01 X49.5226 Y27.9369
G01 X49.5220 Y27.9400
G01 X49.5226 Y27.9431
G01 X49.5243 Y27.9457
G01 X49.5269 Y27.9474
G01 X49.5300 Y27.9480
G01 X49.5331 Y27.9474
G01 X49.5357 Y27.9457
G01 X49.5374 Y27.9431
G01 X49.5380 Y27.9400
G00 X49.5380 Y27.9400
G01 F100.00
G01 Z-1.0000
G01 F400.00
G01 X49.5374 Y27.9369
G01 X49.5357 Y27.9343
G01 X49.5331 Y27.9326
G01 X49.5300 Y27.9320
G01 X49.5269 Y27.9326
G01 X49.5243 Y27.9343
G01 X49.5226 Y27.9369
G01 X49.5220 Y27.9400
G01 X49.5226 Y27.9431
G01 X49.5243 Y27.9457
G01 X49.5269 Y27.9474
G01 X49.5300 Y27.9480
G01 X49.5331 Y27.9474
G01 X49.5357 Y27.9457
G01 X49.5374 Y27.9431
G01 X49.5380 Y27.9400
G00 X49.5380 Y27.9400
G01 F100.00
G01 Z-1.2500
G01 F400.00
G01 X49.5374 Y27.9369
G01 X49.5357 Y27.9343
G01 X49.5331 Y27.9326
G01 X49.5300 Y27.9320
G01 X49.5269 Y27.9326
G01 X49.5243 Y27.9343
G01 X49.5226 Y27.9369
G01 X49.5220 Y27.9400
G01 X49.5226 Y27.9431
G01 X49.5243 Y27.9457
G01 X49.5269 Y27.9474
G01 X49.5300 Y27.9480
G01 X49.5331 Y27.9474
G01 X49.5357 Y27.9457
G01 X49.5374 Y27.9431
G01 X49.5380 Y27.9400
G00 X49.5380 Y27.9400
G01 F100.00
G01 Z-1.5000
G01 F400.00
G01 X49.5374 Y27.9369
G01 X49.5357 Y27.9343
G01 X49.5331 Y27.9326
G01 X49.5300 Y27.9320
G01 X49.5269 Y27.9326
G01 X49.5243 Y27.9343
G01 X49.5226 Y27.9369
G01 X49.5220 Y27.9400
G01 X49.5226 Y27.9431
G01 X49.5243 Y27.9457
G01 X49.5269 Y27.9474
G01 X49.5300 Y27.9480
G01 X49.5331 Y27.9474
G01 X49.5357 Y27.9457
G01 X49.5374 Y27.9431
G01 X49.5380 Y27.9400
G00 X49.5380 Y27.9400
G01 F100.00
G01 Z-1.7000
G01 F400.00
G01 X49.5374 Y27.9369
G01 X49.5357 Y27.9343
G01 X49.5331 Y27.9326
G01 X49.5300 Y27.9320
G01 X49.5269 Y27.9326
G01 X49.5243 Y27.9343
G01 X49.5226 Y27.9369
G01 X49.5220 Y27.9400
G01 X49.5226 Y27.9431
G01 X49.5243 Y27.9457
G01 X49.5269 Y27.9474
G01 X49.5300 Y27.9480
G01 X49.5331 Y27.9474
G01 X49.5357 Y27.9457
G01 X49.5374 Y27.9431
G01 X49.5380 Y27.9400
G00 Z3.0000
G00 X52.0780 Y27.9400
G01 F100.00
G01 Z-0.2500
G01 F400.00
G01 X52.0774 Y27.9369
G01 X52.0757 Y27.9343
G01 X52.0731 Y27.9326
G01 X52.0700 Y27.9320
G01 X52.0669 Y27.9326
G01 X52.0643 Y27.9343
G01 X52.0626 Y27.9369
G01 X52.0620 Y27.9400
G01 X52.0626 Y27.9431
G01 X52.0643 Y27.9457
G01 X52.0669 Y27.9474
G01 X52.0700 Y27.9480
G01 X52.0731 Y27.9474
G01 X52.0757 Y27.9457
G01 X52.0774 Y27.9431
G01 X52.0780 Y27.9400
G00 X52.0780 Y27.9400
G01 F100.00
G01 Z-0.5000
G01 F400.00
G01 X52.0774 Y27.9369
G01 X52.0757 Y27.9343
G01 X52.0731 Y27.9326
G01 X52.0700 Y27.9320
G01 X52.0669 Y27.9326
G01 X52.0643 Y27.9343
G01 X52.0626 Y27.9369
G01 X52.0620 Y27.9400
G01 X52.0626 Y27.9431
G01 X52.0643 Y27.9457
G01 X52.0669 Y27.9474
G01 X52.0700 Y27.9480
G01 X52.0731 Y27.9474
G01 X52.0757 Y27.9457
G01 X52.0774 Y27.9431
G01 X52.0780 Y27.9400
G00 X52.0780 Y27.9400
G01 F100.00
G01 Z-0.7500
G01 F400.00
G01 X52.0774 Y27.9369
G01 X52.0757 Y27.9343
G01 X52.0731 Y27.9326
G01 X52.0700 Y27.9320
G01 X52.0669 Y27.9326
G01 X52.0643 Y27.9343
G01 X52.0626 Y27.9369
G01 X52.0620 Y27.9400
G01 X52.0626 Y27.9431
G01 X52.0643 Y27.9457
G01 X52.0669 Y27.9474
G01 X52.0700 Y27.9480
G01 X52.0731 Y27.9474
G01 X52.0757 Y27.9457
G01 X52.0774 Y27.9431
G01 X52.0780 Y27.9400
G00 X52.0780 Y27.9400
G01 F100.00
G01 Z-1.0000
G01 F400.00
G01 X52.0774 Y27.9369
G01 X52.0757 Y27.9343
G01 X52.0731 Y27.9326
G01 X52.0700 Y27.9320
G01 X52.0669 Y27.9326
G01 X52.0643 Y27.9343
G01 X52.0626 Y27.9369
G01 X52.0620 Y27.9400
G01 X52.0626 Y27.9431
G01 X52.0643 Y27.9457
G01 X52.0669 Y27.9474
G01 X52.0700 Y27.9480
G01 X52.0731 Y27.9474
G01 X52.0757 Y27.9457
G01 X52.0774 Y27.9431
G01 X52.0780 Y27.9400
G00 X52.0780 Y27.9400
G01 F100.00
G01 Z-1.2500
G01 F400.00
G01 X52.0774 Y27.9369
G01 X52.0757 Y27.9343
G01 X52.0731 Y27.9326
G01 X52.0700 Y27.9320
G01 X52.0669 Y27.9326
G01 X52.0643 Y27.9343
G01 X52.0626 Y27.9369
G01 X52.0620 Y27.9400
G01 X52.0626 Y27.9431
G01 X52.0643 Y27.9457
G01 X52.0669 Y27.9474
G01 X52.0700 Y27.9480
G01 X52.0731 Y27.9474
G01 X52.0757 Y27.9457
G01 X52.0774 Y27.9431
G01 X52.0780 Y27.9400
G00 X52.0780 Y27.9400
G01 F100.00
G01 Z-1.5000
G01 F400.00
G01 X52.0774 Y27.9369
G01 X52.0757 Y27.9343
G01 X52.0731 Y27.9326
G01 X52.0700 Y27.9320
G01 X52.0669 Y27.9326
G01 X52.0643 Y27.9343
G01 X52.0626 Y27.9369
G01 X52.0620 Y27.9400
G01 X52.0626 Y27.9431
G01 X52.0643 Y27.9457
G01 X52.0669 Y27.9474
G01 X52.0700 Y27.9480
G01 X52.0731 Y27.9474
G01 X52.0757 Y27.9457
G01 X52.0774 Y27.9431
G01 X52.0780 Y27.9400
G00 X52.0780 Y27.9400
G01 F100.00
G01 Z-1.7000
G01 F400.00
G01 X52.0774 Y27.9369
G01 X52.0757 Y27.9343
G01 X52.0731 Y27.9326
G01 X52.0700 Y27.9320
G01 X52.0669 Y27.9326
G01 X52.0643 Y27.9343
G01 X52.0626 Y27.9369
G01 X52.0620 Y27.9400
G01 X52.0626 Y27.9431
G01 X52.0643 Y27.9457
G01 X52.0669 Y27.9474
G01 X52.0700 Y27.9480
G01 X52.0731 Y27.9474
G01 X52.0757 Y27.9457
G01 X52.0774 Y27.9431
G01 X52.0780 Y27.9400
G00 Z3.0000
G00 X52.0780 Y30.4800
G01 F100.00
G01 Z-0.2500
G01 F400.00
G01 X52.0774 Y30.4769
G01 X52.0757 Y30.4743
G01 X52.0731 Y30.4726
G01 X52.0700 Y30.4720
G01 X52.0669 Y30.4726
G01 X52.0643 Y30.4743
G01 X52.0626 Y30.4769
G01 X52.0620 Y30.4800
G01 X52.0626 Y30.4831
G01 X52.0643 Y30.4857
G01 X52.0669 Y30.4874
G01 X52.0700 Y30.4880
G01 X52.0731 Y30.4874
G01 X52.0757 Y30.4857
G01 X52.0774 Y30.4831
G01 X52.0780 Y30.4800
G00 X52.0780 Y30.4800
G01 F100.00
G01 Z-0.5000
G01 F400.00
G01 X52.0774 Y30.4769
G01 X52.0757 Y30.4743
G01 X52.0731 Y30.4726
G01 X52.0700 Y30.4720
G01 X52.0669 Y30.4726
G01 X52.0643 Y30.4743
G01 X52.0626 Y30.4769
G01 X52.0620 Y30.4800
G01 X52.0626 Y30.4831
G01 X52.0643 Y30.4857
G01 X52.0669 Y30.4874
G01 X52.0700 Y30.4880
G01 X52.0731 Y30.4874
G01 X52.0757 Y30.4857
G01 X52.0774 Y30.4831
G01 X52.0780 Y30.4800
G00 X52.0780 Y30.4800
G01 F100.00
G01 Z-0.7500
G01 F400.00
G01 X52.0774 Y30.4769
G01 X52.0757 Y30.4743
G01 X52.0731 Y30.4726
G01 X52.0700 Y30.4720
G01 X52.0669 Y30.4726
G01 X52.0643 Y30.4743
G01 X52.0626 Y30.4769
G01 X52.0620 Y30.4800
G01 X52.0626 Y30.4831
G01 X52.0643 Y30.4857
G01 X52.0669 Y30.4874
G01 X52.0700 Y30.4880
G01 X52.0731 Y30.4874
G01 X52.0757 Y30.4857
G01 X52.0774 Y30.4831
G01 X52.0780 Y30.4800
G00 X52.0780 Y30.4800
G01 F100.00
G01 Z-1.0000
G01 F400.00
G01 X52.0774 Y30.4769
G01 X52.0757 Y30.4743
G01 X52.0731 Y30.4726
G01 X52.0700 Y30.4720
G01 X52.0669 Y30.4726
G01 X52.0643 Y30.4743
G01 X52.0626 Y30.4769
G01 X52.0620 Y30.4800
G01 X52.0626 Y30.4831
G01 X52.0643 Y30.4857
G01 X52.0669 Y30.4874
G01 X52.0700 Y30.4880
G01 X52.0731 Y30.4874
G01 X52.0757 Y30.4857
G01 X52.0774 Y30.4831
G01 X52.0780 Y30.4800
G00 X52.0780 Y30.4800
G01 F100.00
G01 Z-1.2500
G01 F400.00
G01 X52.0774 Y30.4769
G01 X52.0757 Y30.4743
G01 X52.0731 Y30.4726
G01 X52.0700 Y30.4720
G01 X52.0669 Y30.4726
G01 X52.0643 Y30.4743
G01 X52.0626 Y30.4769
G01 X52.0620 Y30.4800
G01 X52.0626 Y30.4831
G01 X52.0643 Y30.4857
G01 X52.0669 Y30.4874
G01 X52.0700 Y30.4880
G01 X52.0731 Y30.4874
G01 X52.0757 Y30.4857
G01 X52.0774 Y30.4831
G01 X52.0780 Y30.4800
G00 X52.0780 Y30.4800
G01 F100.00
G01 Z-1.5000
G01 F400.00
G01 X52.0774 Y30.4769
G01 X52.0757 Y30.4743
G01 X52.0731 Y30.4726
G01 X52.0700 Y30.4720
G01 X52.0669 Y30.4726
G01 X52.0643 Y30.4743
G01 X52.0626 Y30.4769
G01 X52.0620 Y30.4800
G01 X52.0626 Y30.4831
G01 X52.0643 Y30.4857
G01 X52.0669 Y30.4874
G01 X52.0700 Y30.4880
G01 X52.0731 Y30.4874
G01 X52.0757 Y30.4857
G01 X52.0774 Y30.4831
G01 X52.0780 Y30.4800
G00 X52.0780 Y30.4800
G01 F100.00
G01 Z-1.7000
G01 F400.00
G01 X52.0774 Y30.4769
G01 X52.0757 Y30.4743
G01 X52.0731 Y30.4726
G01 X52.0700 Y30.4720
G01 X52.0669 Y30.4726
G01 X52.0643 Y30.4743
G01 X52.0626 Y30.4769
G01 X52.0620 Y30.4800
G01 X52.0626 Y30.4831
G01 X52.0643 Y30.4857
G01 X52.0669 Y30.4874
G01 X52.0700 Y30.4880
G01 X52.0731 Y30.4874
G01 X52.0757 Y30.4857
G01 X52.0774 Y30.4831
G01 X52.0780 Y30.4800
G00 Z3.0000
G00 X54.6180 Y30.4800
G01 F100.00
G01 Z-0.2500
G01 F400.00
G01 X54.6174 Y30.4769
G01 X54.6157 Y30.4743
G01 X54.6131 Y30.4726
G01 X54.6100 Y30.4720
G01 X54.6069 Y30.4726
G01 X54.6043 Y30.4743
G01 X54.6026 Y30.4769
G01 X54.6020 Y30.4800
G01 X54.6026 Y30.4831
G01 X54.6043 Y30.4857
G01 X54.6069 Y30.4874
G01 X54.6100 Y30.4880
G01 X54.6131 Y30.4874
G01 X54.6157 Y30.4857
G01 X54.6174 Y30.4831
G01 X54.6180 Y30.4800
G00 X54.6180 Y30.4800
G01 F100.00
G01 Z-0.5000
G01 F400.00
G01 X54.6174 Y30.4769
G01 X54.6157 Y30.4743
G01 X54.6131 Y30.4726
G01 X54.6100 Y30.4720
G01 X54.6069 Y30.4726
G01 X54.6043 Y30.4743
G01 X54.6026 Y30.4769
G01 X54.6020 Y30.4800
G01 X54.6026 Y30.4831
G01 X54.6043 Y30.4857
G01 X54.6069 Y30.4874
G01 X54.6100 Y30.4880
G01 X54.6131 Y30.4874
G01 X54.6157 Y30.4857
G01 X54.6174 Y30.4831
G01 X54.6180 Y30.4800
G00 X54.6180 Y30.4800
G01 F100.00
G01 Z-0.7500
G01 F400.00
G01 X54.6174 Y30.4769
G01 X54.6157 Y30.4743
G01 X54.6131 Y30.4726
G01 X54.6100 Y30.4720
G01 X54.6069 Y30.4726
G01 X54.6043 Y30.4743
G01 X54.6026 Y30.4769
G01 X54.6020 Y30.4800
G01 X54.6026 Y30.4831
G01 X54.6043 Y30.4857
G01 X54.6069 Y30.4874
G01 X54.6100 Y30.4880
G01 X54.6131 Y30.4874
G01 X54.6157 Y30.4857
G01 X54.6174 Y30.4831
G01 X54.6180 Y30.4800
G00 X54.6180 Y30.4800
G01 F100.00
G01 Z-1.0000
G01 F400.00
G01 X54.6174 Y30.4769
G01 X54.6157 Y30.4743
G01 X54.6131 Y30.4726
G01 X54.6100 Y30.4720
G01 X54.6069 Y30.4726
G01 X54.6043 Y30.4743
G01 X54.6026 Y30.4769
G01 X54.6020 Y30.4800
G01 X54.6026 Y30.4831
G01 X54.6043 Y30.4857
G01 X54.6069 Y30.4874
G01 X54.6100 Y30.4880
G01 X54.6131 Y30.4874
G01 X54.6157 Y30.4857
G01 X54.6174 Y30.4831
G01 X54.6180 Y30.4800
G00 X54.6180 Y30.4800
G01 F100.00
G01 Z-1.2500
G01 F400.00
G01 X54.6174 Y30.4769
G01 X54.6157 Y30.4743
G01 X54.6131 Y30.4726
G01 X54.6100 Y30.4720
G01 X54.6069 Y30.4726
G01 X54.6043 Y30.4743
G01 X54.6026 Y30.4769
G01 X54.6020 Y30.4800
G01 X54.6026 Y30.4831
G01 X54.6043 Y30.4857
G01 X54.6069 Y30.4874
G01 X54.6100 Y30.4880
G01 X54.6131 Y30.4874
G01 X54.6157 Y30.4857
G01 X54.6174 Y30.4831
G01 X54.6180 Y30.4800
G00 X54.6180 Y30.4800
G01 F100.00
G01 Z-1.5000
G01 F400.00
G01 X54.6174 Y30.4769
G01 X54.6157 Y30.4743
G01 X54.6131 Y30.4726
G01 X54.6100 Y30.4720
G01 X54.6069 Y30.4726
G01 X54.6043 Y30.4743
G01 X54.6026 Y30.4769
G01 X54.6020 Y30.4800
G01 X54.6026 Y30.4831
G01 X54.6043 Y30.4857
G01 X54.6069 Y30.4874
G01 X54.6100 Y30.4880
G01 X54.6131 Y30.4874
G01 X54.6157 Y30.4857
G01 X54.6174 Y30.4831
G01 X54.6180 Y30.4800
G00 X54.6180 Y30.4800
G01 F100.00
G01 Z-1.7000
G01 F400.00
G01 X54.6174 Y30.4769
G01 X54.6157 Y30.4743
G01 X54.6131 Y30.4726
G01 X54.6100 Y30.4720
G01 X54.6069 Y30.4726
G01 X54.6043 Y30.4743
G01 X54.6026 Y30.4769
G01 X54.6020 Y30.4800
G01 X54.6026 Y30.4831
G01 X54.6043 Y30.4857
G01 X54.6069 Y30.4874
G01 X54.6100 Y30.4880
G01 X54.6131 Y30.4874
G01 X54.6157 Y30.4857
G01 X54.6174 Y30.4831
G01 X54.6180 Y30.4800
G00 Z3.0000
G00 X54.6180 Y27.9400
G01 F100.00
G01 Z-0.2500
G01 F400.00
G01 X54.6174 Y27.9369
G01 X54.6157 Y27.9343
G01 X54.6131 Y27.9326
G01 X54.6100 Y27.9320
G01 X54.6069 Y27.9326
G01 X54.6043 Y27.9343
G01 X54.6026 Y27.9369
G01 X54.6020 Y27.9400
G01 X54.6026 Y27.9431
G01 X54.6043 Y27.9457
G01 X54.6069 Y27.9474
G01 X54.6100 Y27.9480
G01 X54.6131 Y27.9474
G01 X54.6157 Y27.9457
G01 X54.6174 Y27.9431
G01 X54.6180 Y27.9400
G00 X54.6180 Y27.9400
G01 F100.00
G01 Z-0.5000
G01 F400.00
G01 X54.6174 Y27.9369
G01 X54.6157 Y27.9343
G01 X54.6131 Y27.9326
G01 X54.6100 Y27.9320
G01 X54.6069 Y27.9326
G01 X54.6043 Y27.9343
G01 X54.6026 Y27.9369
G01 X54.6020 Y27.9400
G01 X54.6026 Y27.9431
G01 X54.6043 Y27.9457
G01 X54.6069 Y27.9474
G01 X54.6100 Y27.9480
G01 X54.6131 Y27.9474
G01 X54.6157 Y27.9457
G01 X54.6174 Y27.9431
G01 X54.6180 Y27.9400
G00 X54.6180 Y27.9400
G01 F100.00
G01 Z-0.7500
G01 F400.00
G01 X54.6174 Y27.9369
G01 X54.6157 Y27.9343
G01 X54.6131 Y27.9326
G01 X54.6100 Y27.9320
G01 X54.6069 Y27.9326
G01 X54.6043 Y27.9343
G01 X54.6026 Y27.9369
G01 X54.6020 Y27.9400
G01 X54.6026 Y27.9431
G01 X54.6043 Y27.9457
G01 X54.6069 Y27.9474
G01 X54.6100 Y27.9480
G01 X54.6131 Y27.9474
G01 X54.6157 Y27.9457
G01 X54.6174 Y27.9431
G01 X54.6180 Y27.9400
G00 X54.6180 Y27.9400
G01 F100.00
G01 Z-1.0000
G01 F400.00
G01 X54.6174 Y27.9369
G01 X54.6157 Y27.9343
G01 X54.6131 Y27.9326
G01 X54.6100 Y27.9320
G01 X54.6069 Y27.9326
G01 X54.6043 Y27.9343
G01 X54.6026 Y27.9369
G01 X54.6020 Y27.9400
G01 X54.6026 Y27.9431
G01 X54.6043 Y27.9457
G01 X54.6069 Y27.9474
G01 X54.6100 Y27.9480
G01 X54.6131 Y27.9474
G01 X54.6157 Y27.9457
G01 X54.6174 Y27.9431
G01 X54.6180 Y27.9400
G00 X54.6180 Y27.9400
G01 F100.00
G01 Z-1.2500
G01 F400.00
G01 X54.6174 Y27.9369
G01 X54.6157 Y27.9343
G01 X54.6131 Y27.9326
G01 X54.6100 Y27.9320
G01 X54.6069 Y27.9326
G01 X54.6043 Y27.9343
G01 X54.6026 Y27.9369
G01 X54.6020 Y27.9400
G01 X54.6026 Y27.9431
G01 X54.6043 Y27.9457
G01 X54.6069 Y27.9474
G01 X54.6100 Y27.9480
G01 X54.6131 Y27.9474
G01 X54.6157 Y27.9457
G01 X54.6174 Y27.9431
G01 X54.6180 Y27.9400
G00 X54.6180 Y27.9400
G01 F100.00
G01 Z-1.5000
G01 F400.00
G01 X54.6174 Y27.9369
G01 X54.6157 Y27.9343
G01 X54.6131 Y27.9326
G01 X54.6100 Y27.9320
G01 X54.6069 Y27.9326
G01 X54.6043 Y27.9343
G01 X54.6026 Y27.9369
G01 X54.6020 Y27.9400
G01 X54.6026 Y27.9431
G01 X54.6043 Y27.9457
G01 X54.6069 Y27.9474
G01 X54.6100 Y27.9480
G01 X54.6131 Y27.9474
G01 X54.6157 Y27.9457
G01 X54.6174 Y27.9431
G01 X54.6180 Y27.9400
G00 X54.6180 Y27.9400
G01 F100.00
G01 Z-1.7000
G01 F400.00
G01 X54.6174 Y27.9369
G01 X54.6157 Y27.9343
G01 X54.6131 Y27.9326
G01 X54.6100 Y27.9320
G01 X54.6069 Y27.9326
G01 X54.6043 Y27.9343
G01 X54.6026 Y27.9369
G01 X54.6020 Y27.9400
G01 X54.6026 Y27.9431
G01 X54.6043 Y27.9457
G01 X54.6069 Y27.9474
G01 X54.6100 Y27.9480
G01 X54.6131 Y27.9474
G01 X54.6157 Y27.9457
G01 X54.6174 Y27.9431
G01 X54.6180 Y27.9400
G00 Z3.0000
G00 X57.1580 Y27.9400
G01 F100.00
G01 Z-0.2500
G01 F400.00
G01 X57.1574 Y27.9369
G01 X57.1557 Y27.9343
G01 X57.1531 Y27.9326
G01 X57.1500 Y27.9320
G01 X57.1469 Y27.9326
G01 X57.1443 Y27.9343
G01 X57.1426 Y27.9369
G01 X57.1420 Y27.9400
G01 X57.1426 Y27.9431
G01 X57.1443 Y27.9457
G01 X57.1469 Y27.9474
G01 X57.1500 Y27.9480
G01 X57.1531 Y27.9474
G01 X57.1557 Y27.9457
G01 X57.1574 Y27.9431
G01 X57.1580 Y27.9400
G00 X57.1580 Y27.9400
G01 F100.00
G01 Z-0.5000
G01 F400.00
G01 X57.1574 Y27.9369
G01 X57.1557 Y27.9343
G01 X57.1531 Y27.9326
G01 X57.1500 Y27.9320
G01 X57.1469 Y27.9326
G01 X57.1443 Y27.9343
G01 X57.1426 Y27.9369
G01 X57.1420 Y27.9400
G01 X57.1426 Y27.9431
G01 X57.1443 Y27.9457
G01 X57.1469 Y27.9474
G01 X57.1500 Y27.9480
G01 X57.1531 Y27.9474
G01 X57.1557 Y27.9457
G01 X57.1574 Y27.9431
G01 X57.1580 Y27.9400
G00 X57.1580 Y27.9400
G01 F100.00
G01 Z-0.7500
G01 F400.00
G01 X57.1574 Y27.9369
G01 X57.1557 Y27.9343
G01 X57.1531 Y27.9326
G01 X57.1500 Y27.9320
G01 X57.1469 Y27.9326
G01 X57.1443 Y27.9343
G01 X57.1426 Y27.9369
G01 X57.1420 Y27.9400
G01 X57.1426 Y27.9431
G01 X57.1443 Y27.9457
G01 X57.1469 Y27.9474
G01 X57.1500 Y27.9480
G01 X57.1531 Y27.9474
G01 X57.1557 Y27.9457
G01 X57.1574 Y27.9431
G01 X57.1580 Y27.9400
G00 X57.1580 Y27.9400
G01 F100.00
G01 Z-1.0000
G01 F400.00
G01 X57.1574 Y27.9369
G01 X57.1557 Y27.9343
G01 X57.1531 Y27.9326
G01 X57.1500 Y27.9320
G01 X57.1469 Y27.9326
G01 X57.1443 Y27.9343
G01 X57.1426 Y27.9369
G01 X57.1420 Y27.9400
G01 X57.1426 Y27.9431
G01 X57.1443 Y27.9457
G01 X57.1469 Y27.9474
G01 X57.1500 Y27.9480
G01 X57.1531 Y27.9474
G01 X57.1557 Y27.9457
G01 X57.1574 Y27.9431
G01 X57.1580 Y27.9400
G00 X57.1580 Y27.9400
G01 F100.00
G01 Z-1.2500
G01 F400.00
G01 X57.1574 Y27.9369
G01 X57.1557 Y27.9343
G01 X57.1531 Y27.9326
G01 X57.1500 Y27.9320
G01 X57.1469 Y27.9326
G01 X57.1443 Y27.9343
G01 X57.1426 Y27.9369
G01 X57.1420 Y27.9400
G01 X57.1426 Y27.9431
G01 X57.1443 Y27.9457
G01 X57.1469 Y27.9474
G01 X57.1500 Y27.9480
G01 X57.1531 Y27.9474
G01 X57.1557 Y27.9457
G01 X57.1574 Y27.9431
G01 X57.1580 Y27.9400
G00 X57.1580 Y27.9400
G01 F100.00
G01 Z-1.5000
G01 F400.00
G01 X57.1574 Y27.9369
G01 X57.1557 Y27.9343
G01 X57.1531 Y27.9326
G01 X57.1500 Y27.9320
G01 X57.1469 Y27.9326
G01 X57.1443 Y27.9343
G01 X57.1426 Y27.9369
G01 X57.1420 Y27.9400
G01 X57.1426 Y27.9431
G01 X57.1443 Y27.9457
G01 X57.1469 Y27.9474
G01 X57.1500 Y27.9480
G01 X57.1531 Y27.9474
G01 X57.1557 Y27.9457
G01 X57.1574 Y27.9431
G01 X57.1580 Y27.9400
G00 X57.1580 Y27.9400
G01 F100.00
G01 Z-1.7000
G01 F400.00
G01 X57.1574 Y27.9369
G01 X57.1557 Y27.9343
G01 X57.1531 Y27.9326
G01 X57.1500 Y27.9320
G01 X57.1469 Y27.9326
G01 X57.1443 Y27.9343
G01 X57.1426 Y27.9369
G01 X57.1420 Y27.9400
G01 X57.1426 Y27.9431
G01 X57.1443 Y27.9457
G01 X57.1469 Y27.9474
G01 X57.1500 Y27.9480
G01 X57.1531 Y27.9474
G01 X57.1557 Y27.9457
G01 X57.1574 Y27.9431
G01 X57.1580 Y27.9400
G00 Z3.0000
G00 X59.6980 Y27.9400
G01 F100.00
G01 Z-0.2500
G01 F400.00
G01 X59.6974 Y27.9369
G01 X59.6957 Y27.9343
G01 X59.6931 Y27.9326
G01 X59.6900 Y27.9320
G01 X59.6869 Y27.9326
G01 X59.6843 Y27.9343
G01 X59.6826 Y27.9369
G01 X59.6820 Y27.9400
G01 X59.6826 Y27.9431
G01 X59.6843 Y27.9457
G01 X59.6869 Y27.9474
G01 X59.6900 Y27.9480
G01 X59.6931 Y27.9474
G01 X59.6957 Y27.9457
G01 X59.6974 Y27.9431
G01 X59.6980 Y27.9400
G00 X59.6980 Y27.9400
G01 F100.00
G01 Z-0.5000
G01 F400.00
G01 X59.6974 Y27.9369
G01 X59.6957 Y27.9343
G01 X59.6931 Y27.9326
G01 X59.6900 Y27.9320
G01 X59.6869 Y27.9326
G01 X59.6843 Y27.9343
G01 X59.6826 Y27.9369
G01 X59.6820 Y27.9400
G01 X59.6826 Y27.9431
G01 X59.6843 Y27.9457
G01 X59.6869 Y27.9474
G01 X59.6900 Y27.9480
G01 X59.6931 Y27.9474
G01 X59.6957 Y27.9457
G01 X59.6974 Y27.9431
G01 X59.6980 Y27.9400
G00 X59.6980 Y27.9400
G01 F100.00
G01 Z-0.7500
G01 F400.00
G01 X59.6974 Y27.9369
G01 X59.6957 Y27.9343
G01 X59.6931 Y27.9326
G01 X59.6900 Y27.9320
G01 X59.6869 Y27.9326
G01 X59.6843 Y27.9343
G01 X59.6826 Y27.9369
G01 X59.6820 Y27.9400
G01 X59.6826 Y27.9431
G01 X59.6843 Y27.9457
G01 X59.6869 Y27.9474
G01 X59.6900 Y27.9480
G01 X59.6931 Y27.9474
G01 X59.6957 Y27.9457
G01 X59.6974 Y27.9431
G01 X59.6980 Y27.9400
G00 X59.6980 Y27.9400
G01 F100.00
G01 Z-1.0000
G01 F400.00
G01 X59.6974 Y27.9369
G01 X59.6957 Y27.9343
G01 X59.6931 Y27.9326
G01 X59.6900 Y27.9320
G01 X59.6869 Y27.9326
G01 X59.6843 Y27.9343
G01 X59.6826 Y27.9369
G01 X59.6820 Y27.9400
G01 X59.6826 Y27.9431
G01 X59.6843 Y27.9457
G01 X59.6869 Y27.9474
G01 X59.6900 Y27.9480
G01 X59.6931 Y27.9474
G01 X59.6957 Y27.9457
G01 X59.6974 Y27.9431
G01 X59.6980 Y27.9400
G00 X59.6980 Y27.9400
G01 F100.00
G01 Z-1.2500
G01 F400.00
G01 X59.6974 Y27.9369
G01 X59.6957 Y27.9343
G01 X59.6931 Y27.9326
G01 X59.6900 Y27.9320
G01 X59.6869 Y27.9326
G01 X59.6843 Y27.9343
G01 X59.6826 Y27.9369
G01 X59.6820 Y27.9400
G01 X59.6826 Y27.9431
G01 X59.6843 Y27.9457
G01 X59.6869 Y27.9474
G01 X59.6900 Y27.9480
G01 X59.6931 Y27.9474
G01 X59.6957 Y27.9457
G01 X59.6974 Y27.9431
G01 X59.6980 Y27.9400
G00 X59.6980 Y27.9400
G01 F100.00
G01 Z-1.5000
G01 F400.00
G01 X59.6974 Y27.9369
G01 X59.6957 Y27.9343
G01 X59.6931 Y27.9326
G01 X59.6900 Y27.9320
G01 X59.6869 Y27.9326
G01 X59.6843 Y27.9343
G01 X59.6826 Y27.9369
G01 X59.6820 Y27.9400
G01 X59.6826 Y27.9431
G01 X59.6843 Y27.9457
G01 X59.6869 Y27.9474
G01 X59.6900 Y27.9480
G01 X59.6931 Y27.9474
G01 X59.6957 Y27.9457
G01 X59.6974 Y27.9431
G01 X59.6980 Y27.9400
G00 X59.6980 Y27.9400
G01 F100.00
G01 Z-1.7000
G01 F400.00
G01 X59.6974 Y27.9369
G01 X59.6957 Y27.9343
G01 X59.6931 Y27.9326
G01 X59.6900 Y27.9320
G01 X59.6869 Y27.9326
G01 X59.6843 Y27.9343
G01 X59.6826 Y27.9369
G01 X59.6820 Y27.9400
G01 X59.6826 Y27.9431
G01 X59.6843 Y27.9457
G01 X59.6869 Y27.9474
G01 X59.6900 Y27.9480
G01 X59.6931 Y27.9474
G01 X59.6957 Y27.9457
G01 X59.6974 Y27.9431
G01 X59.6980 Y27.9400
G00 Z3.0000
G00 X59.6980 Y30.4800
G01 F100.00
G01 Z-0.2500
G01 F400.00
G01 X59.6974 Y30.4769
G01 X59.6957 Y30.4743
G01 X59.6931 Y30.4726
G01 X59.6900 Y30.4720
G01 X59.6869 Y30.4726
G01 X59.6843 Y30.4743
G01 X59.6826 Y30.4769
G01 X59.6820 Y30.4800
G01 X59.6826 Y30.4831
G01 X59.6843 Y30.4857
G01 X59.6869 Y30.4874
G01 X59.6900 Y30.4880
G01 X59.6931 Y30.4874
G01 X59.6957 Y30.4857
G01 X59.6974 Y30.4831
G01 X59.6980 Y30.4800
G00 X59.6980 Y30.4800
G01 F100.00
G01 Z-0.5000
G01 F400.00
G01 X59.6974 Y30.4769
G01 X59.6957 Y30.4743
G01 X59.6931 Y30.4726
G01 X59.6900 Y30.4720
G01 X59.6869 Y30.4726
G01 X59.6843 Y30.4743
G01 X59.6826 Y30.4769
G01 X59.6820 Y30.4800
G01 X59.6826 Y30.4831
G01 X59.6843 Y30.4857
G01 X59.6869 Y30.4874
G01 X59.6900 Y30.4880
G01 X59.6931 Y30.4874
G01 X59.6957 Y30.4857
G01 X59.6974 Y30.4831
G01 X59.6980 Y30.4800
G00 X59.6980 Y30.4800
G01 F100.00
G01 Z-0.7500
G01 F400.00
G01 X59.6974 Y30.4769
G01 X59.6957 Y30.4743
G01 X59.6931 Y30.4726
G01 X59.6900 Y30.4720
G01 X59.6869 Y30.4726
G01 X59.6843 Y30.4743
G01 X59.6826 Y30.4769
G01 X59.6820 Y30.4800
G01 X59.6826 Y30.4831
G01 X59.6843 Y30.4857
G01 X59.6869 Y30.4874
G01 X59.6900 Y30.4880
G01 X59.6931 Y30.4874
G01 X59.6957 Y30.4857
G01 X59.6974 Y30.4831
G01 X59.6980 Y30.4800
G00 X59.6980 Y30.4800
G01 F100.00
G01 Z-1.0000
G01 F400.00
G01 X59.6974 Y30.4769
G01 X59.6957 Y30.4743
G01 X59.6931 Y30.4726
G01 X59.6900 Y30.4720
G01 X59.6869 Y30.4726
G01 X59.6843 Y30.4743
G01 X59.6826 Y30.4769
G01 X59.6820 Y30.4800
G01 X59.6826 Y30.4831
G01 X59.6843 Y30.4857
G01 X59.6869 Y30.4874
G01 X59.6900 Y30.4880
G01 X59.6931 Y30.4874
G01 X59.6957 Y30.4857
G01 X59.6974 Y30.4831
G01 X59.6980 Y30.4800
G00 X59.6980 Y30.4800
G01 F100.00
G01 Z-1.2500
G01 F400.00
G01 X59.6974 Y30.4769
G01 X59.6957 Y30.4743
G01 X59.6931 Y30.4726
G01 X59.6900 Y30.4720
G01 X59.6869 Y30.4726
G01 X59.6843 Y30.4743
G01 X59.6826 Y30.4769
G01 X59.6820 Y30.4800
G01 X59.6826 Y30.4831
G01 X59.6843 Y30.4857
G01 X59.6869 Y30.4874
G01 X59.6900 Y30.4880
G01 X59.6931 Y30.4874
G01 X59.6957 Y30.4857
G01 X59.6974 Y30.4831
G01 X59.6980 Y30.4800
G00 X59.6980 Y30.4800
G01 F100.00
G01 Z-1.5000
G01 F400.00
G01 X59.6974 Y30.4769
G01 X59.6957 Y30.4743
G01 X59.6931 Y30.4726
G01 X59.6900 Y30.4720
G01 X59.6869 Y30.4726
G01 X59.6843 Y30.4743
G01 X59.6826 Y30.4769
G01 X59.6820 Y30.4800
G01 X59.6826 Y30.4831
G01 X59.6843 Y30.4857
G01 X59.6869 Y30.4874
G01 X59.6900 Y30.4880
G01 X59.6931 Y30.4874
G01 X59.6957 Y30.4857
G01 X59.6974 Y30.4831
G01 X59.6980 Y30.4800
G00 X59.6980 Y30.4800
G01 F100.00
G01 Z-1.7000
G01 F400.00
G01 X59.6974 Y30.4769
G01 X59.6957 Y30.4743
G01 X59.6931 Y30.4726
G01 X59.6900 Y30.4720
G01 X59.6869 Y30.4726
G01 X59.6843 Y30.4743
G01 X59.6826 Y30.4769
G01 X59.6820 Y30.4800
G01 X59.6826 Y30.4831
G01 X59.6843 Y30.4857
G01 X59.6869 Y30.4874
G01 X59.6900 Y30.4880
G01 X59.6931 Y30.4874
G01 X59.6957 Y30.4857
G01 X59.6974 Y30.4831
G01 X59.6980 Y30.4800
G00 Z3.0000
G00 X57.1580 Y30.4800
G01 F100.00
G01 Z-0.2500
G01 F400.00
G01 X57.1574 Y30.4769
G01 X57.1557 Y30.4743
G01 X57.1531 Y30.4726
G01 X57.1500 Y30.4720
G01 X57.1469 Y30.4726
G01 X57.1443 Y30.4743
G01 X57.1426 Y30.4769
G01 X57.1420 Y30.4800
G01 X57.1426 Y30.4831
G01 X57.1443 Y30.4857
G01 X57.1469 Y30.4874
G01 X57.1500 Y30.4880
G01 X57.1531 Y30.4874
G01 X57.1557 Y30.4857
G01 X57.1574 Y30.4831
G01 X57.1580 Y30.4800
G00 X57.1580 Y30.4800
G01 F100.00
G01 Z-0.5000
G01 F400.00
G01 X57.1574 Y30.4769
G01 X57.1557 Y30.4743
G01 X57.1531 Y30.4726
G01 X57.1500 Y30.4720
G01 X57.1469 Y30.4726
G01 X57.1443 Y30.4743
G01 X57.1426 Y30.4769
G01 X57.1420 Y30.4800
G01 X57.1426 Y30.4831
G01 X57.1443 Y30.4857
G01 X57.1469 Y30.4874
G01 X57.1500 Y30.4880
G01 X57.1531 Y30.4874
G01 X57.1557 Y30.4857
G01 X57.1574 Y30.4831
G01 X57.1580 Y30.4800
G00 X57.1580 Y30.4800
G01 F100.00
G01 Z-0.7500
G01 F400.00
G01 X57.1574 Y30.4769
G01 X57.1557 Y30.4743
G01 X57.1531 Y30.4726
G01 X57.1500 Y30.4720
G01 X57.1469 Y30.4726
G01 X57.1443 Y30.4743
G01 X57.1426 Y30.4769
G01 X57.1420 Y30.4800
G01 X57.1426 Y30.4831
G01 X57.1443 Y30.4857
G01 X57.1469 Y30.4874
G01 X57.1500 Y30.4880
G01 X57.1531 Y30.4874
G01 X57.1557 Y30.4857
G01 X57.1574 Y30.4831
G01 X57.1580 Y30.4800
G00 X57.1580 Y30.4800
G01 F100.00
G01 Z-1.0000
G01 F400.00
G01 X57.1574 Y30.4769
G01 X57.1557 Y30.4743
G01 X57.1531 Y30.4726
G01 X57.1500 Y30.4720
G01 X57.1469 Y30.4726
G01 X57.1443 Y30.4743
G01 X57.1426 Y30.4769
G01 X57.1420 Y30.4800
G01 X57.1426 Y30.4831
G01 X57.1443 Y30.4857
G01 X57.1469 Y30.4874
G01 X57.1500 Y30.4880
G01 X57.1531 Y30.4874
G01 X57.1557 Y30.4857
G01 X57.1574 Y30.4831
G01 X57.1580 Y30.4800
G00 X57.1580 Y30.4800
G01 F100.00
G01 Z-1.2500
G01 F400.00
G01 X57.1574 Y30.4769
G01 X57.1557 Y30.4743
G01 X57.1531 Y30.4726
G01 X57.1500 Y30.4720
G01 X57.1469 Y30.4726
G01 X57.1443 Y30.4743
G01 X57.1426 Y30.4769
G01 X57.1420 Y30.4800
G01 X57.1426 Y30.4831
G01 X57.1443 Y30.4857
G01 X57.1469 Y30.4874
G01 X57.1500 Y30.4880
G01 X57.1531 Y30.4874
G01 X57.1557 Y30.4857
G01 X57.1574 Y30.4831
G01 X57.1580 Y30.4800
G00 X57.1580 Y30.4800
G01 F100.00
G01 Z-1.5000
G01 F400.00
G01 X57.1574 Y30.4769
G01 X57.1557 Y30.4743
G01 X57.1531 Y30.4726
G01 X57.1500 Y30.4720
G01 X57.1469 Y30.4726
G01 X57.1443 Y30.4743
G01 X57.1426 Y30.4769
G01 X57.1420 Y30.4800
G01 X57.1426 Y30.4831
G01 X57.1443 Y30.4857
G01 X57.1469 Y30.4874
G01 X57.1500 Y30.4880
G01 X57.1531 Y30.4874
G01 X57.1557 Y30.4857
G01 X57.1574 Y30.4831
G01 X57.1580 Y30.4800
G00 X57.1580 Y30.4800
G01 F100.00
G01 Z-1.7000
G01 F400.00
G01 X57.1574 Y30.4769
G01 X57.1557 Y30.4743
G01 X57.1531 Y30.4726
G01 X57.1500 Y30.4720
G01 X57.1469 Y30.4726
G01 X57.1443 Y30.4743
G01 X57.1426 Y30.4769
G01 X57.1420 Y30.4800
G01 X57.1426 Y30.4831
G01 X57.1443 Y30.4857
G01 X57.1469 Y30.4874
G01 X57.1500 Y30.4880
G01 X57.1531 Y30.4874
G01 X57.1557 Y30.4857
G01 X57.1574 Y30.4831
G01 X57.1580 Y30.4800
G00 Z3.0000
G00 X62.2380 Y30.4800
G01 F100.00
G01 Z-0.2500
G01 F400.00
G01 X62.2374 Y30.4769
G01 X62.2357 Y30.4743
G01 X62.2331 Y30.4726
G01 X62.2300 Y30.4720
G01 X62.2269 Y30.4726
G01 X62.2243 Y30.4743
G01 X62.2226 Y30.4769
G01 X62.2220 Y30.4800
G01 X62.2226 Y30.4831
G01 X62.2243 Y30.4857
G01 X62.2269 Y30.4874
G01 X62.2300 Y30.4880
G01 X62.2331 Y30.4874
G01 X62.2357 Y30.4857
G01 X62.2374 Y30.4831
G01 X62.2380 Y30.4800
G00 X62.2380 Y30.4800
G01 F100.00
G01 Z-0.5000
G01 F400.00
G01 X62.2374 Y30.4769
G01 X62.2357 Y30.4743
G01 X62.2331 Y30.4726
G01 X62.2300 Y30.4720
G01 X62.2269 Y30.4726
G01 X62.2243 Y30.4743
G01 X62.2226 Y30.4769
G01 X62.2220 Y30.4800
G01 X62.2226 Y30.4831
G01 X62.2243 Y30.4857
G01 X62.2269 Y30.4874
G01 X62.2300 Y30.4880
G01 X62.2331 Y30.4874
G01 X62.2357 Y30.4857
G01 X62.2374 Y30.4831
G01 X62.2380 Y30.4800
G00 X62.2380 Y30.4800
G01 F100.00
G01 Z-0.7500
G01 F400.00
G01 X62.2374 Y30.4769
G01 X62.2357 Y30.4743
G01 X62.2331 Y30.4726
G01 X62.2300 Y30.4720
G01 X62.2269 Y30.4726
G01 X62.2243 Y30.4743
G01 X62.2226 Y30.4769
G01 X62.2220 Y30.4800
G01 X62.2226 Y30.4831
G01 X62.2243 Y30.4857
G01 X62.2269 Y30.4874
G01 X62.2300 Y30.4880
G01 X62.2331 Y30.4874
G01 X62.2357 Y30.4857
G01 X62.2374 Y30.4831
G01 X62.2380 Y30.4800
G00 X62.2380 Y30.4800
G01 F100.00
G01 Z-1.0000
G01 F400.00
G01 X62.2374 Y30.4769
G01 X62.2357 Y30.4743
G01 X62.2331 Y30.4726
G01 X62.2300 Y30.4720
G01 X62.2269 Y30.4726
G01 X62.2243 Y30.4743
G01 X62.2226 Y30.4769
G01 X62.2220 Y30.4800
G01 X62.2226 Y30.4831
G01 X62.2243 Y30.4857
G01 X62.2269 Y30.4874
G01 X62.2300 Y30.4880
G01 X62.2331 Y30.4874
G01 X62.2357 Y30.4857
G01 X62.2374 Y30.4831
G01 X62.2380 Y30.4800
G00 X62.2380 Y30.4800
G01 F100.00
G01 Z-1.2500
G01 F400.00
G01 X62.2374 Y30.4769
G01 X62.2357 Y30.4743
G01 X62.2331 Y30.4726
G01 X62.2300 Y30.4720
G01 X62.2269 Y30.4726
G01 X62.2243 Y30.4743
G01 X62.2226 Y30.4769
G01 X62.2220 Y30.4800
G01 X62.2226 Y30.4831
G01 X62.2243 Y30.4857
G01 X62.2269 Y30.4874
G01 X62.2300 Y30.4880
G01 X62.2331 Y30.4874
G01 X62.2357 Y30.4857
G01 X62.2374 Y30.4831
G01 X62.2380 Y30.4800
G00 X62.2380 Y30.4800
G01 F100.00
G01 Z-1.5000
G01 F400.00
G01 X62.2374 Y30.4769
G01 X62.2357 Y30.4743
G01 X62.2331 Y30.4726
G01 X62.2300 Y30.4720
G01 X62.2269 Y30.4726
G01 X62.2243 Y30.4743
G01 X62.2226 Y30.4769
G01 X62.2220 Y30.4800
G01 X62.2226 Y30.4831
G01 X62.2243 Y30.4857
G01 X62.2269 Y30.4874
G01 X62.2300 Y30.4880
G01 X62.2331 Y30.4874
G01 X62.2357 Y30.4857
G01 X62.2374 Y30.4831
G01 X62.2380 Y30.4800
G00 X62.2380 Y30.4800
G01 F100.00
G01 Z-1.7000
G01 F400.00
G01 X62.2374 Y30.4769
G01 X62.2357 Y30.4743
G01 X62.2331 Y30.4726
G01 X62.2300 Y30.4720
G01 X62.2269 Y30.4726
G01 X62.2243 Y30.4743
G01 X62.2226 Y30.4769
G01 X62.2220 Y30.4800
G01 X62.2226 Y30.4831
G01 X62.2243 Y30.4857
G01 X62.2269 Y30.4874
G01 X62.2300 Y30.4880
G01 X62.2331 Y30.4874
G01 X62.2357 Y30.4857
G01 X62.2374 Y30.4831
G01 X62.2380 Y30.4800
G00 Z3.0000
G00 X62.2380 Y27.9400
G01 F100.00
G01 Z-0.2500
G01 F400.00
G01 X62.2374 Y27.9369
G01 X62.2357 Y27.9343
G01 X62.2331 Y27.9326
G01 X62.2300 Y27.9320
G01 X62.2269 Y27.9326
G01 X62.2243 Y27.9343
G01 X62.2226 Y27.9369
G01 X62.2220 Y27.9400
G01 X62.2226 Y27.9431
G01 X62.2243 Y27.9457
G01 X62.2269 Y27.9474
G01 X62.2300 Y27.9480
G01 X62.2331 Y27.9474
G01 X62.2357 Y27.9457
G01 X62.2374 Y27.9431
G01 X62.2380 Y27.9400
G00 X62.2380 Y27.9400
G01 F100.00
G01 Z-0.5000
G01 F400.00
G01 X62.2374 Y27.9369
G01 X62.2357 Y27.9343
G01 X62.2331 Y27.9326
G01 X62.2300 Y27.9320
G01 X62.2269 Y27.9326
G01 X62.2243 Y27.9343
G01 X62.2226 Y27.9369
G01 X62.2220 Y27.9400
G01 X62.2226 Y27.9431
G01 X62.2243 Y27.9457
G01 X62.2269 Y27.9474
G01 X62.2300 Y27.9480
G01 X62.2331 Y27.9474
G01 X62.2357 Y27.9457
G01 X62.2374 Y27.9431
G01 X62.2380 Y27.9400
G00 X62.2380 Y27.9400
G01 F100.00
G01 Z-0.7500
G01 F400.00
G01 X62.2374 Y27.9369
G01 X62.2357 Y27.9343
G01 X62.2331 Y27.9326
G01 X62.2300 Y27.9320
G01 X62.2269 Y27.9326
G01 X62.2243 Y27.9343
G01 X62.2226 Y27.9369
G01 X62.2220 Y27.9400
G01 X62.2226 Y27.9431
G01 X62.2243 Y27.9457
G01 X62.2269 Y27.9474
G01 X62.2300 Y27.9480
G01 X62.2331 Y27.9474
G01 X62.2357 Y27.9457
G01 X62.2374 Y27.9431
G01 X62.2380 Y27.9400
G00 X62.2380 Y27.9400
G01 F100.00
G01 Z-1.0000
G01 F400.00
G01 X62.2374 Y27.9369
G01 X62.2357 Y27.9343
G01 X62.2331 Y27.9326
G01 X62.2300 Y27.9320
G01 X62.2269 Y27.9326
G01 X62.2243 Y27.9343
G01 X62.2226 Y27.9369
G01 X62.2220 Y27.9400
G01 X62.2226 Y27.9431
G01 X62.2243 Y27.9457
G01 X62.2269 Y27.9474
G01 X62.2300 Y27.9480
G01 X62.2331 Y27.9474
G01 X62.2357 Y27.9457
G01 X62.2374 Y27.9431
G01 X62.2380 Y27.9400
G00 X62.2380 Y27.9400
G01 F100.00
G01 Z-1.2500
G01 F400.00
G01 X62.2374 Y27.9369
G01 X62.2357 Y27.9343
G01 X62.2331 Y27.9326
G01 X62.2300 Y27.9320
G01 X62.2269 Y27.9326
G01 X62.2243 Y27.9343
G01 X62.2226 Y27.9369
G01 X62.2220 Y27.9400
G01 X62.2226 Y27.9431
G01 X62.2243 Y27.9457
G01 X62.2269 Y27.9474
G01 X62.2300 Y27.9480
G01 X62.2331 Y27.9474
G01 X62.2357 Y27.9457
G01 X62.2374 Y27.9431
G01 X62.2380 Y27.9400
G00 X62.2380 Y27.9400
G01 F100.00
G01 Z-1.5000
G01 F400.00
G01 X62.2374 Y27.9369
G01 X62.2357 Y27.9343
G01 X62.2331 Y27.9326
G01 X62.2300 Y27.9320
G01 X62.2269 Y27.9326
G01 X62.2243 Y27.9343
G01 X62.2226 Y27.9369
G01 X62.2220 Y27.9400
G01 X62.2226 Y27.9431
G01 X62.2243 Y27.9457
G01 X62.2269 Y27.9474
G01 X62.2300 Y27.9480
G01 X62.2331 Y27.9474
G01 X62.2357 Y27.9457
G01 X62.2374 Y27.9431
G01 X62.2380 Y27.9400
G00 X62.2380 Y27.9400
G01 F100.00
G01 Z-1.7000
G01 F400.00
G01 X62.2374 Y27.9369
G01 X62.2357 Y27.9343
G01 X62.2331 Y27.9326
G01 X62.2300 Y27.9320
G01 X62.2269 Y27.9326
G01 X62.2243 Y27.9343
G01 X62.2226 Y27.9369
G01 X62.2220 Y27.9400
G01 X62.2226 Y27.9431
G01 X62.2243 Y27.9457
G01 X62.2269 Y27.9474
G01 X62.2300 Y27.9480
G01 X62.2331 Y27.9474
G01 X62.2357 Y27.9457
G01 X62.2374 Y27.9431
G01 X62.2380 Y27.9400
G00 Z3.0000
G00 X62.2380 Y25.4000
G01 F100.00
G01 Z-0.2500
G01 F400.00
G01 X62.2374 Y25.3969
G01 X62.2357 Y25.3943
G01 X62.2331 Y25.3926
G01 X62.2300 Y25.3920
G01 X62.2269 Y25.3926
G01 X62.2243 Y25.3943
G01 X62.2226 Y25.3969
G01 X62.2220 Y25.4000
G01 X62.2226 Y25.4031
G01 X62.2243 Y25.4057
G01 X62.2269 Y25.4074
G01 X62.2300 Y25.4080
G01 X62.2331 Y25.4074
G01 X62.2357 Y25.4057
G01 X62.2374 Y25.4031
G01 X62.2380 Y25.4000
G00 X62.2380 Y25.4000
G01 F100.00
G01 Z-0.5000
G01 F400.00
G01 X62.2374 Y25.3969
G01 X62.2357 Y25.3943
G01 X62.2331 Y25.3926
G01 X62.2300 Y25.3920
G01 X62.2269 Y25.3926
G01 X62.2243 Y25.3943
G01 X62.2226 Y25.3969
G01 X62.2220 Y25.4000
G01 X62.2226 Y25.4031
G01 X62.2243 Y25.4057
G01 X62.2269 Y25.4074
G01 X62.2300 Y25.4080
G01 X62.2331 Y25.4074
G01 X62.2357 Y25.4057
G01 X62.2374 Y25.4031
G01 X62.2380 Y25.4000
G00 X62.2380 Y25.4000
G01 F100.00
G01 Z-0.7500
G01 F400.00
G01 X62.2374 Y25.3969
G01 X62.2357 Y25.3943
G01 X62.2331 Y25.3926
G01 X62.2300 Y25.3920
G01 X62.2269 Y25.3926
G01 X62.2243 Y25.3943
G01 X62.2226 Y25.3969
G01 X62.2220 Y25.4000
G01 X62.2226 Y25.4031
G01 X62.2243 Y25.4057
G01 X62.2269 Y25.4074
G01 X62.2300 Y25.4080
G01 X62.2331 Y25.4074
G01 X62.2357 Y25.4057
G01 X62.2374 Y25.4031
G01 X62.2380 Y25.4000
G00 X62.2380 Y25.4000
G01 F100.00
G01 Z-1.0000
G01 F400.00
G01 X62.2374 Y25.3969
G01 X62.2357 Y25.3943
G01 X62.2331 Y25.3926
G01 X62.2300 Y25.3920
G01 X62.2269 Y25.3926
G01 X62.2243 Y25.3943
G01 X62.2226 Y25.3969
G01 X62.2220 Y25.4000
G01 X62.2226 Y25.4031
G01 X62.2243 Y25.4057
G01 X62.2269 Y25.4074
G01 X62.2300 Y25.4080
G01 X62.2331 Y25.4074
G01 X62.2357 Y25.4057
G01 X62.2374 Y25.4031
G01 X62.2380 Y25.4000
G00 X62.2380 Y25.4000
G01 F100.00
G01 Z-1.2500
G01 F400.00
G01 X62.2374 Y25.3969
G01 X62.2357 Y25.3943
G01 X62.2331 Y25.3926
G01 X62.2300 Y25.3920
G01 X62.2269 Y25.3926
G01 X62.2243 Y25.3943
G01 X62.2226 Y25.3969
G01 X62.2220 Y25.4000
G01 X62.2226 Y25.4031
G01 X62.2243 Y25.4057
G01 X62.2269 Y25.4074
G01 X62.2300 Y25.4080
G01 X62.2331 Y25.4074
G01 X62.2357 Y25.4057
G01 X62.2374 Y25.4031
G01 X62.2380 Y25.4000
G00 X62.2380 Y25.4000
G01 F100.00
G01 Z-1.5000
G01 F400.00
G01 X62.2374 Y25.3969
G01 X62.2357 Y25.3943
G01 X62.2331 Y25.3926
G01 X62.2300 Y25.3920
G01 X62.2269 Y25.3926
G01 X62.2243 Y25.3943
G01 X62.2226 Y25.3969
G01 X62.2220 Y25.4000
G01 X62.2226 Y25.4031
G01 X62.2243 Y25.4057
G01 X62.2269 Y25.4074
G01 X62.2300 Y25.4080
G01 X62.2331 Y25.4074
G01 X62.2357 Y25.4057
G01 X62.2374 Y25.4031
G01 X62.2380 Y25.4000
G00 X62.2380 Y25.4000
G01 F100.00
G01 Z-1.7000
G01 F400.00
G01 X62.2374 Y25.3969
G01 X62.2357 Y25.3943
G01 X62.2331 Y25.3926
G01 X62.2300 Y25.3920
G01 X62.2269 Y25.3926
G01 X62.2243 Y25.3943
G01 X62.2226 Y25.3969
G01 X62.2220 Y25.4000
G01 X62.2226 Y25.4031
G01 X62.2243 Y25.4057
G01 X62.2269 Y25.4074
G01 X62.2300 Y25.4080
G01 X62.2331 Y25.4074
G01 X62.2357 Y25.4057
G01 X62.2374 Y25.4031
G01 X62.2380 Y25.4000
G00 Z3.0000
G00 X62.2380 Y22.8600
G01 F100.00
G01 Z-0.2500
G01 F400.00
G01 X62.2374 Y22.8569
G01 X62.2357 Y22.8543
G01 X62.2331 Y22.8526
G01 X62.2300 Y22.8520
G01 X62.2269 Y22.8526
G01 X62.2243 Y22.8543
G01 X62.2226 Y22.8569
G01 X62.2220 Y22.8600
G01 X62.2226 Y22.8631
G01 X62.2243 Y22.8657
G01 X62.2269 Y22.8674
G01 X62.2300 Y22.8680
G01 X62.2331 Y22.8674
G01 X62.2357 Y22.8657
G01 X62.2374 Y22.8631
G01 X62.2380 Y22.8600
G00 X62.2380 Y22.8600
G01 F100.00
G01 Z-0.5000
G01 F400.00
G01 X62.2374 Y22.8569
G01 X62.2357 Y22.8543
G01 X62.2331 Y22.8526
G01 X62.2300 Y22.8520
G01 X62.2269 Y22.8526
G01 X62.2243 Y22.8543
G01 X62.2226 Y22.8569
G01 X62.2220 Y22.8600
G01 X62.2226 Y22.8631
G01 X62.2243 Y22.8657
G01 X62.2269 Y22.8674
G01 X62.2300 Y22.8680
G01 X62.2331 Y22.8674
G01 X62.2357 Y22.8657
G01 X62.2374 Y22.8631
G01 X62.2380 Y22.8600
G00 X62.2380 Y22.8600
G01 F100.00
G01 Z-0.7500
G01 F400.00
G01 X62.2374 Y22.8569
G01 X62.2357 Y22.8543
G01 X62.2331 Y22.8526
G01 X62.2300 Y22.8520
G01 X62.2269 Y22.8526
G01 X62.2243 Y22.8543
G01 X62.2226 Y22.8569
G01 X62.2220 Y22.8600
G01 X62.2226 Y22.8631
G01 X62.2243 Y22.8657
G01 X62.2269 Y22.8674
G01 X62.2300 Y22.8680
G01 X62.2331 Y22.8674
G01 X62.2357 Y22.8657
G01 X62.2374 Y22.8631
G01 X62.2380 Y22.8600
G00 X62.2380 Y22.8600
G01 F100.00
G01 Z-1.0000
G01 F400.00
G01 X62.2374 Y22.8569
G01 X62.2357 Y22.8543
G01 X62.2331 Y22.8526
G01 X62.2300 Y22.8520
G01 X62.2269 Y22.8526
G01 X62.2243 Y22.8543
G01 X62.2226 Y22.8569
G01 X62.2220 Y22.8600
G01 X62.2226 Y22.8631
G01 X62.2243 Y22.8657
G01 X62.2269 Y22.8674
G01 X62.2300 Y22.8680
G01 X62.2331 Y22.8674
G01 X62.2357 Y22.8657
G01 X62.2374 Y22.8631
G01 X62.2380 Y22.8600
G00 X62.2380 Y22.8600
G01 F100.00
G01 Z-1.2500
G01 F400.00
G01 X62.2374 Y22.8569
G01 X62.2357 Y22.8543
G01 X62.2331 Y22.8526
G01 X62.2300 Y22.8520
G01 X62.2269 Y22.8526
G01 X62.2243 Y22.8543
G01 X62.2226 Y22.8569
G01 X62.2220 Y22.8600
G01 X62.2226 Y22.8631
G01 X62.2243 Y22.8657
G01 X62.2269 Y22.8674
G01 X62.2300 Y22.8680
G01 X62.2331 Y22.8674
G01 X62.2357 Y22.8657
G01 X62.2374 Y22.8631
G01 X62.2380 Y22.8600
G00 X62.2380 Y22.8600
G01 F100.00
G01 Z-1.5000
G01 F400.00
G01 X62.2374 Y22.8569
G01 X62.2357 Y22.8543
G01 X62.2331 Y22.8526
G01 X62.2300 Y22.8520
G01 X62.2269 Y22.8526
G01 X62.2243 Y22.8543
G01 X62.2226 Y22.8569
G01 X62.2220 Y22.8600
G01 X62.2226 Y22.8631
G01 X62.2243 Y22.8657
G01 X62.2269 Y22.8674
G01 X62.2300 Y22.8680
G01 X62.2331 Y22.8674
G01 X62.2357 Y22.8657
G01 X62.2374 Y22.8631
G01 X62.2380 Y22.8600
G00 X62.2380 Y22.8600
G01 F100.00
G01 Z-1.7000
G01 F400.00
G01 X62.2374 Y22.8569
G01 X62.2357 Y22.8543
G01 X62.2331 Y22.8526
G01 X62.2300 Y22.8520
G01 X62.2269 Y22.8526
G01 X62.2243 Y22.8543
G01 X62.2226 Y22.8569
G01 X62.2220 Y22.8600
G01 X62.2226 Y22.8631
G01 X62.2243 Y22.8657
G01 X62.2269 Y22.8674
G01 X62.2300 Y22.8680
G01 X62.2331 Y22.8674
G01 X62.2357 Y22.8657
G01 X62.2374 Y22.8631
G01 X62.2380 Y22.8600
G00 Z3.0000
G00 X62.2380 Y20.3200
G01 F100.00
G01 Z-0.2500
G01 F400.00
G01 X62.2374 Y20.3169
G01 X62.2357 Y20.3143
G01 X62.2331 Y20.3126
G01 X62.2300 Y20.3120
G01 X62.2269 Y20.3126
G01 X62.2243 Y20.3143
G01 X62.2226 Y20.3169
G01 X62.2220 Y20.3200
G01 X62.2226 Y20.3231
G01 X62.2243 Y20.3257
G01 X62.2269 Y20.3274
G01 X62.2300 Y20.3280
G01 X62.2331 Y20.3274
G01 X62.2357 Y20.3257
G01 X62.2374 Y20.3231
G01 X62.2380 Y20.3200
G00 X62.2380 Y20.3200
G01 F100.00
G01 Z-0.5000
G01 F400.00
G01 X62.2374 Y20.3169
G01 X62.2357 Y20.3143
G01 X62.2331 Y20.3126
G01 X62.2300 Y20.3120
G01 X62.2269 Y20.3126
G01 X62.2243 Y20.3143
G01 X62.2226 Y20.3169
G01 X62.2220 Y20.3200
G01 X62.2226 Y20.3231
G01 X62.2243 Y20.3257
G01 X62.2269 Y20.3274
G01 X62.2300 Y20.3280
G01 X62.2331 Y20.3274
G01 X62.2357 Y20.3257
G01 X62.2374 Y20.3231
G01 X62.2380 Y20.3200
G00 X62.2380 Y20.3200
G01 F100.00
G01 Z-0.7500
G01 F400.00
G01 X62.2374 Y20.3169
G01 X62.2357 Y20.3143
G01 X62.2331 Y20.3126
G01 X62.2300 Y20.3120
G01 X62.2269 Y20.3126
G01 X62.2243 Y20.3143
G01 X62.2226 Y20.3169
G01 X62.2220 Y20.3200
G01 X62.2226 Y20.3231
G01 X62.2243 Y20.3257
G01 X62.2269 Y20.3274
G01 X62.2300 Y20.3280
G01 X62.2331 Y20.3274
G01 X62.2357 Y20.3257
G01 X62.2374 Y20.3231
G01 X62.2380 Y20.3200
G00 X62.2380 Y20.3200
G01 F100.00
G01 Z-1.0000
G01 F400.00
G01 X62.2374 Y20.3169
G01 X62.2357 Y20.3143
G01 X62.2331 Y20.3126
G01 X62.2300 Y20.3120
G01 X62.2269 Y20.3126
G01 X62.2243 Y20.3143
G01 X62.2226 Y20.3169
G01 X62.2220 Y20.3200
G01 X62.2226 Y20.3231
G01 X62.2243 Y20.3257
G01 X62.2269 Y20.3274
G01 X62.2300 Y20.3280
G01 X62.2331 Y20.3274
G01 X62.2357 Y20.3257
G01 X62.2374 Y20.3231
G01 X62.2380 Y20.3200
G00 X62.2380 Y20.3200
G01 F100.00
G01 Z-1.2500
G01 F400.00
G01 X62.2374 Y20.3169
G01 X62.2357 Y20.3143
G01 X62.2331 Y20.3126
G01 X62.2300 Y20.3120
G01 X62.2269 Y20.3126
G01 X62.2243 Y20.3143
G01 X62.2226 Y20.3169
G01 X62.2220 Y20.3200
G01 X62.2226 Y20.3231
G01 X62.2243 Y20.3257
G01 X62.2269 Y20.3274
G01 X62.2300 Y20.3280
G01 X62.2331 Y20.3274
G01 X62.2357 Y20.3257
G01 X62.2374 Y20.3231
G01 X62.2380 Y20.3200
G00 X62.2380 Y20.3200
G01 F100.00
G01 Z-1.5000
G01 F400.00
G01 X62.2374 Y20.3169
G01 X62.2357 Y20.3143
G01 X62.2331 Y20.3126
G01 X62.2300 Y20.3120
G01 X62.2269 Y20.3126
G01 X62.2243 Y20.3143
G01 X62.2226 Y20.3169
G01 X62.2220 Y20.3200
G01 X62.2226 Y20.3231
G01 X62.2243 Y20.3257
G01 X62.2269 Y20.3274
G01 X62.2300 Y20.3280
G01 X62.2331 Y20.3274
G01 X62.2357 Y20.3257
G01 X62.2374 Y20.3231
G01 X62.2380 Y20.3200
G00 X62.2380 Y20.3200
G01 F100.00
G01 Z-1.7000
G01 F400.00
G01 X62.2374 Y20.3169
G01 X62.2357 Y20.3143
G01 X62.2331 Y20.3126
G01 X62.2300 Y20.3120
G01 X62.2269 Y20.3126
G01 X62.2243 Y20.3143
G01 X62.2226 Y20.3169
G01 X62.2220 Y20.3200
G01 X62.2226 Y20.3231
G01 X62.2243 Y20.3257
G01 X62.2269 Y20.3274
G01 X62.2300 Y20.3280
G01 X62.2331 Y20.3274
G01 X62.2357 Y20.3257
G01 X62.2374 Y20.3231
G01 X62.2380 Y20.3200
G00 Z3.0000
G00 X62.2380 Y17.7800
G01 F100.00
G01 Z-0.2500
G01 F400.00
G01 X62.2374 Y17.7769
G01 X62.2357 Y17.7743
G01 X62.2331 Y17.7726
G01 X62.2300 Y17.7720
G01 X62.2269 Y17.7726
G01 X62.2243 Y17.7743
G01 X62.2226 Y17.7769
G01 X62.2220 Y17.7800
G01 X62.2226 Y17.7831
G01 X62.2243 Y17.7857
G01 X62.2269 Y17.7874
G01 X62.2300 Y17.7880
G01 X62.2331 Y17.7874
G01 X62.2357 Y17.7857
G01 X62.2374 Y17.7831
G01 X62.2380 Y17.7800
G00 X62.2380 Y17.7800
G01 F100.00
G01 Z-0.5000
G01 F400.00
G01 X62.2374 Y17.7769
G01 X62.2357 Y17.7743
G01 X62.2331 Y17.7726
G01 X62.2300 Y17.7720
G01 X62.2269 Y17.7726
G01 X62.2243 Y17.7743
G01 X62.2226 Y17.7769
G01 X62.2220 Y17.7800
G01 X62.2226 Y17.7831
G01 X62.2243 Y17.7857
G01 X62.2269 Y17.7874
G01 X62.2300 Y17.7880
G01 X62.2331 Y17.7874
G01 X62.2357 Y17.7857
G01 X62.2374 Y17.7831
G01 X62.2380 Y17.7800
G00 X62.2380 Y17.7800
G01 F100.00
G01 Z-0.7500
G01 F400.00
G01 X62.2374 Y17.7769
G01 X62.2357 Y17.7743
G01 X62.2331 Y17.7726
G01 X62.2300 Y17.7720
G01 X62.2269 Y17.7726
G01 X62.2243 Y17.7743
G01 X62.2226 Y17.7769
G01 X62.2220 Y17.7800
G01 X62.2226 Y17.7831
G01 X62.2243 Y17.7857
G01 X62.2269 Y17.7874
G01 X62.2300 Y17.7880
G01 X62.2331 Y17.7874
G01 X62.2357 Y17.7857
G01 X62.2374 Y17.7831
G01 X62.2380 Y17.7800
G00 X62.2380 Y17.7800
G01 F100.00
G01 Z-1.0000
G01 F400.00
G01 X62.2374 Y17.7769
G01 X62.2357 Y17.7743
G01 X62.2331 Y17.7726
G01 X62.2300 Y17.7720
G01 X62.2269 Y17.7726
G01 X62.2243 Y17.7743
G01 X62.2226 Y17.7769
G01 X62.2220 Y17.7800
G01 X62.2226 Y17.7831
G01 X62.2243 Y17.7857
G01 X62.2269 Y17.7874
G01 X62.2300 Y17.7880
G01 X62.2331 Y17.7874
G01 X62.2357 Y17.7857
G01 X62.2374 Y17.7831
G01 X62.2380 Y17.7800
G00 X62.2380 Y17.7800
G01 F100.00
G01 Z-1.2500
G01 F400.00
G01 X62.2374 Y17.7769
G01 X62.2357 Y17.7743
G01 X62.2331 Y17.7726
G01 X62.2300 Y17.7720
G01 X62.2269 Y17.7726
G01 X62.2243 Y17.7743
G01 X62.2226 Y17.7769
G01 X62.2220 Y17.7800
G01 X62.2226 Y17.7831
G01 X62.2243 Y17.7857
G01 X62.2269 Y17.7874
G01 X62.2300 Y17.7880
G01 X62.2331 Y17.7874
G01 X62.2357 Y17.7857
G01 X62.2374 Y17.7831
G01 X62.2380 Y17.7800
G00 X62.2380 Y17.7800
G01 F100.00
G01 Z-1.5000
G01 F400.00
G01 X62.2374 Y17.7769
G01 X62.2357 Y17.7743
G01 X62.2331 Y17.7726
G01 X62.2300 Y17.7720
G01 X62.2269 Y17.7726
G01 X62.2243 Y17.7743
G01 X62.2226 Y17.7769
G01 X62.2220 Y17.7800
G01 X62.2226 Y17.7831
G01 X62.2243 Y17.7857
G01 X62.2269 Y17.7874
G01 X62.2300 Y17.7880
G01 X62.2331 Y17.7874
G01 X62.2357 Y17.7857
G01 X62.2374 Y17.7831
G01 X62.2380 Y17.7800
G00 X62.2380 Y17.7800
G01 F100.00
G01 Z-1.7000
G01 F400.00
G01 X62.2374 Y17.7769
G01 X62.2357 Y17.7743
G01 X62.2331 Y17.7726
G01 X62.2300 Y17.7720
G01 X62.2269 Y17.7726
G01 X62.2243 Y17.7743
G01 X62.2226 Y17.7769
G01 X62.2220 Y17.7800
G01 X62.2226 Y17.7831
G01 X62.2243 Y17.7857
G01 X62.2269 Y17.7874
G01 X62.2300 Y17.7880
G01 X62.2331 Y17.7874
G01 X62.2357 Y17.7857
G01 X62.2374 Y17.7831
G01 X62.2380 Y17.7800
G00 Z3.0000
G00 X64.7780 Y17.7800
G01 F100.00
G01 Z-0.2500
G01 F400.00
G01 X64.7774 Y17.7769
G01 X64.7757 Y17.7743
G01 X64.7731 Y17.7726
G01 X64.7700 Y17.7720
G01 X64.7669 Y17.7726
G01 X64.7643 Y17.7743
G01 X64.7626 Y17.7769
G01 X64.7620 Y17.7800
G01 X64.7626 Y17.7831
G01 X64.7643 Y17.7857
G01 X64.7669 Y17.7874
G01 X64.7700 Y17.7880
G01 X64.7731 Y17.7874
G01 X64.7757 Y17.7857
G01 X64.7774 Y17.7831
G01 X64.7780 Y17.7800
G00 X64.7780 Y17.7800
G01 F100.00
G01 Z-0.5000
G01 F400.00
G01 X64.7774 Y17.7769
G01 X64.7757 Y17.7743
G01 X64.7731 Y17.7726
G01 X64.7700 Y17.7720
G01 X64.7669 Y17.7726
G01 X64.7643 Y17.7743
G01 X64.7626 Y17.7769
G01 X64.7620 Y17.7800
G01 X64.7626 Y17.7831
G01 X64.7643 Y17.7857
G01 X64.7669 Y17.7874
G01 X64.7700 Y17.7880
G01 X64.7731 Y17.7874
G01 X64.7757 Y17.7857
G01 X64.7774 Y17.7831
G01 X64.7780 Y17.7800
G00 X64.7780 Y17.7800
G01 F100.00
G01 Z-0.7500
G01 F400.00
G01 X64.7774 Y17.7769
G01 X64.7757 Y17.7743
G01 X64.7731 Y17.7726
G01 X64.7700 Y17.7720
G01 X64.7669 Y17.7726
G01 X64.7643 Y17.7743
G01 X64.7626 Y17.7769
G01 X64.7620 Y17.7800
G01 X64.7626 Y17.7831
G01 X64.7643 Y17.7857
G01 X64.7669 Y17.7874
G01 X64.7700 Y17.7880
G01 X64.7731 Y17.7874
G01 X64.7757 Y17.7857
G01 X64.7774 Y17.7831
G01 X64.7780 Y17.7800
G00 X64.7780 Y17.7800
G01 F100.00
G01 Z-1.0000
G01 F400.00
G01 X64.7774 Y17.7769
G01 X64.7757 Y17.7743
G01 X64.7731 Y17.7726
G01 X64.7700 Y17.7720
G01 X64.7669 Y17.7726
G01 X64.7643 Y17.7743
G01 X64.7626 Y17.7769
G01 X64.7620 Y17.7800
G01 X64.7626 Y17.7831
G01 X64.7643 Y17.7857
G01 X64.7669 Y17.7874
G01 X64.7700 Y17.7880
G01 X64.7731 Y17.7874
G01 X64.7757 Y17.7857
G01 X64.7774 Y17.7831
G01 X64.7780 Y17.7800
G00 X64.7780 Y17.7800
G01 F100.00
G01 Z-1.2500
G01 F400.00
G01 X64.7774 Y17.7769
G01 X64.7757 Y17.7743
G01 X64.7731 Y17.7726
G01 X64.7700 Y17.7720
G01 X64.7669 Y17.7726
G01 X64.7643 Y17.7743
G01 X64.7626 Y17.7769
G01 X64.7620 Y17.7800
G01 X64.7626 Y17.7831
G01 X64.7643 Y17.7857
G01 X64.7669 Y17.7874
G01 X64.7700 Y17.7880
G01 X64.7731 Y17.7874
G01 X64.7757 Y17.7857
G01 X64.7774 Y17.7831
G01 X64.7780 Y17.7800
G00 X64.7780 Y17.7800
G01 F100.00
G01 Z-1.5000
G01 F400.00
G01 X64.7774 Y17.7769
G01 X64.7757 Y17.7743
G01 X64.7731 Y17.7726
G01 X64.7700 Y17.7720
G01 X64.7669 Y17.7726
G01 X64.7643 Y17.7743
G01 X64.7626 Y17.7769
G01 X64.7620 Y17.7800
G01 X64.7626 Y17.7831
G01 X64.7643 Y17.7857
G01 X64.7669 Y17.7874
G01 X64.7700 Y17.7880
G01 X64.7731 Y17.7874
G01 X64.7757 Y17.7857
G01 X64.7774 Y17.7831
G01 X64.7780 Y17.7800
G00 X64.7780 Y17.7800
G01 F100.00
G01 Z-1.7000
G01 F400.00
G01 X64.7774 Y17.7769
G01 X64.7757 Y17.7743
G01 X64.7731 Y17.7726
G01 X64.7700 Y17.7720
G01 X64.7669 Y17.7726
G01 X64.7643 Y17.7743
G01 X64.7626 Y17.7769
G01 X64.7620 Y17.7800
G01 X64.7626 Y17.7831
G01 X64.7643 Y17.7857
G01 X64.7669 Y17.7874
G01 X64.7700 Y17.7880
G01 X64.7731 Y17.7874
G01 X64.7757 Y17.7857
G01 X64.7774 Y17.7831
G01 X64.7780 Y17.7800
G00 Z3.0000
G00 X67.3180 Y17.7800
G01 F100.00
G01 Z-0.2500
G01 F400.00
G01 X67.3174 Y17.7769
G01 X67.3157 Y17.7743
G01 X67.3131 Y17.7726
G01 X67.3100 Y17.7720
G01 X67.3069 Y17.7726
G01 X67.3043 Y17.7743
G01 X67.3026 Y17.7769
G01 X67.3020 Y17.7800
G01 X67.3026 Y17.7831
G01 X67.3043 Y17.7857
G01 X67.3069 Y17.7874
G01 X67.3100 Y17.7880
G01 X67.3131 Y17.7874
G01 X67.3157 Y17.7857
G01 X67.3174 Y17.7831
G01 X67.3180 Y17.7800
G00 X67.3180 Y17.7800
G01 F100.00
G01 Z-0.5000
G01 F400.00
G01 X67.3174 Y17.7769
G01 X67.3157 Y17.7743
G01 X67.3131 Y17.7726
G01 X67.3100 Y17.7720
G01 X67.3069 Y17.7726
G01 X67.3043 Y17.7743
G01 X67.3026 Y17.7769
G01 X67.3020 Y17.7800
G01 X67.3026 Y17.7831
G01 X67.3043 Y17.7857
G01 X67.3069 Y17.7874
G01 X67.3100 Y17.7880
G01 X67.3131 Y17.7874
G01 X67.3157 Y17.7857
G01 X67.3174 Y17.7831
G01 X67.3180 Y17.7800
G00 X67.3180 Y17.7800
G01 F100.00
G01 Z-0.7500
G01 F400.00
G01 X67.3174 Y17.7769
G01 X67.3157 Y17.7743
G01 X67.3131 Y17.7726
G01 X67.3100 Y17.7720
G01 X67.3069 Y17.7726
G01 X67.3043 Y17.7743
G01 X67.3026 Y17.7769
G01 X67.3020 Y17.7800
G01 X67.3026 Y17.7831
G01 X67.3043 Y17.7857
G01 X67.3069 Y17.7874
G01 X67.3100 Y17.7880
G01 X67.3131 Y17.7874
G01 X67.3157 Y17.7857
G01 X67.3174 Y17.7831
G01 X67.3180 Y17.7800
G00 X67.3180 Y17.7800
G01 F100.00
G01 Z-1.0000
G01 F400.00
G01 X67.3174 Y17.7769
G01 X67.3157 Y17.7743
G01 X67.3131 Y17.7726
G01 X67.3100 Y17.7720
G01 X67.3069 Y17.7726
G01 X67.3043 Y17.7743
G01 X67.3026 Y17.7769
G01 X67.3020 Y17.7800
G01 X67.3026 Y17.7831
G01 X67.3043 Y17.7857
G01 X67.3069 Y17.7874
G01 X67.3100 Y17.7880
G01 X67.3131 Y17.7874
G01 X67.3157 Y17.7857
G01 X67.3174 Y17.7831
G01 X67.3180 Y17.7800
G00 X67.3180 Y17.7800
G01 F100.00
G01 Z-1.2500
G01 F400.00
G01 X67.3174 Y17.7769
G01 X67.3157 Y17.7743
G01 X67.3131 Y17.7726
G01 X67.3100 Y17.7720
G01 X67.3069 Y17.7726
G01 X67.3043 Y17.7743
G01 X67.3026 Y17.7769
G01 X67.3020 Y17.7800
G01 X67.3026 Y17.7831
G01 X67.3043 Y17.7857
G01 X67.3069 Y17.7874
G01 X67.3100 Y17.7880
G01 X67.3131 Y17.7874
G01 X67.3157 Y17.7857
G01 X67.3174 Y17.7831
G01 X67.3180 Y17.7800
G00 X67.3180 Y17.7800
G01 F100.00
G01 Z-1.5000
G01 F400.00
G01 X67.3174 Y17.7769
G01 X67.3157 Y17.7743
G01 X67.3131 Y17.7726
G01 X67.3100 Y17.7720
G01 X67.3069 Y17.7726
G01 X67.3043 Y17.7743
G01 X67.3026 Y17.7769
G01 X67.3020 Y17.7800
G01 X67.3026 Y17.7831
G01 X67.3043 Y17.7857
G01 X67.3069 Y17.7874
G01 X67.3100 Y17.7880
G01 X67.3131 Y17.7874
G01 X67.3157 Y17.7857
G01 X67.3174 Y17.7831
G01 X67.3180 Y17.7800
G00 X67.3180 Y17.7800
G01 F100.00
G01 Z-1.7000
G01 F400.00
G01 X67.3174 Y17.7769
G01 X67.3157 Y17.7743
G01 X67.3131 Y17.7726
G01 X67.3100 Y17.7720
G01 X67.3069 Y17.7726
G01 X67.3043 Y17.7743
G01 X67.3026 Y17.7769
G01 X67.3020 Y17.7800
G01 X67.3026 Y17.7831
G01 X67.3043 Y17.7857
G01 X67.3069 Y17.7874
G01 X67.3100 Y17.7880
G01 X67.3131 Y17.7874
G01 X67.3157 Y17.7857
G01 X67.3174 Y17.7831
G01 X67.3180 Y17.7800
G00 Z3.0000
G00 X67.3180 Y20.3200
G01 F100.00
G01 Z-0.2500
G01 F400.00
G01 X67.3174 Y20.3169
G01 X67.3157 Y20.3143
G01 X67.3131 Y20.3126
G01 X67.3100 Y20.3120
G01 X67.3069 Y20.3126
G01 X67.3043 Y20.3143
G01 X67.3026 Y20.3169
G01 X67.3020 Y20.3200
G01 X67.3026 Y20.3231
G01 X67.3043 Y20.3257
G01 X67.3069 Y20.3274
G01 X67.3100 Y20.3280
G01 X67.3131 Y20.3274
G01 X67.3157 Y20.3257
G01 X67.3174 Y20.3231
G01 X67.3180 Y20.3200
G00 X67.3180 Y20.3200
G01 F100.00
G01 Z-0.5000
G01 F400.00
G01 X67.3174 Y20.3169
G01 X67.3157 Y20.3143
G01 X67.3131 Y20.3126
G01 X67.3100 Y20.3120
G01 X67.3069 Y20.3126
G01 X67.3043 Y20.3143
G01 X67.3026 Y20.3169
G01 X67.3020 Y20.3200
G01 X67.3026 Y20.3231
G01 X67.3043 Y20.3257
G01 X67.3069 Y20.3274
G01 X67.3100 Y20.3280
G01 X67.3131 Y20.3274
G01 X67.3157 Y20.3257
G01 X67.3174 Y20.3231
G01 X67.3180 Y20.3200
G00 X67.3180 Y20.3200
G01 F100.00
G01 Z-0.7500
G01 F400.00
G01 X67.3174 Y20.3169
G01 X67.3157 Y20.3143
G01 X67.3131 Y20.3126
G01 X67.3100 Y20.3120
G01 X67.3069 Y20.3126
G01 X67.3043 Y20.3143
G01 X67.3026 Y20.3169
G01 X67.3020 Y20.3200
G01 X67.3026 Y20.3231
G01 X67.3043 Y20.3257
G01 X67.3069 Y20.3274
G01 X67.3100 Y20.3280
G01 X67.3131 Y20.3274
G01 X67.3157 Y20.3257
G01 X67.3174 Y20.3231
G01 X67.3180 Y20.3200
G00 X67.3180 Y20.3200
G01 F100.00
G01 Z-1.0000
G01 F400.00
G01 X67.3174 Y20.3169
G01 X67.3157 Y20.3143
G01 X67.3131 Y20.3126
G01 X67.3100 Y20.3120
G01 X67.3069 Y20.3126
G01 X67.3043 Y20.3143
G01 X67.3026 Y20.3169
G01 X67.3020 Y20.3200
G01 X67.3026 Y20.3231
G01 X67.3043 Y20.3257
G01 X67.3069 Y20.3274
G01 X67.3100 Y20.3280
G01 X67.3131 Y20.3274
G01 X67.3157 Y20.3257
G01 X67.3174 Y20.3231
G01 X67.3180 Y20.3200
G00 X67.3180 Y20.3200
G01 F100.00
G01 Z-1.2500
G01 F400.00
G01 X67.3174 Y20.3169
G01 X67.3157 Y20.3143
G01 X67.3131 Y20.3126
G01 X67.3100 Y20.3120
G01 X67.3069 Y20.3126
G01 X67.3043 Y20.3143
G01 X67.3026 Y20.3169
G01 X67.3020 Y20.3200
G01 X67.3026 Y20.3231
G01 X67.3043 Y20.3257
G01 X67.3069 Y20.3274
G01 X67.3100 Y20.3280
G01 X67.3131 Y20.3274
G01 X67.3157 Y20.3257
G01 X67.3174 Y20.3231
G01 X67.3180 Y20.3200
G00 X67.3180 Y20.3200
G01 F100.00
G01 Z-1.5000
G01 F400.00
G01 X67.3174 Y20.3169
G01 X67.3157 Y20.3143
G01 X67.3131 Y20.3126
G01 X67.3100 Y20.3120
G01 X67.3069 Y20.3126
G01 X67.3043 Y20.3143
G01 X67.3026 Y20.3169
G01 X67.3020 Y20.3200
G01 X67.3026 Y20.3231
G01 X67.3043 Y20.3257
G01 X67.3069 Y20.3274
G01 X67.3100 Y20.3280
G01 X67.3131 Y20.3274
G01 X67.3157 Y20.3257
G01 X67.3174 Y20.3231
G01 X67.3180 Y20.3200
G00 X67.3180 Y20.3200
G01 F100.00
G01 Z-1.7000
G01 F400.00
G01 X67.3174 Y20.3169
G01 X67.3157 Y20.3143
G01 X67.3131 Y20.3126
G01 X67.3100 Y20.3120
G01 X67.3069 Y20.3126
G01 X67.3043 Y20.3143
G01 X67.3026 Y20.3169
G01 X67.3020 Y20.3200
G01 X67.3026 Y20.3231
G01 X67.3043 Y20.3257
G01 X67.3069 Y20.3274
G01 X67.3100 Y20.3280
G01 X67.3131 Y20.3274
G01 X67.3157 Y20.3257
G01 X67.3174 Y20.3231
G01 X67.3180 Y20.3200
G00 Z3.0000
G00 X64.7780 Y20.3200
G01 F100.00
G01 Z-0.2500
G01 F400.00
G01 X64.7774 Y20.3169
G01 X64.7757 Y20.3143
G01 X64.7731 Y20.3126
G01 X64.7700 Y20.3120
G01 X64.7669 Y20.3126
G01 X64.7643 Y20.3143
G01 X64.7626 Y20.3169
G01 X64.7620 Y20.3200
G01 X64.7626 Y20.3231
G01 X64.7643 Y20.3257
G01 X64.7669 Y20.3274
G01 X64.7700 Y20.3280
G01 X64.7731 Y20.3274
G01 X64.7757 Y20.3257
G01 X64.7774 Y20.3231
G01 X64.7780 Y20.3200
G00 X64.7780 Y20.3200
G01 F100.00
G01 Z-0.5000
G01 F400.00
G01 X64.7774 Y20.3169
G01 X64.7757 Y20.3143
G01 X64.7731 Y20.3126
G01 X64.7700 Y20.3120
G01 X64.7669 Y20.3126
G01 X64.7643 Y20.3143
G01 X64.7626 Y20.3169
G01 X64.7620 Y20.3200
G01 X64.7626 Y20.3231
G01 X64.7643 Y20.3257
G01 X64.7669 Y20.3274
G01 X64.7700 Y20.3280
G01 X64.7731 Y20.3274
G01 X64.7757 Y20.3257
G01 X64.7774 Y20.3231
G01 X64.7780 Y20.3200
G00 X64.7780 Y20.3200
G01 F100.00
G01 Z-0.7500
G01 F400.00
G01 X64.7774 Y20.3169
G01 X64.7757 Y20.3143
G01 X64.7731 Y20.3126
G01 X64.7700 Y20.3120
G01 X64.7669 Y20.3126
G01 X64.7643 Y20.3143
G01 X64.7626 Y20.3169
G01 X64.7620 Y20.3200
G01 X64.7626 Y20.3231
G01 X64.7643 Y20.3257
G01 X64.7669 Y20.3274
G01 X64.7700 Y20.3280
G01 X64.7731 Y20.3274
G01 X64.7757 Y20.3257
G01 X64.7774 Y20.3231
G01 X64.7780 Y20.3200
G00 X64.7780 Y20.3200
G01 F100.00
G01 Z-1.0000
G01 F400.00
G01 X64.7774 Y20.3169
G01 X64.7757 Y20.3143
G01 X64.7731 Y20.3126
G01 X64.7700 Y20.3120
G01 X64.7669 Y20.3126
G01 X64.7643 Y20.3143
G01 X64.7626 Y20.3169
G01 X64.7620 Y20.3200
G01 X64.7626 Y20.3231
G01 X64.7643 Y20.3257
G01 X64.7669 Y20.3274
G01 X64.7700 Y20.3280
G01 X64.7731 Y20.3274
G01 X64.7757 Y20.3257
G01 X64.7774 Y20.3231
G01 X64.7780 Y20.3200
G00 X64.7780 Y20.3200
G01 F100.00
G01 Z-1.2500
G01 F400.00
G01 X64.7774 Y20.3169
G01 X64.7757 Y20.3143
G01 X64.7731 Y20.3126
G01 X64.7700 Y20.3120
G01 X64.7669 Y20.3126
G01 X64.7643 Y20.3143
G01 X64.7626 Y20.3169
G01 X64.7620 Y20.3200
G01 X64.7626 Y20.3231
G01 X64.7643 Y20.3257
G01 X64.7669 Y20.3274
G01 X64.7700 Y20.3280
G01 X64.7731 Y20.3274
G01 X64.7757 Y20.3257
G01 X64.7774 Y20.3231
G01 X64.7780 Y20.3200
G00 X64.7780 Y20.3200
G01 F100.00
G01 Z-1.5000
G01 F400.00
G01 X64.7774 Y20.3169
G01 X64.7757 Y20.3143
G01 X64.7731 Y20.3126
G01 X64.7700 Y20.3120
G01 X64.7669 Y20.3126
G01 X64.7643 Y20.3143
G01 X64.7626 Y20.3169
G01 X64.7620 Y20.3200
G01 X64.7626 Y20.3231
G01 X64.7643 Y20.3257
G01 X64.7669 Y20.3274
G01 X64.7700 Y20.3280
G01 X64.7731 Y20.3274
G01 X64.7757 Y20.3257
G01 X64.7774 Y20.3231
G01 X64.7780 Y20.3200
G00 X64.7780 Y20.3200
G01 F100.00
G01 Z-1.7000
G01 F400.00
G01 X64.7774 Y20.3169
G01 X64.7757 Y20.3143
G01 X64.7731 Y20.3126
G01 X64.7700 Y20.3120
G01 X64.7669 Y20.3126
G01 X64.7643 Y20.3143
G01 X64.7626 Y20.3169
G01 X64.7620 Y20.3200
G01 X64.7626 Y20.3231
G01 X64.7643 Y20.3257
G01 X64.7669 Y20.3274
G01 X64.7700 Y20.3280
G01 X64.7731 Y20.3274
G01 X64.7757 Y20.3257
G01 X64.7774 Y20.3231
G01 X64.7780 Y20.3200
G00 Z3.0000
G00 X64.7780 Y22.8600
G01 F100.00
G01 Z-0.2500
G01 F400.00
G01 X64.7774 Y22.8569
G01 X64.7757 Y22.8543
G01 X64.7731 Y22.8526
G01 X64.7700 Y22.8520
G01 X64.7669 Y22.8526
G01 X64.7643 Y22.8543
G01 X64.7626 Y22.8569
G01 X64.7620 Y22.8600
G01 X64.7626 Y22.8631
G01 X64.7643 Y22.8657
G01 X64.7669 Y22.8674
G01 X64.7700 Y22.8680
G01 X64.7731 Y22.8674
G01 X64.7757 Y22.8657
G01 X64.7774 Y22.8631
G01 X64.7780 Y22.8600
G00 X64.7780 Y22.8600
G01 F100.00
G01 Z-0.5000
G01 F400.00
G01 X64.7774 Y22.8569
G01 X64.7757 Y22.8543
G01 X64.7731 Y22.8526
G01 X64.7700 Y22.8520
G01 X64.7669 Y22.8526
G01 X64.7643 Y22.8543
G01 X64.7626 Y22.8569
G01 X64.7620 Y22.8600
G01 X64.7626 Y22.8631
G01 X64.7643 Y22.8657
G01 X64.7669 Y22.8674
G01 X64.7700 Y22.8680
G01 X64.7731 Y22.8674
G01 X64.7757 Y22.8657
G01 X64.7774 Y22.8631
G01 X64.7780 Y22.8600
G00 X64.7780 Y22.8600
G01 F100.00
G01 Z-0.7500
G01 F400.00
G01 X64.7774 Y22.8569
G01 X64.7757 Y22.8543
G01 X64.7731 Y22.8526
G01 X64.7700 Y22.8520
G01 X64.7669 Y22.8526
G01 X64.7643 Y22.8543
G01 X64.7626 Y22.8569
G01 X64.7620 Y22.8600
G01 X64.7626 Y22.8631
G01 X64.7643 Y22.8657
G01 X64.7669 Y22.8674
G01 X64.7700 Y22.8680
G01 X64.7731 Y22.8674
G01 X64.7757 Y22.8657
G01 X64.7774 Y22.8631
G01 X64.7780 Y22.8600
G00 X64.7780 Y22.8600
G01 F100.00
G01 Z-1.0000
G01 F400.00
G01 X64.7774 Y22.8569
G01 X64.7757 Y22.8543
G01 X64.7731 Y22.8526
G01 X64.7700 Y22.8520
G01 X64.7669 Y22.8526
G01 X64.7643 Y22.8543
G01 X64.7626 Y22.8569
G01 X64.7620 Y22.8600
G01 X64.7626 Y22.8631
G01 X64.7643 Y22.8657
G01 X64.7669 Y22.8674
G01 X64.7700 Y22.8680
G01 X64.7731 Y22.8674
G01 X64.7757 Y22.8657
G01 X64.7774 Y22.8631
G01 X64.7780 Y22.8600
G00 X64.7780 Y22.8600
G01 F100.00
G01 Z-1.2500
G01 F400.00
G01 X64.7774 Y22.8569
G01 X64.7757 Y22.8543
G01 X64.7731 Y22.8526
G01 X64.7700 Y22.8520
G01 X64.7669 Y22.8526
G01 X64.7643 Y22.8543
G01 X64.7626 Y22.8569
G01 X64.7620 Y22.8600
G01 X64.7626 Y22.8631
G01 X64.7643 Y22.8657
G01 X64.7669 Y22.8674
G01 X64.7700 Y22.8680
G01 X64.7731 Y22.8674
G01 X64.7757 Y22.8657
G01 X64.7774 Y22.8631
G01 X64.7780 Y22.8600
G00 X64.7780 Y22.8600
G01 F100.00
G01 Z-1.5000
G01 F400.00
G01 X64.7774 Y22.8569
G01 X64.7757 Y22.8543
G01 X64.7731 Y22.8526
G01 X64.7700 Y22.8520
G01 X64.7669 Y22.8526
G01 X64.7643 Y22.8543
G01 X64.7626 Y22.8569
G01 X64.7620 Y22.8600
G01 X64.7626 Y22.8631
G01 X64.7643 Y22.8657
G01 X64.7669 Y22.8674
G01 X64.7700 Y22.8680
G01 X64.7731 Y22.8674
G01 X64.7757 Y22.8657
G01 X64.7774 Y22.8631
G01 X64.7780 Y22.8600
G00 X64.7780 Y22.8600
G01 F100.00
G01 Z-1.7000
G01 F400.00
G01 X64.7774 Y22.8569
G01 X64.7757 Y22.8543
G01 X64.7731 Y22.8526
G01 X64.7700 Y22.8520
G01 X64.7669 Y22.8526
G01 X64.7643 Y22.8543
G01 X64.7626 Y22.8569
G01 X64.7620 Y22.8600
G01 X64.7626 Y22.8631
G01 X64.7643 Y22.8657
G01 X64.7669 Y22.8674
G01 X64.7700 Y22.8680
G01 X64.7731 Y22.8674
G01 X64.7757 Y22.8657
G01 X64.7774 Y22.8631
G01 X64.7780 Y22.8600
G00 Z3.0000
G00 X67.3180 Y22.8600
G01 F100.00
G01 Z-0.2500
G01 F400.00
G01 X67.3174 Y22.8569
G01 X67.3157 Y22.8543
G01 X67.3131 Y22.8526
G01 X67.3100 Y22.8520
G01 X67.3069 Y22.8526
G01 X67.3043 Y22.8543
G01 X67.3026 Y22.8569
G01 X67.3020 Y22.8600
G01 X67.3026 Y22.8631
G01 X67.3043 Y22.8657
G01 X67.3069 Y22.8674
G01 X67.3100 Y22.8680
G01 X67.3131 Y22.8674
G01 X67.3157 Y22.8657
G01 X67.3174 Y22.8631
G01 X67.3180 Y22.8600
G00 X67.3180 Y22.8600
G01 F100.00
G01 Z-0.5000
G01 F400.00
G01 X67.3174 Y22.8569
G01 X67.3157 Y22.8543
G01 X67.3131 Y22.8526
G01 X67.3100 Y22.8520
G01 X67.3069 Y22.8526
G01 X67.3043 Y22.8543
G01 X67.3026 Y22.8569
G01 X67.3020 Y22.8600
G01 X67.3026 Y22.8631
G01 X67.3043 Y22.8657
G01 X67.3069 Y22.8674
G01 X67.3100 Y22.8680
G01 X67.3131 Y22.8674
G01 X67.3157 Y22.8657
G01 X67.3174 Y22.8631
G01 X67.3180 Y22.8600
G00 X67.3180 Y22.8600
G01 F100.00
G01 Z-0.7500
G01 F400.00
G01 X67.3174 Y22.8569
G01 X67.3157 Y22.8543
G01 X67.3131 Y22.8526
G01 X67.3100 Y22.8520
G01 X67.3069 Y22.8526
G01 X67.3043 Y22.8543
G01 X67.3026 Y22.8569
G01 X67.3020 Y22.8600
G01 X67.3026 Y22.8631
G01 X67.3043 Y22.8657
G01 X67.3069 Y22.8674
G01 X67.3100 Y22.8680
G01 X67.3131 Y22.8674
G01 X67.3157 Y22.8657
G01 X67.3174 Y22.8631
G01 X67.3180 Y22.8600
G00 X67.3180 Y22.8600
G01 F100.00
G01 Z-1.0000
G01 F400.00
G01 X67.3174 Y22.8569
G01 X67.3157 Y22.8543
G01 X67.3131 Y22.8526
G01 X67.3100 Y22.8520
G01 X67.3069 Y22.8526
G01 X67.3043 Y22.8543
G01 X67.3026 Y22.8569
G01 X67.3020 Y22.8600
G01 X67.3026 Y22.8631
G01 X67.3043 Y22.8657
G01 X67.3069 Y22.8674
G01 X67.3100 Y22.8680
G01 X67.3131 Y22.8674
G01 X67.3157 Y22.8657
G01 X67.3174 Y22.8631
G01 X67.3180 Y22.8600
G00 X67.3180 Y22.8600
G01 F100.00
G01 Z-1.2500
G01 F400.00
G01 X67.3174 Y22.8569
G01 X67.3157 Y22.8543
G01 X67.3131 Y22.8526
G01 X67.3100 Y22.8520
G01 X67.3069 Y22.8526
G01 X67.3043 Y22.8543
G01 X67.3026 Y22.8569
G01 X67.3020 Y22.8600
G01 X67.3026 Y22.8631
G01 X67.3043 Y22.8657
G01 X67.3069 Y22.8674
G01 X67.3100 Y22.8680
G01 X67.3131 Y22.8674
G01 X67.3157 Y22.8657
G01 X67.3174 Y22.8631
G01 X67.3180 Y22.8600
G00 X67.3180 Y22.8600
G01 F100.00
G01 Z-1.5000
G01 F400.00
G01 X67.3174 Y22.8569
G01 X67.3157 Y22.8543
G01 X67.3131 Y22.8526
G01 X67.3100 Y22.8520
G01 X67.3069 Y22.8526
G01 X67.3043 Y22.8543
G01 X67.3026 Y22.8569
G01 X67.3020 Y22.8600
G01 X67.3026 Y22.8631
G01 X67.3043 Y22.8657
G01 X67.3069 Y22.8674
G01 X67.3100 Y22.8680
G01 X67.3131 Y22.8674
G01 X67.3157 Y22.8657
G01 X67.3174 Y22.8631
G01 X67.3180 Y22.8600
G00 X67.3180 Y22.8600
G01 F100.00
G01 Z-1.7000
G01 F400.00
G01 X67.3174 Y22.8569
G01 X67.3157 Y22.8543
G01 X67.3131 Y22.8526
G01 X67.3100 Y22.8520
G01 X67.3069 Y22.8526
G01 X67.3043 Y22.8543
G01 X67.3026 Y22.8569
G01 X67.3020 Y22.8600
G01 X67.3026 Y22.8631
G01 X67.3043 Y22.8657
G01 X67.3069 Y22.8674
G01 X67.3100 Y22.8680
G01 X67.3131 Y22.8674
G01 X67.3157 Y22.8657
G01 X67.3174 Y22.8631
G01 X67.3180 Y22.8600
G00 Z3.0000
G00 X67.3180 Y25.4000
G01 F100.00
G01 Z-0.2500
G01 F400.00
G01 X67.3174 Y25.3969
G01 X67.3157 Y25.3943
G01 X67.3131 Y25.3926
G01 X67.3100 Y25.3920
G01 X67.3069 Y25.3926
G01 X67.3043 Y25.3943
G01 X67.3026 Y25.3969
G01 X67.3020 Y25.4000
G01 X67.3026 Y25.4031
G01 X67.3043 Y25.4057
G01 X67.3069 Y25.4074
G01 X67.3100 Y25.4080
G01 X67.3131 Y25.4074
G01 X67.3157 Y25.4057
G01 X67.3174 Y25.4031
G01 X67.3180 Y25.4000
G00 X67.3180 Y25.4000
G01 F100.00
G01 Z-0.5000
G01 F400.00
G01 X67.3174 Y25.3969
G01 X67.3157 Y25.3943
G01 X67.3131 Y25.3926
G01 X67.3100 Y25.3920
G01 X67.3069 Y25.3926
G01 X67.3043 Y25.3943
G01 X67.3026 Y25.3969
G01 X67.3020 Y25.4000
G01 X67.3026 Y25.4031
G01 X67.3043 Y25.4057
G01 X67.3069 Y25.4074
G01 X67.3100 Y25.4080
G01 X67.3131 Y25.4074
G01 X67.3157 Y25.4057
G01 X67.3174 Y25.4031
G01 X67.3180 Y25.4000
G00 X67.3180 Y25.4000
G01 F100.00
G01 Z-0.7500
G01 F400.00
G01 X67.3174 Y25.3969
G01 X67.3157 Y25.3943
G01 X67.3131 Y25.3926
G01 X67.3100 Y25.3920
G01 X67.3069 Y25.3926
G01 X67.3043 Y25.3943
G01 X67.3026 Y25.3969
G01 X67.3020 Y25.4000
G01 X67.3026 Y25.4031
G01 X67.3043 Y25.4057
G01 X67.3069 Y25.4074
G01 X67.3100 Y25.4080
G01 X67.3131 Y25.4074
G01 X67.3157 Y25.4057
G01 X67.3174 Y25.4031
G01 X67.3180 Y25.4000
G00 X67.3180 Y25.4000
G01 F100.00
G01 Z-1.0000
G01 F400.00
G01 X67.3174 Y25.3969
G01 X67.3157 Y25.3943
G01 X67.3131 Y25.3926
G01 X67.3100 Y25.3920
G01 X67.3069 Y25.3926
G01 X67.3043 Y25.3943
G01 X67.3026 Y25.3969
G01 X67.3020 Y25.4000
G01 X67.3026 Y25.4031
G01 X67.3043 Y25.4057
G01 X67.3069 Y25.4074
G01 X67.3100 Y25.4080
G01 X67.3131 Y25.4074
G01 X67.3157 Y25.4057
G01 X67.3174 Y25.4031
G01 X67.3180 Y25.4000
G00 X67.3180 Y25.4000
G01 F100.00
G01 Z-1.2500
G01 F400.00
G01 X67.3174 Y25.3969
G01 X67.3157 Y25.3943
G01 X67.3131 Y25.3926
G01 X67.3100 Y25.3920
G01 X67.3069 Y25.3926
G01 X67.3043 Y25.3943
G01 X67.3026 Y25.3969
G01 X67.3020 Y25.4000
G01 X67.3026 Y25.4031
G01 X67.3043 Y25.4057
G01 X67.3069 Y25.4074
G01 X67.3100 Y25.4080
G01 X67.3131 Y25.4074
G01 X67.3157 Y25.4057
G01 X67.3174 Y25.4031
G01 X67.3180 Y25.4000
G00 X67.3180 Y25.4000
G01 F100.00
G01 Z-1.5000
G01 F400.00
G01 X67.3174 Y25.3969
G01 X67.3157 Y25.3943
G01 X67.3131 Y25.3926
G01 X67.3100 Y25.3920
G01 X67.3069 Y25.3926
G01 X67.3043 Y25.3943
G01 X67.3026 Y25.3969
G01 X67.3020 Y25.4000
G01 X67.3026 Y25.4031
G01 X67.3043 Y25.4057
G01 X67.3069 Y25.4074
G01 X67.3100 Y25.4080
G01 X67.3131 Y25.4074
G01 X67.3157 Y25.4057
G01 X67.3174 Y25.4031
G01 X67.3180 Y25.4000
G00 X67.3180 Y25.4000
G01 F100.00
G01 Z-1.7000
G01 F400.00
G01 X67.3174 Y25.3969
G01 X67.3157 Y25.3943
G01 X67.3131 Y25.3926
G01 X67.3100 Y25.3920
G01 X67.3069 Y25.3926
G01 X67.3043 Y25.3943
G01 X67.3026 Y25.3969
G01 X67.3020 Y25.4000
G01 X67.3026 Y25.4031
G01 X67.3043 Y25.4057
G01 X67.3069 Y25.4074
G01 X67.3100 Y25.4080
G01 X67.3131 Y25.4074
G01 X67.3157 Y25.4057
G01 X67.3174 Y25.4031
G01 X67.3180 Y25.4000
G00 Z3.0000
G00 X64.7780 Y25.4000
G01 F100.00
G01 Z-0.2500
G01 F400.00
G01 X64.7774 Y25.3969
G01 X64.7757 Y25.3943
G01 X64.7731 Y25.3926
G01 X64.7700 Y25.3920
G01 X64.7669 Y25.3926
G01 X64.7643 Y25.3943
G01 X64.7626 Y25.3969
G01 X64.7620 Y25.4000
G01 X64.7626 Y25.4031
G01 X64.7643 Y25.4057
G01 X64.7669 Y25.4074
G01 X64.7700 Y25.4080
G01 X64.7731 Y25.4074
G01 X64.7757 Y25.4057
G01 X64.7774 Y25.4031
G01 X64.7780 Y25.4000
G00 X64.7780 Y25.4000
G01 F100.00
G01 Z-0.5000
G01 F400.00
G01 X64.7774 Y25.3969
G01 X64.7757 Y25.3943
G01 X64.7731 Y25.3926
G01 X64.7700 Y25.3920
G01 X64.7669 Y25.3926
G01 X64.7643 Y25.3943
G01 X64.7626 Y25.3969
G01 X64.7620 Y25.4000
G01 X64.7626 Y25.4031
G01 X64.7643 Y25.4057
G01 X64.7669 Y25.4074
G01 X64.7700 Y25.4080
G01 X64.7731 Y25.4074
G01 X64.7757 Y25.4057
G01 X64.7774 Y25.4031
G01 X64.7780 Y25.4000
G00 X64.7780 Y25.4000
G01 F100.00
G01 Z-0.7500
G01 F400.00
G01 X64.7774 Y25.3969
G01 X64.7757 Y25.3943
G01 X64.7731 Y25.3926
G01 X64.7700 Y25.3920
G01 X64.7669 Y25.3926
G01 X64.7643 Y25.3943
G01 X64.7626 Y25.3969
G01 X64.7620 Y25.4000
G01 X64.7626 Y25.4031
G01 X64.7643 Y25.4057
G01 X64.7669 Y25.4074
G01 X64.7700 Y25.4080
G01 X64.7731 Y25.4074
G01 X64.7757 Y25.4057
G01 X64.7774 Y25.4031
G01 X64.7780 Y25.4000
G00 X64.7780 Y25.4000
G01 F100.00
G01 Z-1.0000
G01 F400.00
G01 X64.7774 Y25.3969
G01 X64.7757 Y25.3943
G01 X64.7731 Y25.3926
G01 X64.7700 Y25.3920
G01 X64.7669 Y25.3926
G01 X64.7643 Y25.3943
G01 X64.7626 Y25.3969
G01 X64.7620 Y25.4000
G01 X64.7626 Y25.4031
G01 X64.7643 Y25.4057
G01 X64.7669 Y25.4074
G01 X64.7700 Y25.4080
G01 X64.7731 Y25.4074
G01 X64.7757 Y25.4057
G01 X64.7774 Y25.4031
G01 X64.7780 Y25.4000
G00 X64.7780 Y25.4000
G01 F100.00
G01 Z-1.2500
G01 F400.00
G01 X64.7774 Y25.3969
G01 X64.7757 Y25.3943
G01 X64.7731 Y25.3926
G01 X64.7700 Y25.3920
G01 X64.7669 Y25.3926
G01 X64.7643 Y25.3943
G01 X64.7626 Y25.3969
G01 X64.7620 Y25.4000
G01 X64.7626 Y25.4031
G01 X64.7643 Y25.4057
G01 X64.7669 Y25.4074
G01 X64.7700 Y25.4080
G01 X64.7731 Y25.4074
G01 X64.7757 Y25.4057
G01 X64.7774 Y25.4031
G01 X64.7780 Y25.4000
G00 X64.7780 Y25.4000
G01 F100.00
G01 Z-1.5000
G01 F400.00
G01 X64.7774 Y25.3969
G01 X64.7757 Y25.3943
G01 X64.7731 Y25.3926
G01 X64.7700 Y25.3920
G01 X64.7669 Y25.3926
G01 X64.7643 Y25.3943
G01 X64.7626 Y25.3969
G01 X64.7620 Y25.4000
G01 X64.7626 Y25.4031
G01 X64.7643 Y25.4057
G01 X64.7669 Y25.4074
G01 X64.7700 Y25.4080
G01 X64.7731 Y25.4074
G01 X64.7757 Y25.4057
G01 X64.7774 Y25.4031
G01 X64.7780 Y25.4000
G00 X64.7780 Y25.4000
G01 F100.00
G01 Z-1.7000
G01 F400.00
G01 X64.7774 Y25.3969
G01 X64.7757 Y25.3943
G01 X64.7731 Y25.3926
G01 X64.7700 Y25.3920
G01 X64.7669 Y25.3926
G01 X64.7643 Y25.3943
G01 X64.7626 Y25.3969
G01 X64.7620 Y25.4000
G01 X64.7626 Y25.4031
G01 X64.7643 Y25.4057
G01 X64.7669 Y25.4074
G01 X64.7700 Y25.4080
G01 X64.7731 Y25.4074
G01 X64.7757 Y25.4057
G01 X64.7774 Y25.4031
G01 X64.7780 Y25.4000
G00 Z3.0000
G00 X64.7780 Y27.9400
G01 F100.00
G01 Z-0.2500
G01 F400.00
G01 X64.7774 Y27.9369
G01 X64.7757 Y27.9343
G01 X64.7731 Y27.9326
G01 X64.7700 Y27.9320
G01 X64.7669 Y27.9326
G01 X64.7643 Y27.9343
G01 X64.7626 Y27.9369
G01 X64.7620 Y27.9400
G01 X64.7626 Y27.9431
G01 X64.7643 Y27.9457
G01 X64.7669 Y27.9474
G01 X64.7700 Y27.9480
G01 X64.7731 Y27.9474
G01 X64.7757 Y27.9457
G01 X64.7774 Y27.9431
G01 X64.7780 Y27.9400
G00 X64.7780 Y27.9400
G01 F100.00
G01 Z-0.5000
G01 F400.00
G01 X64.7774 Y27.9369
G01 X64.7757 Y27.9343
G01 X64.7731 Y27.9326
G01 X64.7700 Y27.9320
G01 X64.7669 Y27.9326
G01 X64.7643 Y27.9343
G01 X64.7626 Y27.9369
G01 X64.7620 Y27.9400
G01 X64.7626 Y27.9431
G01 X64.7643 Y27.9457
G01 X64.7669 Y27.9474
G01 X64.7700 Y27.9480
G01 X64.7731 Y27.9474
G01 X64.7757 Y27.9457
G01 X64.7774 Y27.9431
G01 X64.7780 Y27.9400
G00 X64.7780 Y27.9400
G01 F100.00
G01 Z-0.7500
G01 F400.00
G01 X64.7774 Y27.9369
G01 X64.7757 Y27.9343
G01 X64.7731 Y27.9326
G01 X64.7700 Y27.9320
G01 X64.7669 Y27.9326
G01 X64.7643 Y27.9343
G01 X64.7626 Y27.9369
G01 X64.7620 Y27.9400
G01 X64.7626 Y27.9431
G01 X64.7643 Y27.9457
G01 X64.7669 Y27.9474
G01 X64.7700 Y27.9480
G01 X64.7731 Y27.9474
G01 X64.7757 Y27.9457
G01 X64.7774 Y27.9431
G01 X64.7780 Y27.9400
G00 X64.7780 Y27.9400
G01 F100.00
G01 Z-1.0000
G01 F400.00
G01 X64.7774 Y27.9369
G01 X64.7757 Y27.9343
G01 X64.7731 Y27.9326
G01 X64.7700 Y27.9320
G01 X64.7669 Y27.9326
G01 X64.7643 Y27.9343
