(G-CODE GENERATED BY FLATCAM v8.994 - www.flatcam.org - Version Date: 2020/11/7)

(Name: copper_top.gbr_iso_combined_cnc)
(Type: G-code from Geometry)
(Units: MM)

(Created on Sunday, 03 April 2022 at 13:15)

(This preprocessor is the default preprocessor used by FlatCAM.)
(It is made to work with MACH3 compatible motion controllers.)

(TOOL DIAMETER: 0.508 mm)
(Feedrate_XY: 325.0 mm/min)
(Feedrate_Z: 100.0 mm/min)
(Feedrate rapids 400.0 mm/min)

(Z_Cut: -0.4 mm)
(Z_Move: 5.0 mm)
(Z Start: None mm)
(Z End: 15.0 mm)
(X,Y End: None mm)
(Steps per circle: 64)
(Preprocessor Geometry: default)

(X range:    0.1525 ...  152.2475  mm)
(Y range:    0.1525 ...  101.4475  mm)

(Spindle Speed: 29000.0 RPM)
G21
G90
G94

G01 F325.00

M5
G00 Z15.0000
G00 X0.0000 Y0.0000
T2
M6    
(MSG, Change to Tool Dia = 0.5080)
M0
G00 Z15.0000

M03 S29000.0
G01 F325.00
G00 X0.1527 Y1.0742
G01 F100.00
G01 Z-0.4000
G01 F325.00
G01 X0.1533 Y1.0524
G01 X0.1545 Y1.0314
G01 X0.1561 Y1.0103
G01 X0.1583 Y0.9894
G01 X0.1610 Y0.9685
G01 X0.1641 Y0.9476
G01 X0.1749 Y0.8903
G01 X0.1797 Y0.8686
G01 X0.1851 Y0.8470
G01 X0.1911 Y0.8256
G01 X0.1976 Y0.8043
G01 X0.2047 Y0.7832
G01 X0.2123 Y0.7623
G01 X0.2216 Y0.7384
G01 X0.2300 Y0.7185
G01 X0.2389 Y0.6988
G01 X0.2483 Y0.6793
G01 X0.2582 Y0.6601
G01 X0.2811 Y0.6190
G01 X0.3020 Y0.5841
G01 X0.3246 Y0.5503
G01 X0.3365 Y0.5338
G01 X0.3511 Y0.5144
G01 X0.3651 Y0.4968
G01 X0.3796 Y0.4796
G01 X0.3945 Y0.4627
G01 X0.4099 Y0.4462
G01 X0.4257 Y0.4301
G01 X0.4418 Y0.4145
G01 X0.4829 Y0.3773
G01 X0.4993 Y0.3635
G01 X0.5159 Y0.3501
G01 X0.5329 Y0.3371
G01 X0.5502 Y0.3245
G01 X0.5678 Y0.3123
G01 X0.5891 Y0.2985
G01 X0.6080 Y0.2868
G01 X0.6273 Y0.2755
G01 X0.6469 Y0.2648
G01 X0.6667 Y0.2546
G01 X0.6868 Y0.2449
G01 X0.7318 Y0.2250
G01 X0.7514 Y0.2169
G01 X0.7712 Y0.2093
G01 X0.7911 Y0.2022
G01 X0.8112 Y0.1955
G01 X0.8315 Y0.1894
G01 X0.8557 Y0.1827
G01 X0.8767 Y0.1775
G01 X0.8977 Y0.1728
G01 X0.9189 Y0.1686
G01 X0.9402 Y0.1650
G01 X0.9615 Y0.1619
G01 X0.9997 Y0.1575
G01 X1.0227 Y0.1553
G01 X1.0459 Y0.1537
G01 X1.0690 Y0.1528
G01 X1.0922 Y0.1525
G01 X16.5100 Y0.1525
G01 X16.5360 Y0.1529
G01 X16.5763 Y0.1549
G01 X16.6165 Y0.1587
G01 X16.6564 Y0.1644
G01 X16.7119 Y0.1749
G01 X16.7336 Y0.1797
G01 X16.7552 Y0.1851
G01 X16.7766 Y0.1911
G01 X16.7979 Y0.1976
G01 X16.8190 Y0.2047
G01 X16.8399 Y0.2123
G01 X16.8638 Y0.2216
G01 X16.8837 Y0.2300
G01 X16.9034 Y0.2389
G01 X16.9229 Y0.2483
G01 X16.9421 Y0.2582
G01 X16.9611 Y0.2686
G01 X17.0008 Y0.2913
G01 X17.0181 Y0.3020
G01 X17.0519 Y0.3246
G01 X17.0847 Y0.3487
G01 X17.1054 Y0.3651
G01 X17.1226 Y0.3796
G01 X17.1395 Y0.3945
G01 X17.1560 Y0.4099
G01 X17.1721 Y0.4257
G01 X17.1877 Y0.4418
G01 X17.2249 Y0.4829
G01 X17.2387 Y0.4993
G01 X17.2521 Y0.5159
G01 X17.2651 Y0.5329
G01 X17.2777 Y0.5502
G01 X17.2899 Y0.5678
G01 X17.3016 Y0.5858
G01 X17.3154 Y0.6080
G01 X17.3267 Y0.6273
G01 X17.3374 Y0.6469
G01 X17.3476 Y0.6667
G01 X17.3573 Y0.6868
G01 X17.3772 Y0.7318
G01 X17.3853 Y0.7514
G01 X17.3929 Y0.7712
G01 X17.4000 Y0.7911
G01 X17.4067 Y0.8112
G01 X17.4128 Y0.8315
G01 X17.4195 Y0.8557
G01 X17.4247 Y0.8767
G01 X17.4294 Y0.8977
G01 X17.4336 Y0.9189
G01 X17.4372 Y0.9402
G01 X17.4403 Y0.9615
G01 X17.4429 Y0.9830
G01 X17.4469 Y1.0227
G01 X17.4485 Y1.0459
G01 X17.4494 Y1.0690
G01 X17.4497 Y1.0922
G01 X17.4497 Y6.1204
G01 X33.0200 Y6.1204
G01 X33.0412 Y6.1207
G01 X33.0624 Y6.1215
G01 X33.2492 Y6.1307
G01 X33.2703 Y6.1320
G01 X33.2915 Y6.1338
G01 X33.3125 Y6.1361
G01 X33.3335 Y6.1390
G01 X33.5185 Y6.1664
G01 X33.5395 Y6.1698
G01 X33.5603 Y6.1737
G01 X33.5810 Y6.1781
G01 X33.6017 Y6.1830
G01 X33.7831 Y6.2284
G01 X33.8036 Y6.2338
G01 X33.8240 Y6.2397
G01 X33.8442 Y6.2461
G01 X33.8642 Y6.2530
G01 X34.0403 Y6.3160
G01 X34.0602 Y6.3234
G01 X34.0799 Y6.3313
G01 X34.0993 Y6.3396
G01 X34.1186 Y6.3484
G01 X34.2877 Y6.4284
G01 X34.3067 Y6.4377
G01 X34.3256 Y6.4475
G01 X34.3441 Y6.4577
G01 X34.3624 Y6.4684
G01 X34.5229 Y6.5645
G01 X34.5409 Y6.5756
G01 X34.5587 Y6.5872
G01 X34.5762 Y6.5992
G01 X34.5933 Y6.6116
G01 X34.6699 Y6.6684
G01 X34.7436 Y6.7230
G01 X34.7604 Y6.7359
G01 X34.7770 Y6.7491
G01 X34.7932 Y6.7628
G01 X34.8091 Y6.7768
G01 X34.9632 Y6.9168
G01 X34.9784 Y6.9316
G01 X43.6170 Y15.5703
G01 X68.5800 Y15.5703
G01 X68.6060 Y15.5707
G01 X68.6463 Y15.5727
G01 X68.6865 Y15.5765
G01 X68.7264 Y15.5822
G01 X68.7672 Y15.5898
G01 X68.7881 Y15.5941
G01 X68.8089 Y15.5989
G01 X68.8295 Y15.6042
G01 X68.8500 Y15.6100
G01 X68.8704 Y15.6163
G01 X68.8906 Y15.6231
G01 X68.9145 Y15.6318
G01 X68.9345 Y15.6397
G01 X68.9543 Y15.6481
G01 X68.9739 Y15.6569
G01 X68.9932 Y15.6663
G01 X69.0124 Y15.6761
G01 X69.0313 Y15.6864
G01 X69.0708 Y15.7091
G01 X69.1051 Y15.7309
G01 X69.1384 Y15.7543
G01 X69.1578 Y15.7689
G01 X69.1754 Y15.7829
G01 X69.1926 Y15.7974
G01 X69.2095 Y15.8123
G01 X69.2260 Y15.8277
G01 X69.2421 Y15.8435
G01 X69.2577 Y15.8596
G01 X69.2729 Y15.8762
G01 X69.2949 Y15.9007
G01 X69.3087 Y15.9171
G01 X69.3221 Y15.9337
G01 X69.3351 Y15.9507
G01 X69.3477 Y15.9680
G01 X69.3599 Y15.9856
G01 X69.3737 Y16.0069
G01 X69.3854 Y16.0258
G01 X69.3967 Y16.0451
G01 X69.4074 Y16.0647
G01 X69.4176 Y16.0845
G01 X69.4273 Y16.1046
G01 X69.4365 Y16.1249
G01 X69.4553 Y16.1692
G01 X69.4629 Y16.1890
G01 X69.4700 Y16.2089
G01 X69.4767 Y16.2290
G01 X69.4828 Y16.2493
G01 X69.4895 Y16.2735
G01 X69.4947 Y16.2945
G01 X69.4994 Y16.3155
G01 X69.5036 Y16.3367
G01 X69.5072 Y16.3580
G01 X69.5103 Y16.3793
G01 X69.5129 Y16.4008
G01 X69.5169 Y16.4405
G01 X69.5185 Y16.4637
G01 X69.5194 Y16.4868
G01 X69.5197 Y16.5100
G01 X69.5197 Y31.7500
G01 X69.5193 Y31.7760
G01 X69.5173 Y31.8163
G01 X69.5156 Y31.8364
G01 X69.5109 Y31.8764
G01 X69.5078 Y31.8964
G01 X69.4973 Y31.9519
G01 X69.4925 Y31.9736
G01 X69.4871 Y31.9952
G01 X69.4811 Y32.0166
G01 X69.4746 Y32.0379
G01 X69.4675 Y32.0590
G01 X69.4599 Y32.0799
G01 X69.4506 Y32.1038
G01 X69.4422 Y32.1237
G01 X69.4333 Y32.1434
G01 X69.4239 Y32.1629
G01 X69.4140 Y32.1821
G01 X69.4036 Y32.2011
G01 X69.3809 Y32.2408
G01 X69.3591 Y32.2751
G01 X69.3357 Y32.3084
G01 X69.3211 Y32.3278
G01 X69.3071 Y32.3454
G01 X69.2926 Y32.3626
G01 X69.2777 Y32.3795
G01 X69.2623 Y32.3960
G01 X69.2465 Y32.4121
G01 X69.2304 Y32.4277
G01 X69.1893 Y32.4649
G01 X69.1729 Y32.4787
G01 X69.1563 Y32.4921
G01 X69.1393 Y32.5051
G01 X69.1220 Y32.5177
G01 X69.1044 Y32.5299
G01 X69.0831 Y32.5437
G01 X69.0642 Y32.5554
G01 X69.0449 Y32.5667
G01 X69.0253 Y32.5774
G01 X69.0055 Y32.5876
G01 X68.9854 Y32.5973
G01 X68.9651 Y32.6065
G01 X68.9208 Y32.6253
G01 X68.9010 Y32.6329
G01 X68.8811 Y32.6400
G01 X68.8610 Y32.6467
G01 X68.8407 Y32.6528
G01 X68.8203 Y32.6585
G01 X68.7955 Y32.6647
G01 X68.7745 Y32.6694
G01 X68.7533 Y32.6736
G01 X68.7320 Y32.6772
G01 X68.7107 Y32.6803
G01 X68.6892 Y32.6829
G01 X68.6495 Y32.6869
G01 X68.6263 Y32.6885
G01 X68.6032 Y32.6894
G01 X68.5800 Y32.6897
G01 X61.8268 Y32.6897
G01 X61.8268 Y43.3833
G01 X68.5800 Y43.3833
G01 X68.6060 Y43.3837
G01 X68.6463 Y43.3857
G01 X68.6865 Y43.3895
G01 X68.7064 Y43.3921
G01 X68.7264 Y43.3952
G01 X68.7672 Y43.4028
G01 X68.7881 Y43.4071
G01 X68.8089 Y43.4119
G01 X68.8295 Y43.4172
G01 X68.8500 Y43.4230
G01 X68.8704 Y43.4293
G01 X68.8943 Y43.4374
G01 X68.9145 Y43.4448
G01 X68.9345 Y43.4527
G01 X68.9543 Y43.4611
G01 X68.9739 Y43.4699
G01 X68.9932 Y43.4793
G01 X69.0124 Y43.4891
G01 X69.0313 Y43.4994
G01 X69.0708 Y43.5221
G01 X69.0881 Y43.5328
G01 X69.1051 Y43.5439
G01 X69.1384 Y43.5673
G01 X69.1578 Y43.5819
G01 X69.1754 Y43.5959
G01 X69.1926 Y43.6104
G01 X69.2095 Y43.6253
G01 X69.2260 Y43.6407
G01 X69.2421 Y43.6565
G01 X69.2577 Y43.6726
G01 X69.2949 Y43.7137
G01 X69.3087 Y43.7301
G01 X69.3221 Y43.7467
G01 X69.3351 Y43.7637
G01 X69.3477 Y43.7810
G01 X69.3599 Y43.7986
G01 X69.3737 Y43.8199
G01 X69.3854 Y43.8388
G01 X69.3967 Y43.8581
G01 X69.4074 Y43.8777
G01 X69.4176 Y43.8975
G01 X69.4273 Y43.9176
G01 X69.4365 Y43.9379
G01 X69.4553 Y43.9822
G01 X69.4629 Y44.0020
G01 X69.4700 Y44.0219
G01 X69.4767 Y44.0420
G01 X69.4828 Y44.0623
G01 X69.4895 Y44.0865
G01 X69.4947 Y44.1075
G01 X69.4994 Y44.1285
G01 X69.5036 Y44.1497
G01 X69.5072 Y44.1710
G01 X69.5103 Y44.1923
G01 X69.5147 Y44.2305
G01 X69.5169 Y44.2535
G01 X69.5185 Y44.2767
G01 X69.5194 Y44.2998
G01 X69.5197 Y44.3230
G01 X69.5197 Y59.5630
G01 X69.5193 Y59.5890
G01 X69.5173 Y59.6293
G01 X69.5135 Y59.6695
G01 X69.5078 Y59.7094
G01 X69.5016 Y59.7431
G01 X69.4973 Y59.7649
G01 X69.4925 Y59.7866
G01 X69.4871 Y59.8082
G01 X69.4811 Y59.8296
G01 X69.4746 Y59.8509
G01 X69.4675 Y59.8720
G01 X69.4599 Y59.8929
G01 X69.4506 Y59.9168
G01 X69.4422 Y59.9367
G01 X69.4333 Y59.9564
G01 X69.4239 Y59.9759
G01 X69.4140 Y59.9951
G01 X69.3911 Y60.0362
G01 X69.3702 Y60.0711
G01 X69.3476 Y60.1049
G01 X69.3235 Y60.1377
G01 X69.3071 Y60.1584
G01 X69.2926 Y60.1756
G01 X69.2777 Y60.1925
G01 X69.2623 Y60.2090
G01 X69.2465 Y60.2251
G01 X69.2304 Y60.2407
G01 X69.1893 Y60.2779
G01 X69.1729 Y60.2917
G01 X69.1563 Y60.3051
G01 X69.1393 Y60.3181
G01 X69.1220 Y60.3307
G01 X69.1044 Y60.3429
G01 X69.0831 Y60.3567
G01 X69.0642 Y60.3684
G01 X69.0449 Y60.3797
G01 X69.0253 Y60.3904
G01 X69.0055 Y60.4006
G01 X68.9854 Y60.4103
G01 X68.9404 Y60.4302
G01 X68.9208 Y60.4383
G01 X68.9010 Y60.4459
G01 X68.8811 Y60.4530
G01 X68.8610 Y60.4597
G01 X68.8407 Y60.4658
G01 X68.8089 Y60.4744
G01 X68.8089 Y62.7521
G01 X71.9949 Y65.9381
G01 X72.7818 Y65.9381
G01 X72.8523 Y65.8862
G01 X72.8698 Y65.8742
G01 X72.8875 Y65.8626
G01 X72.9911 Y65.8002
G01 X73.0094 Y65.7896
G01 X73.0280 Y65.7793
G01 X73.0468 Y65.7696
G01 X73.1560 Y65.7177
G01 X73.1752 Y65.7088
G01 X73.1947 Y65.7005
G01 X73.2144 Y65.6926
G01 X73.2343 Y65.6852
G01 X73.3482 Y65.6447
G01 X73.3684 Y65.6383
G01 X73.3887 Y65.6324
G01 X73.5060 Y65.6028
G01 X73.5266 Y65.5979
G01 X73.5473 Y65.5935
G01 X73.5681 Y65.5896
G01 X73.5891 Y65.5863
G01 X73.7087 Y65.5688
G01 X73.7298 Y65.5665
G01 X73.7509 Y65.5646
G01 X73.8716 Y65.5584
G01 X73.8928 Y65.5577
G01 X73.9140 Y65.5574
G01 X73.9352 Y65.5577
G01 X74.0560 Y65.5633
G01 X74.0771 Y65.5646
G01 X74.0982 Y65.5665
G01 X74.1193 Y65.5688
G01 X74.1403 Y65.5716
G01 X74.2389 Y65.5863
G01 X74.2599 Y65.5896
G01 X74.2807 Y65.5935
G01 X74.3014 Y65.5979
G01 X74.3220 Y65.6028
G01 X74.4188 Y65.6270
G01 X74.4393 Y65.6324
G01 X74.4596 Y65.6383
G01 X74.4798 Y65.6447
G01 X74.4999 Y65.6516
G01 X74.5937 Y65.6852
G01 X74.6136 Y65.6926
G01 X74.6333 Y65.7005
G01 X74.6528 Y65.7088
G01 X74.7622 Y65.7603
G01 X74.7812 Y65.7696
G01 X74.8000 Y65.7793
G01 X74.8186 Y65.7896
G01 X74.8369 Y65.8002
G01 X74.9405 Y65.8626
G01 X74.9582 Y65.8742
G01 X74.9757 Y65.8862
G01 X75.0730 Y65.9580
G01 X75.0899 Y65.9708
G01 X75.1064 Y65.9840
G01 X75.1226 Y65.9977
G01 X75.2124 Y66.0787
G01 X75.2279 Y66.0931
G01 X75.2431 Y66.1079
G01 X75.2579 Y66.1231
G01 X75.2723 Y66.1386
G01 X75.3393 Y66.2125
G01 X75.3533 Y66.2284
G01 X75.3670 Y66.2446
G01 X75.3802 Y66.2611
G01 X75.3930 Y66.2780
G01 X75.4524 Y66.3581
G01 X75.4648 Y66.3753
G01 X75.4768 Y66.3928
G01 X75.4884 Y66.4105
G01 X75.4995 Y66.4286
G01 X75.5614 Y66.5324
G01 X75.5717 Y66.5510
G01 X75.5814 Y66.5698
G01 X75.5907 Y66.5888
G01 X75.6422 Y66.6982
G01 X75.6505 Y66.7177
G01 X75.6584 Y66.7374
G01 X75.6994 Y66.8511
G01 X75.7063 Y66.8712
G01 X75.7127 Y66.8914
G01 X75.7186 Y66.9117
G01 X75.7482 Y67.0290
G01 X75.7531 Y67.0496
G01 X75.7575 Y67.0703
G01 X75.7614 Y67.0911
G01 X75.7647 Y67.1121
G01 X75.7794 Y67.2107
G01 X75.7822 Y67.2317
G01 X75.7845 Y67.2528
G01 X75.7864 Y67.2739
G01 X75.7877 Y67.2950
G01 X75.7926 Y67.3946
G01 X75.7933 Y67.4158
G01 X75.7936 Y67.4370
G01 X75.7933 Y67.4582
G01 X75.7926 Y67.4794
G01 X75.7877 Y67.5790
G01 X75.7864 Y67.6001
G01 X75.7845 Y67.6212
G01 X75.7822 Y67.6423
G01 X75.7794 Y67.6633
G01 X75.7647 Y67.7619
G01 X75.7614 Y67.7829
G01 X75.7575 Y67.8037
G01 X75.7531 Y67.8244
G01 X75.7482 Y67.8450
G01 X75.7240 Y67.9418
G01 X75.7186 Y67.9623
G01 X75.7127 Y67.9826
G01 X75.7063 Y68.0028
G01 X75.6994 Y68.0229
G01 X75.6658 Y68.1167
G01 X75.6584 Y68.1366
G01 X75.6505 Y68.1563
G01 X75.6422 Y68.1758
G01 X75.6333 Y68.1950
G01 X75.5907 Y68.2852
G01 X75.5814 Y68.3042
G01 X75.5717 Y68.3230
G01 X75.5614 Y68.3416
G01 X75.5508 Y68.3599
G01 X75.4884 Y68.4635
G01 X75.4768 Y68.4812
G01 X75.4648 Y68.4987
G01 X75.4524 Y68.5159
G01 X75.3930 Y68.5960
G01 X75.3802 Y68.6129
G01 X75.3670 Y68.6294
G01 X75.3533 Y68.6456
G01 X75.3393 Y68.6615
G01 X75.2579 Y68.7509
G01 X75.2431 Y68.7661
G01 X75.2279 Y68.7809
G01 X75.2124 Y68.7953
G01 X75.1385 Y68.8623
G01 X75.1226 Y68.8763
G01 X75.1064 Y68.8900
G01 X75.0899 Y68.9032
G01 X75.0730 Y68.9160
G01 X74.9929 Y68.9754
G01 X74.9757 Y68.9878
G01 X74.9582 Y68.9998
G01 X74.9405 Y69.0114
G01 X74.8369 Y69.0738
G01 X74.8186 Y69.0844
G01 X74.8000 Y69.0947
G01 X74.7812 Y69.1044
G01 X74.7622 Y69.1137
G01 X74.6720 Y69.1563
G01 X74.6528 Y69.1652
G01 X74.6333 Y69.1735
G01 X74.6136 Y69.1814
G01 X74.5937 Y69.1888
G01 X74.4798 Y69.2293
G01 X74.4596 Y69.2357
G01 X74.4393 Y69.2416
G01 X74.4188 Y69.2470
G01 X74.3220 Y69.2712
G01 X74.3014 Y69.2761
G01 X74.2807 Y69.2805
G01 X74.2599 Y69.2844
G01 X74.2389 Y69.2877
G01 X74.1403 Y69.3024
G01 X74.1193 Y69.3052
G01 X74.0982 Y69.3075
G01 X74.0771 Y69.3094
G01 X73.9564 Y69.3156
G01 X73.9352 Y69.3163
G01 X73.9140 Y69.3166
G01 X73.8928 Y69.3163
G01 X73.7720 Y69.3107
G01 X73.7509 Y69.3094
G01 X73.7298 Y69.3075
G01 X73.7087 Y69.3052
G01 X73.6877 Y69.3024
G01 X73.5681 Y69.2844
G01 X73.5473 Y69.2805
G01 X73.5266 Y69.2761
G01 X73.4092 Y69.2470
G01 X73.3887 Y69.2416
G01 X73.3684 Y69.2357
G01 X73.3482 Y69.2293
G01 X73.2343 Y69.1888
G01 X73.2144 Y69.1814
G01 X73.1947 Y69.1735
G01 X73.1752 Y69.1652
G01 X73.1560 Y69.1563
G01 X73.0468 Y69.1044
G01 X73.0280 Y69.0947
G01 X73.0094 Y69.0844
G01 X72.9911 Y69.0738
G01 X72.8875 Y69.0114
G01 X72.8698 Y68.9998
G01 X72.8523 Y68.9878
G01 X72.7818 Y68.9359
G01 X71.3740 Y68.9359
G01 X71.3528 Y68.9357
G01 X71.2694 Y68.9318
G01 X71.2482 Y68.9305
G01 X71.2271 Y68.9287
G01 X71.2060 Y68.9264
G01 X71.1850 Y68.9235
G01 X71.1233 Y68.9144
G01 X71.1024 Y68.9110
G01 X71.0816 Y68.9071
G01 X71.0608 Y68.9027
G01 X71.0402 Y68.8978
G01 X70.9797 Y68.8827
G01 X70.9592 Y68.8773
G01 X70.9389 Y68.8714
G01 X70.9187 Y68.8650
G01 X70.8986 Y68.8581
G01 X70.8201 Y68.8297
G01 X70.8004 Y68.8218
G01 X70.7809 Y68.8135
G01 X70.7616 Y68.8046
G01 X70.7053 Y68.7780
G01 X70.6862 Y68.7687
G01 X70.6674 Y68.7589
G01 X70.6488 Y68.7487
G01 X70.6305 Y68.7380
G01 X70.5590 Y68.6949
G01 X70.5412 Y68.6833
G01 X70.5238 Y68.6713
G01 X70.5066 Y68.6589
G01 X70.4565 Y68.6218
G01 X70.4396 Y68.6089
G01 X70.4231 Y68.5957
G01 X70.4069 Y68.5820
G01 X70.3910 Y68.5680
G01 X70.3448 Y68.5261
G01 X70.3293 Y68.5117
G01 X70.3141 Y68.4969
G01 X66.2501 Y64.4329
G01 X66.2353 Y64.4177
G01 X66.2209 Y64.4022
G01 X66.1650 Y64.3401
G01 X66.1513 Y64.3239
G01 X66.1381 Y64.3074
G01 X66.1252 Y64.2905
G01 X66.0881 Y64.2404
G01 X66.0757 Y64.2232
G01 X66.0637 Y64.2058
G01 X66.0521 Y64.1880
G01 X66.0410 Y64.1699
G01 X65.9983 Y64.0982
G01 X65.9881 Y64.0796
G01 X65.9783 Y64.0608
G01 X65.9690 Y64.0417
G01 X65.9424 Y63.9854
G01 X65.9335 Y63.9661
G01 X65.9252 Y63.9466
G01 X65.9173 Y63.9269
G01 X65.9099 Y63.9071
G01 X65.8889 Y63.8484
G01 X65.8820 Y63.8283
G01 X65.8756 Y63.8081
G01 X65.8697 Y63.7878
G01 X65.8643 Y63.7673
G01 X65.8492 Y63.7068
G01 X65.8443 Y63.6862
G01 X65.8399 Y63.6654
G01 X65.8360 Y63.6446
G01 X65.8326 Y63.6237
G01 X65.8206 Y63.5410
G01 X65.8183 Y63.5199
G01 X65.8165 Y63.4988
G01 X65.8152 Y63.4776
G01 X65.8121 Y63.4154
G01 X65.8113 Y63.3942
G01 X65.8111 Y63.3730
G01 X65.8111 Y60.5028
G01 X43.6155 Y60.5043
G01 X24.6914 Y79.4284
G01 X24.6762 Y79.4432
G01 X24.6607 Y79.4576
G01 X24.5221 Y79.5832
G01 X24.5062 Y79.5972
G01 X24.4900 Y79.6109
G01 X24.4734 Y79.6241
G01 X24.4566 Y79.6370
G01 X24.3063 Y79.7484
G01 X24.2892 Y79.7608
G01 X24.2717 Y79.7728
G01 X24.2539 Y79.7844
G01 X24.2359 Y79.7955
G01 X24.0754 Y79.8916
G01 X24.0571 Y79.9023
G01 X24.0386 Y79.9125
G01 X24.0197 Y79.9223
G01 X24.0007 Y79.9316
G01 X23.8316 Y80.0116
G01 X23.8123 Y80.0204
G01 X23.7929 Y80.0287
G01 X23.7732 Y80.0366
G01 X23.7533 Y80.0440
G01 X23.5772 Y80.1070
G01 X23.5572 Y80.1139
G01 X23.5370 Y80.1203
G01 X23.5166 Y80.1262
G01 X23.4961 Y80.1316
G01 X23.3147 Y80.1770
G01 X23.2940 Y80.1819
G01 X23.2733 Y80.1863
G01 X23.2525 Y80.1902
G01 X23.2315 Y80.1936
G01 X23.0465 Y80.2210
G01 X23.0255 Y80.2239
G01 X23.0045 Y80.2262
G01 X22.9833 Y80.2280
G01 X22.7754 Y80.2385
G01 X22.7542 Y80.2393
G01 X22.7330 Y80.2396
G01 X17.4497 Y80.2396
G01 X17.4497 Y100.5078
G01 X17.4493 Y100.5338
G01 X17.4473 Y100.5741
G01 X17.4435 Y100.6143
G01 X17.4378 Y100.6542
G01 X17.4302 Y100.6950
G01 X17.4259 Y100.7159
G01 X17.4211 Y100.7367
G01 X17.4158 Y100.7573
G01 X17.4100 Y100.7778
G01 X17.4037 Y100.7982
G01 X17.3969 Y100.8184
G01 X17.3882 Y100.8423
G01 X17.3803 Y100.8623
G01 X17.3719 Y100.8821
G01 X17.3631 Y100.9017
G01 X17.3537 Y100.9210
G01 X17.3439 Y100.9402
G01 X17.3336 Y100.9591
G01 X17.3109 Y100.9986
G01 X17.2891 Y101.0329
G01 X17.2657 Y101.0662
G01 X17.2511 Y101.0856
G01 X17.2371 Y101.1032
G01 X17.2226 Y101.1204
G01 X17.2077 Y101.1373
G01 X17.1923 Y101.1538
G01 X17.1765 Y101.1699
G01 X17.1604 Y101.1855
G01 X17.1438 Y101.2007
G01 X17.1193 Y101.2227
G01 X17.1029 Y101.2365
G01 X17.0863 Y101.2499
G01 X17.0693 Y101.2629
G01 X17.0520 Y101.2755
G01 X17.0344 Y101.2877
G01 X17.0131 Y101.3015
G01 X16.9942 Y101.3132
G01 X16.9749 Y101.3245
G01 X16.9553 Y101.3352
G01 X16.9355 Y101.3454
G01 X16.9154 Y101.3551
G01 X16.8951 Y101.3643
G01 X16.8508 Y101.3831
G01 X16.8310 Y101.3907
G01 X16.8111 Y101.3978
G01 X16.7910 Y101.4045
G01 X16.7707 Y101.4106
G01 X16.7465 Y101.4173
G01 X16.7255 Y101.4225
G01 X16.7045 Y101.4272
G01 X16.6833 Y101.4314
G01 X16.6620 Y101.4350
G01 X16.6407 Y101.4381
G01 X16.6192 Y101.4407
G01 X16.5795 Y101.4447
G01 X16.5563 Y101.4463
G01 X16.5332 Y101.4472
G01 X16.5100 Y101.4475
G01 X1.0922 Y101.4475
G01 X1.0701 Y101.4472
G01 X1.0460 Y101.4464
G01 X1.0058 Y101.4434
G01 X0.9658 Y101.4387
G01 X0.9458 Y101.4356
G01 X0.8903 Y101.4251
G01 X0.8686 Y101.4203
G01 X0.8470 Y101.4149
G01 X0.8256 Y101.4089
G01 X0.8043 Y101.4024
G01 X0.7832 Y101.3953
G01 X0.7623 Y101.3877
G01 X0.7384 Y101.3784
G01 X0.7185 Y101.3700
G01 X0.6988 Y101.3611
G01 X0.6793 Y101.3517
G01 X0.6601 Y101.3418
G01 X0.6190 Y101.3189
G01 X0.5841 Y101.2980
G01 X0.5503 Y101.2754
G01 X0.5175 Y101.2513
G01 X0.4968 Y101.2349
G01 X0.4796 Y101.2204
G01 X0.4627 Y101.2055
G01 X0.4462 Y101.1901
G01 X0.4301 Y101.1743
G01 X0.4145 Y101.1582
G01 X0.3773 Y101.1171
G01 X0.3635 Y101.1007
G01 X0.3501 Y101.0841
G01 X0.3371 Y101.0671
G01 X0.3245 Y101.0498
G01 X0.3123 Y101.0322
G01 X0.3006 Y101.0142
G01 X0.2868 Y100.9920
G01 X0.2755 Y100.9727
G01 X0.2648 Y100.9531
G01 X0.2546 Y100.9333
G01 X0.2449 Y100.9132
G01 X0.2357 Y100.8929
G01 X0.2169 Y100.8486
G01 X0.2093 Y100.8288
G01 X0.2022 Y100.8089
G01 X0.1955 Y100.7888
G01 X0.1894 Y100.7685
G01 X0.1827 Y100.7443
G01 X0.1775 Y100.7233
G01 X0.1728 Y100.7023
G01 X0.1686 Y100.6811
G01 X0.1650 Y100.6598
G01 X0.1619 Y100.6385
G01 X0.1593 Y100.6170
G01 X0.1553 Y100.5773
G01 X0.1537 Y100.5541
G01 X0.1528 Y100.5310
G01 X0.1525 Y100.5078
G01 X0.1527 Y1.0742
G00 Z5.0000
G00 X0.4576 Y1.0756
G01 F100.00
G01 Z-0.4000
G01 F325.00
G01 X0.4586 Y1.0515
G01 X0.4611 Y1.0243
G01 X0.4649 Y0.9973
G01 X0.4731 Y0.9530
G01 X0.4798 Y0.9250
G01 X0.4879 Y0.8973
G01 X0.4974 Y0.8701
G01 X0.5093 Y0.8405
G01 X0.5212 Y0.8151
G01 X0.5343 Y0.7904
G01 X0.5526 Y0.7584
G01 X0.5667 Y0.7362
G01 X0.5818 Y0.7146
G01 X0.6012 Y0.6896
G01 X0.6202 Y0.6675
G01 X0.6404 Y0.6465
G01 X0.6508 Y0.6363
G01 X0.6829 Y0.6074
G01 X0.7042 Y0.5898
G01 X0.7264 Y0.5732
G01 X0.7527 Y0.5557
G01 X0.7774 Y0.5408
G01 X0.8029 Y0.5272
G01 X0.8291 Y0.5150
G01 X0.8644 Y0.5000
G01 X0.8901 Y0.4904
G01 X0.9163 Y0.4821
G01 X0.9468 Y0.4741
G01 X0.9742 Y0.4684
G01 X1.0018 Y0.4640
G01 X1.0472 Y0.4591
G01 X1.0772 Y0.4575
G01 X16.5100 Y0.4573
G01 X16.5282 Y0.4576
G01 X16.5543 Y0.4589
G01 X16.5803 Y0.4614
G01 X16.6061 Y0.4651
G01 X16.6351 Y0.4704
G01 X16.6633 Y0.4763
G01 X16.6911 Y0.4837
G01 X16.7185 Y0.4924
G01 X16.7358 Y0.4988
G01 X16.7617 Y0.5093
G01 X16.7871 Y0.5212
G01 X16.7995 Y0.5276
G01 X16.8438 Y0.5526
G01 X16.8660 Y0.5667
G01 X16.8876 Y0.5818
G01 X16.9126 Y0.6012
G01 X16.9237 Y0.6106
G01 X16.9347 Y0.6202
G01 X16.9557 Y0.6404
G01 X16.9659 Y0.6508
G01 X16.9948 Y0.6829
G01 X17.0037 Y0.6934
G01 X17.0209 Y0.7152
G01 X17.0369 Y0.7378
G01 X17.0465 Y0.7527
G01 X17.0614 Y0.7774
G01 X17.0684 Y0.7901
G01 X17.0813 Y0.8159
G01 X17.0872 Y0.8291
G01 X17.0970 Y0.8518
G01 X17.1072 Y0.8772
G01 X17.1161 Y0.9032
G01 X17.1201 Y0.9163
G01 X17.1247 Y0.9333
G01 X17.1311 Y0.9605
G01 X17.1338 Y0.9742
G01 X17.1382 Y1.0018
G01 X17.1431 Y1.0472
G01 X17.1447 Y1.0772
G01 X17.1449 Y1.0922
G01 X17.1449 Y6.4252
G01 X33.0200 Y6.4252
G01 X33.0474 Y6.4259
G01 X33.2342 Y6.4351
G01 X33.2616 Y6.4371
G01 X33.2888 Y6.4405
G01 X33.4738 Y6.4679
G01 X33.5008 Y6.4726
G01 X33.5276 Y6.4786
G01 X33.7090 Y6.5241
G01 X33.7355 Y6.5314
G01 X33.7615 Y6.5400
G01 X33.9376 Y6.6030
G01 X33.9632 Y6.6129
G01 X33.9883 Y6.6240
G01 X34.1574 Y6.7040
G01 X34.1819 Y6.7163
G01 X34.2057 Y6.7298
G01 X34.3662 Y6.8260
G01 X34.3893 Y6.8406
G01 X34.4118 Y6.8564
G01 X34.4884 Y6.9132
G01 X34.5620 Y6.9678
G01 X34.5836 Y6.9847
G01 X34.6044 Y7.0026
G01 X34.7530 Y7.1376
G01 X43.4908 Y15.8751
G01 X68.5943 Y15.8753
G01 X68.6243 Y15.8767
G01 X68.6503 Y15.8792
G01 X68.6761 Y15.8829
G01 X68.7097 Y15.8891
G01 X68.7367 Y15.8950
G01 X68.7633 Y15.9022
G01 X68.7895 Y15.9107
G01 X68.8063 Y15.9168
G01 X68.8321 Y15.9273
G01 X68.8573 Y15.9391
G01 X68.8819 Y15.9521
G01 X68.9138 Y15.9704
G01 X68.9360 Y15.9845
G01 X68.9576 Y15.9996
G01 X68.9826 Y16.0190
G01 X68.9937 Y16.0284
G01 X69.0153 Y16.0480
G01 X69.0359 Y16.0686
G01 X69.0648 Y16.1007
G01 X69.0737 Y16.1112
G01 X69.0909 Y16.1330
G01 X69.1069 Y16.1556
G01 X69.1165 Y16.1705
G01 X69.1314 Y16.1952
G01 X69.1450 Y16.2207
G01 X69.1572 Y16.2469
G01 X69.1722 Y16.2822
G01 X69.1818 Y16.3079
G01 X69.1901 Y16.3341
G01 X69.1981 Y16.3646
G01 X69.2011 Y16.3783
G01 X69.2062 Y16.4057
G01 X69.2099 Y16.4334
G01 X69.2131 Y16.4650
G01 X69.2141 Y16.4800
G01 X69.2149 Y16.5100
G01 X69.2149 Y31.7500
G01 X69.2146 Y31.7682
G01 X69.2133 Y31.7943
G01 X69.2122 Y31.8073
G01 X69.2091 Y31.8332
G01 X69.2048 Y31.8589
G01 X69.1991 Y31.8892
G01 X69.1924 Y31.9172
G01 X69.1885 Y31.9311
G01 X69.1798 Y31.9585
G01 X69.1734 Y31.9758
G01 X69.1629 Y32.0017
G01 X69.1510 Y32.0271
G01 X69.1379 Y32.0518
G01 X69.1196 Y32.0838
G01 X69.1127 Y32.0950
G01 X69.0981 Y32.1169
G01 X69.0825 Y32.1381
G01 X69.0710 Y32.1526
G01 X69.0616 Y32.1637
G01 X69.0420 Y32.1853
G01 X69.0318 Y32.1957
G01 X69.0106 Y32.2157
G01 X68.9893 Y32.2348
G01 X68.9680 Y32.2524
G01 X68.9458 Y32.2690
G01 X68.9228 Y32.2844
G01 X68.9072 Y32.2941
G01 X68.8821 Y32.3084
G01 X68.8693 Y32.3150
G01 X68.8431 Y32.3272
G01 X68.8204 Y32.3370
G01 X68.7950 Y32.3472
G01 X68.7821 Y32.3518
G01 X68.7559 Y32.3601
G01 X68.7389 Y32.3647
G01 X68.7117 Y32.3711
G01 X68.6980 Y32.3738
G01 X68.6704 Y32.3782
G01 X68.6399 Y32.3817
G01 X68.6100 Y32.3841
G01 X68.5800 Y32.3849
G01 X61.5220 Y32.3849
G01 X61.5220 Y43.6881
G01 X68.5800 Y43.6881
G01 X68.6113 Y43.6889
G01 X68.6373 Y43.6908
G01 X68.6503 Y43.6922
G01 X68.6632 Y43.6939
G01 X68.6889 Y43.6982
G01 X68.7232 Y43.7049
G01 X68.7367 Y43.7080
G01 X68.7500 Y43.7114
G01 X68.7765 Y43.7193
G01 X68.8063 Y43.7298
G01 X68.8321 Y43.7403
G01 X68.8447 Y43.7460
G01 X68.8697 Y43.7584
G01 X68.9138 Y43.7834
G01 X68.9360 Y43.7975
G01 X68.9469 Y43.8049
G01 X68.9712 Y43.8229
G01 X68.9937 Y43.8414
G01 X69.0153 Y43.8610
G01 X69.0257 Y43.8712
G01 X69.0359 Y43.8816
G01 X69.0648 Y43.9137
G01 X69.0824 Y43.9350
G01 X69.0990 Y43.9572
G01 X69.1069 Y43.9686
G01 X69.1165 Y43.9835
G01 X69.1314 Y44.0082
G01 X69.1450 Y44.0337
G01 X69.1513 Y44.0467
G01 X69.1722 Y44.0952
G01 X69.1772 Y44.1080
G01 X69.1861 Y44.1340
G01 X69.1937 Y44.1603
G01 X69.2011 Y44.1913
G01 X69.2038 Y44.2050
G01 X69.2082 Y44.2326
G01 X69.2131 Y44.2780
G01 X69.2141 Y44.2930
G01 X69.2149 Y44.3230
G01 X69.2149 Y59.5630
G01 X69.2146 Y59.5812
G01 X69.2133 Y59.6073
G01 X69.2108 Y59.6333
G01 X69.2091 Y59.6462
G01 X69.2018 Y59.6881
G01 X69.1959 Y59.7163
G01 X69.1885 Y59.7441
G01 X69.1798 Y59.7715
G01 X69.1683 Y59.8018
G01 X69.1571 Y59.8274
G01 X69.1510 Y59.8401
G01 X69.1379 Y59.8648
G01 X69.1262 Y59.8854
G01 X69.1127 Y59.9080
G01 X69.0981 Y59.9299
G01 X69.0801 Y59.9542
G01 X69.0616 Y59.9767
G01 X69.0420 Y59.9983
G01 X69.0214 Y60.0189
G01 X68.9893 Y60.0478
G01 X68.9680 Y60.0654
G01 X68.9458 Y60.0820
G01 X68.9195 Y60.0995
G01 X68.8948 Y60.1144
G01 X68.8693 Y60.1280
G01 X68.8431 Y60.1402
G01 X68.8078 Y60.1552
G01 X68.7821 Y60.1648
G01 X68.7690 Y60.1691
G01 X68.7389 Y60.1777
G01 X68.7117 Y60.1841
G01 X68.6843 Y60.1892
G01 X68.6566 Y60.1929
G01 X68.6250 Y60.1961
G01 X68.5950 Y60.1977
G01 X68.5041 Y60.1979
G01 X68.5041 Y62.8784
G01 X71.8686 Y66.2429
G01 X72.8883 Y66.2429
G01 X72.9150 Y66.2197
G01 X72.9366 Y66.2028
G01 X73.0278 Y66.1354
G01 X73.0391 Y66.1276
G01 X73.0623 Y66.1129
G01 X73.1478 Y66.0617
G01 X73.1716 Y66.0482
G01 X73.1838 Y66.0418
G01 X73.2987 Y65.9875
G01 X73.3241 Y65.9770
G01 X73.3369 Y65.9722
G01 X73.4308 Y65.9386
G01 X73.4569 Y65.9300
G01 X73.4833 Y65.9227
G01 X73.5800 Y65.8985
G01 X73.6068 Y65.8925
G01 X73.6338 Y65.8878
G01 X73.7324 Y65.8731
G01 X73.7596 Y65.8698
G01 X73.7870 Y65.8678
G01 X73.8866 Y65.8629
G01 X73.9140 Y65.8622
G01 X73.9414 Y65.8629
G01 X74.0410 Y65.8678
G01 X74.0684 Y65.8698
G01 X74.0956 Y65.8731
G01 X74.1942 Y65.8878
G01 X74.2212 Y65.8925
G01 X74.2346 Y65.8953
G01 X74.3447 Y65.9227
G01 X74.3711 Y65.9300
G01 X74.3972 Y65.9386
G01 X74.4911 Y65.9722
G01 X74.5166 Y65.9821
G01 X74.5417 Y65.9932
G01 X74.6319 Y66.0358
G01 X74.6564 Y66.0482
G01 X74.6802 Y66.0617
G01 X74.7657 Y66.1129
G01 X74.7889 Y66.1276
G01 X74.8113 Y66.1434
G01 X74.8914 Y66.2028
G01 X74.9130 Y66.2197
G01 X74.9338 Y66.2376
G01 X75.0077 Y66.3045
G01 X75.0276 Y66.3234
G01 X75.0465 Y66.3433
G01 X75.1134 Y66.4172
G01 X75.1313 Y66.4380
G01 X75.1482 Y66.4596
G01 X75.2076 Y66.5397
G01 X75.2234 Y66.5621
G01 X75.2381 Y66.5853
G01 X75.2893 Y66.6708
G01 X75.3028 Y66.6946
G01 X75.3092 Y66.7068
G01 X75.3635 Y66.8217
G01 X75.3740 Y66.8471
G01 X75.3788 Y66.8599
G01 X75.4124 Y66.9538
G01 X75.4210 Y66.9799
G01 X75.4248 Y66.9930
G01 X75.4525 Y67.1030
G01 X75.4585 Y67.1298
G01 X75.4632 Y67.1568
G01 X75.4779 Y67.2554
G01 X75.4812 Y67.2826
G01 X75.4832 Y67.3100
G01 X75.4881 Y67.4096
G01 X75.4888 Y67.4370
G01 X75.4881 Y67.4644
G01 X75.4832 Y67.5640
G01 X75.4812 Y67.5914
G01 X75.4779 Y67.6186
G01 X75.4632 Y67.7172
G01 X75.4585 Y67.7442
G01 X75.4525 Y67.7710
G01 X75.4283 Y67.8677
G01 X75.4210 Y67.8941
G01 X75.4124 Y67.9202
G01 X75.3788 Y68.0141
G01 X75.3689 Y68.0396
G01 X75.3578 Y68.0647
G01 X75.3152 Y68.1549
G01 X75.3028 Y68.1794
G01 X75.2893 Y68.2032
G01 X75.2309 Y68.3004
G01 X75.2156 Y68.3232
G01 X75.2076 Y68.3343
G01 X75.1482 Y68.4144
G01 X75.1313 Y68.4360
G01 X75.1134 Y68.4568
G01 X75.0465 Y68.5307
G01 X75.0276 Y68.5506
G01 X75.0077 Y68.5695
G01 X74.9338 Y68.6364
G01 X74.9130 Y68.6543
G01 X74.8914 Y68.6712
G01 X74.8113 Y68.7306
G01 X74.7889 Y68.7464
G01 X74.7657 Y68.7611
G01 X74.6802 Y68.8123
G01 X74.6564 Y68.8258
G01 X74.6319 Y68.8382
G01 X74.5417 Y68.8808
G01 X74.5166 Y68.8919
G01 X74.4911 Y68.9018
G01 X74.3972 Y68.9354
G01 X74.3711 Y68.9440
G01 X74.3447 Y68.9513
G01 X74.2480 Y68.9755
G01 X74.2212 Y68.9815
G01 X74.1942 Y68.9862
G01 X74.0956 Y69.0009
G01 X74.0684 Y69.0042
G01 X74.0410 Y69.0062
G01 X73.9414 Y69.0111
G01 X73.9140 Y69.0118
G01 X73.8866 Y69.0111
G01 X73.7870 Y69.0062
G01 X73.7596 Y69.0042
G01 X73.7324 Y69.0009
G01 X73.6338 Y68.9862
G01 X73.6068 Y68.9815
G01 X73.5800 Y68.9755
G01 X73.4833 Y68.9513
G01 X73.4569 Y68.9440
G01 X73.4308 Y68.9354
G01 X73.3369 Y68.9018
G01 X73.3241 Y68.8970
G01 X73.2987 Y68.8865
G01 X73.1838 Y68.8322
G01 X73.1716 Y68.8258
G01 X73.1478 Y68.8123
G01 X73.0623 Y68.7611
G01 X73.0506 Y68.7539
G01 X73.0278 Y68.7386
G01 X72.9366 Y68.6712
G01 X72.9150 Y68.6543
G01 X72.8883 Y68.6311
G01 X71.3740 Y68.6311
G01 X71.3466 Y68.6304
G01 X71.2843 Y68.6274
G01 X71.2706 Y68.6265
G01 X71.2433 Y68.6239
G01 X71.1681 Y68.6129
G01 X71.1410 Y68.6082
G01 X71.1143 Y68.6022
G01 X71.0538 Y68.5870
G01 X71.0274 Y68.5797
G01 X71.0013 Y68.5711
G01 X70.9298 Y68.5453
G01 X70.9044 Y68.5348
G01 X70.8356 Y68.5024
G01 X70.8111 Y68.4901
G01 X70.7872 Y68.4766
G01 X70.7221 Y68.4374
G01 X70.6993 Y68.4221
G01 X70.6381 Y68.3769
G01 X70.6165 Y68.3601
G01 X70.5957 Y68.3422
G01 X70.5495 Y68.3003
G01 X70.5296 Y68.2814
G01 X66.4656 Y64.2174
G01 X66.4467 Y64.1975
G01 X66.3958 Y64.1410
G01 X66.3784 Y64.1198
G01 X66.3701 Y64.1089
G01 X66.3329 Y64.0588
G01 X66.3171 Y64.0364
G01 X66.3025 Y64.0132
G01 X66.2704 Y63.9598
G01 X66.2569 Y63.9359
G01 X66.2446 Y63.9114
G01 X66.2179 Y63.8550
G01 X66.2068 Y63.8300
G01 X66.2017 Y63.8172
G01 X66.1714 Y63.7327
G01 X66.1635 Y63.7065
G01 X66.1600 Y63.6932
G01 X66.1448 Y63.6327
G01 X66.1388 Y63.6060
G01 X66.1341 Y63.5789
G01 X66.1250 Y63.5173
G01 X66.1216 Y63.4900
G01 X66.1205 Y63.4764
G01 X66.1166 Y63.4004
G01 X66.1159 Y63.3730
G01 X66.1159 Y60.1979
G01 X43.4892 Y60.1995
G01 X24.4758 Y79.2128
G01 X24.4560 Y79.2318
G01 X24.3174 Y79.3574
G01 X24.2966 Y79.3753
G01 X24.2750 Y79.3922
G01 X24.1248 Y79.5036
G01 X24.1023 Y79.5194
G01 X24.0792 Y79.5340
G01 X23.9187 Y79.6302
G01 X23.8949 Y79.6437
G01 X23.8704 Y79.6560
G01 X23.7013 Y79.7360
G01 X23.6762 Y79.7471
G01 X23.6506 Y79.7570
G01 X23.4745 Y79.8200
G01 X23.4485 Y79.8286
G01 X23.4220 Y79.8359
G01 X23.2406 Y79.8814
G01 X23.2138 Y79.8874
G01 X23.1868 Y79.8921
G01 X23.0018 Y79.9195
G01 X22.9746 Y79.9229
G01 X22.9609 Y79.9241
G01 X22.7604 Y79.9341
G01 X22.7330 Y79.9348
G01 X17.1449 Y79.9348
G01 X17.1447 Y100.5221
G01 X17.1433 Y100.5521
G01 X17.1408 Y100.5781
G01 X17.1371 Y100.6039
G01 X17.1309 Y100.6375
G01 X17.1250 Y100.6645
G01 X17.1178 Y100.6911
G01 X17.1093 Y100.7173
G01 X17.1032 Y100.7341
G01 X17.0927 Y100.7599
G01 X17.0809 Y100.7851
G01 X17.0679 Y100.8097
G01 X17.0496 Y100.8416
G01 X17.0355 Y100.8638
G01 X17.0204 Y100.8854
G01 X17.0010 Y100.9104
G01 X16.9916 Y100.9215
G01 X16.9720 Y100.9431
G01 X16.9514 Y100.9637
G01 X16.9193 Y100.9926
G01 X16.9088 Y101.0015
G01 X16.8870 Y101.0187
G01 X16.8644 Y101.0347
G01 X16.8495 Y101.0443
G01 X16.8248 Y101.0592
G01 X16.7993 Y101.0728
G01 X16.7731 Y101.0850
G01 X16.7378 Y101.1000
G01 X16.7121 Y101.1096
G01 X16.6859 Y101.1179
G01 X16.6554 Y101.1259
G01 X16.6280 Y101.1316
G01 X16.6143 Y101.1340
G01 X16.5866 Y101.1377
G01 X16.5550 Y101.1409
G01 X16.5250 Y101.1425
G01 X16.5100 Y101.1427
G01 X1.0922 Y101.1427
G01 X1.0740 Y101.1424
G01 X1.0479 Y101.1411
G01 X1.0219 Y101.1386
G01 X0.9961 Y101.1349
G01 X0.9530 Y101.1269
G01 X0.9389 Y101.1237
G01 X0.9111 Y101.1163
G01 X0.8837 Y101.1076
G01 X0.8664 Y101.1012
G01 X0.8405 Y101.0907
G01 X0.8151 Y101.0788
G01 X0.7904 Y101.0657
G01 X0.7584 Y101.0474
G01 X0.7362 Y101.0333
G01 X0.7146 Y101.0182
G01 X0.6896 Y100.9988
G01 X0.6785 Y100.9894
G01 X0.6569 Y100.9698
G01 X0.6363 Y100.9492
G01 X0.6074 Y100.9171
G01 X0.5985 Y100.9066
G01 X0.5813 Y100.8848
G01 X0.5653 Y100.8622
G01 X0.5557 Y100.8473
G01 X0.5408 Y100.8226
G01 X0.5272 Y100.7971
G01 X0.5150 Y100.7709
G01 X0.5000 Y100.7356
G01 X0.4904 Y100.7099
G01 X0.4821 Y100.6837
G01 X0.4741 Y100.6532
G01 X0.4711 Y100.6395
G01 X0.4660 Y100.6121
G01 X0.4623 Y100.5844
G01 X0.4591 Y100.5528
G01 X0.4581 Y100.5378
G01 X0.4573 Y100.5078
G01 X0.4573 Y1.0922
G01 X0.4576 Y1.0756
G00 Z5.0000
G00 X0.7622 Y1.0844
G01 F100.00
G01 Z-0.4000
G01 F325.00
G01 X0.7628 Y1.0716
G01 X0.7647 Y1.0531
G01 X0.7714 Y1.0157
G01 X0.7744 Y1.0029
G01 X0.7781 Y0.9904
G01 X0.7862 Y0.9684
G01 X0.7913 Y0.9567
G01 X0.7969 Y0.9453
G01 X0.8109 Y0.9205
G01 X0.8203 Y0.9053
G01 X0.8272 Y0.8955
G01 X0.8373 Y0.8824
G01 X0.8459 Y0.8724
G01 X0.8551 Y0.8628
G01 X0.8828 Y0.8375
G01 X0.8925 Y0.8295
G01 X0.9026 Y0.8219
G01 X0.9163 Y0.8128
G01 X0.9276 Y0.8061
G01 X0.9392 Y0.7999
G01 X0.9511 Y0.7943
G01 X0.9833 Y0.7808
G01 X1.0011 Y0.7749
G01 X1.0170 Y0.7707
G01 X1.0294 Y0.7681
G01 X1.0420 Y0.7661
G01 X1.0718 Y0.7629
G01 X1.0854 Y0.7622
G01 X16.5100 Y0.7621
G01 X16.5323 Y0.7629
G01 X16.5441 Y0.7640
G01 X16.5558 Y0.7657
G01 X16.5929 Y0.7729
G01 X16.6056 Y0.7762
G01 X16.6180 Y0.7802
G01 X16.6397 Y0.7886
G01 X16.6569 Y0.7969
G01 X16.6868 Y0.8139
G01 X16.6969 Y0.8203
G01 X16.7067 Y0.8272
G01 X16.7248 Y0.8415
G01 X16.7394 Y0.8551
G01 X16.7647 Y0.8828
G01 X16.7766 Y0.8975
G01 X16.7838 Y0.9078
G01 X16.7928 Y0.9219
G01 X16.8023 Y0.9392
G01 X16.8168 Y0.9717
G01 X16.8235 Y0.9892
G01 X16.8299 Y1.0109
G01 X16.8329 Y1.0232
G01 X16.8352 Y1.0357
G01 X16.8386 Y1.0650
G01 X16.8400 Y1.0854
G01 X16.8401 Y6.7300
G01 X33.0200 Y6.7300
G01 X33.0325 Y6.7304
G01 X33.2193 Y6.7395
G01 X33.2317 Y6.7404
G01 X33.2441 Y6.7420
G01 X33.4291 Y6.7694
G01 X33.4414 Y6.7716
G01 X33.4535 Y6.7743
G01 X33.6350 Y6.8197
G01 X33.6470 Y6.8231
G01 X33.6588 Y6.8270
G01 X33.8408 Y6.8921
G01 X33.8580 Y6.8995
G01 X33.9401 Y6.9384
G01 X34.0271 Y6.9795
G01 X34.0437 Y6.9881
G01 X34.2095 Y7.0874
G01 X34.2200 Y7.0941
G01 X34.2302 Y7.1012
G01 X34.3804 Y7.2127
G01 X34.3903 Y7.2203
G01 X34.3997 Y7.2285
G01 X34.5429 Y7.3583
G01 X43.3645 Y16.1799
G01 X68.5800 Y16.1799
G01 X68.5963 Y16.1803
G01 X68.6082 Y16.1812
G01 X68.6199 Y16.1826
G01 X68.6316 Y16.1845
G01 X68.6584 Y16.1897
G01 X68.6705 Y16.1927
G01 X68.6826 Y16.1963
G01 X68.6981 Y16.2017
G01 X68.7098 Y16.2065
G01 X68.7213 Y16.2119
G01 X68.7325 Y16.2178
G01 X68.7568 Y16.2317
G01 X68.7669 Y16.2381
G01 X68.7767 Y16.2450
G01 X68.7948 Y16.2593
G01 X68.8047 Y16.2682
G01 X68.8140 Y16.2776
G01 X68.8388 Y16.3054
G01 X68.8466 Y16.3153
G01 X68.8538 Y16.3256
G01 X68.8661 Y16.3454
G01 X68.8752 Y16.3629
G01 X68.8868 Y16.3895
G01 X68.8914 Y16.4011
G01 X68.8955 Y16.4129
G01 X68.8999 Y16.4287
G01 X68.9029 Y16.4410
G01 X68.9052 Y16.4535
G01 X68.9093 Y16.4896
G01 X68.9101 Y16.5100
G01 X68.9101 Y31.7500
G01 X68.9093 Y31.7723
G01 X68.9074 Y31.7899
G01 X68.9008 Y31.8265
G01 X68.8960 Y31.8456
G01 X68.8920 Y31.8580
G01 X68.8884 Y31.8679
G01 X68.8836 Y31.8797
G01 X68.8782 Y31.8912
G01 X68.8722 Y31.9025
G01 X68.8583 Y31.9268
G01 X68.8485 Y31.9419
G01 X68.8349 Y31.9598
G01 X68.8263 Y31.9698
G01 X68.8171 Y31.9794
G01 X68.7894 Y32.0047
G01 X68.7747 Y32.0166
G01 X68.7644 Y32.0238
G01 X68.7503 Y32.0328
G01 X68.7330 Y32.0423
G01 X68.7005 Y32.0568
G01 X68.6830 Y32.0635
G01 X68.6613 Y32.0699
G01 X68.6490 Y32.0729
G01 X68.6365 Y32.0752
G01 X68.6072 Y32.0786
G01 X68.5868 Y32.0800
G01 X61.2172 Y32.0801
G01 X61.2172 Y43.9929
G01 X68.5865 Y43.9930
G01 X68.6082 Y43.9942
G01 X68.6258 Y43.9965
G01 X68.6584 Y44.0027
G01 X68.6766 Y44.0074
G01 X68.6981 Y44.0147
G01 X68.7156 Y44.0221
G01 X68.7325 Y44.0308
G01 X68.7568 Y44.0447
G01 X68.7719 Y44.0545
G01 X68.7898 Y44.0681
G01 X68.8047 Y44.0812
G01 X68.8140 Y44.0906
G01 X68.8347 Y44.1136
G01 X68.8427 Y44.1233
G01 X68.8538 Y44.1386
G01 X68.8661 Y44.1584
G01 X68.8752 Y44.1759
G01 X68.8892 Y44.2083
G01 X68.8955 Y44.2259
G01 X68.8989 Y44.2379
G01 X68.9029 Y44.2540
G01 X68.9061 Y44.2728
G01 X68.9093 Y44.3026
G01 X68.9101 Y44.3230
G01 X68.9099 Y59.5734
G01 X68.9088 Y59.5912
G01 X68.9065 Y59.6088
G01 X68.9008 Y59.6395
G01 X68.8978 Y59.6523
G01 X68.8941 Y59.6648
G01 X68.8860 Y59.6868
G01 X68.8782 Y59.7042
G01 X68.8613 Y59.7347
G01 X68.8519 Y59.7499
G01 X68.8390 Y59.7676
G01 X68.8263 Y59.7828
G01 X68.8124 Y59.7970
G01 X68.7894 Y59.8177
G01 X68.7747 Y59.8296
G01 X68.7559 Y59.8424
G01 X68.7389 Y59.8523
G01 X68.7211 Y59.8609
G01 X68.6889 Y59.8744
G01 X68.6771 Y59.8785
G01 X68.6613 Y59.8829
G01 X68.6428 Y59.8871
G01 X68.6302 Y59.8891
G01 X68.6072 Y59.8916
G01 X68.5936 Y59.8927
G01 X68.5800 Y59.8931
G01 X68.1993 Y59.8931
G01 X68.1993 Y63.0046
G01 X71.7424 Y66.5477
G01 X73.0077 Y66.5477
G01 X73.0160 Y66.5390
G01 X73.0250 Y66.5304
G01 X73.0989 Y66.4634
G01 X73.1083 Y66.4553
G01 X73.1181 Y66.4476
G01 X73.1982 Y66.3882
G01 X73.2084 Y66.3810
G01 X73.2190 Y66.3744
G01 X73.3045 Y66.3231
G01 X73.3153 Y66.3170
G01 X73.3265 Y66.3114
G01 X73.4166 Y66.2687
G01 X73.4280 Y66.2637
G01 X73.4396 Y66.2592
G01 X73.5335 Y66.2256
G01 X73.5453 Y66.2217
G01 X73.5574 Y66.2184
G01 X73.6541 Y66.1941
G01 X73.6662 Y66.1914
G01 X73.6785 Y66.1893
G01 X73.7771 Y66.1746
G01 X73.7895 Y66.1731
G01 X73.8020 Y66.1722
G01 X73.9078 Y66.1671
G01 X73.9265 Y66.1673
G01 X74.0260 Y66.1722
G01 X74.0385 Y66.1731
G01 X74.0509 Y66.1746
G01 X74.1495 Y66.1893
G01 X74.1618 Y66.1914
G01 X74.1739 Y66.1941
G01 X74.2706 Y66.2184
G01 X74.2827 Y66.2217
G01 X74.2945 Y66.2256
G01 X74.3884 Y66.2592
G01 X74.4000 Y66.2637
G01 X74.4114 Y66.2687
G01 X74.5015 Y66.3114
G01 X74.5127 Y66.3170
G01 X74.5235 Y66.3231
G01 X74.6090 Y66.3744
G01 X74.6196 Y66.3810
G01 X74.6298 Y66.3882
G01 X74.7099 Y66.4476
G01 X74.7197 Y66.4553
G01 X74.7291 Y66.4634
G01 X74.8030 Y66.5304
G01 X74.8120 Y66.5390
G01 X74.8206 Y66.5480
G01 X74.8876 Y66.6219
G01 X74.8957 Y66.6313
G01 X74.9034 Y66.6411
G01 X74.9628 Y66.7212
G01 X74.9700 Y66.7314
G01 X74.9766 Y66.7420
G01 X75.0279 Y66.8275
G01 X75.0340 Y66.8383
G01 X75.0396 Y66.8495
G01 X75.0823 Y66.9396
G01 X75.0873 Y66.9510
G01 X75.0918 Y66.9626
G01 X75.1254 Y67.0565
G01 X75.1293 Y67.0683
G01 X75.1326 Y67.0804
G01 X75.1569 Y67.1771
G01 X75.1596 Y67.1892
G01 X75.1617 Y67.2015
G01 X75.1764 Y67.3001
G01 X75.1779 Y67.3125
G01 X75.1788 Y67.3250
G01 X75.1837 Y67.4245
G01 X75.1840 Y67.4370
G01 X75.1837 Y67.4495
G01 X75.1788 Y67.5490
G01 X75.1779 Y67.5615
G01 X75.1764 Y67.5739
G01 X75.1617 Y67.6725
G01 X75.1596 Y67.6848
G01 X75.1569 Y67.6969
G01 X75.1326 Y67.7936
G01 X75.1293 Y67.8057
G01 X75.1254 Y67.8175
G01 X75.0918 Y67.9114
G01 X75.0873 Y67.9230
G01 X75.0823 Y67.9344
G01 X75.0396 Y68.0245
G01 X75.0340 Y68.0357
G01 X75.0279 Y68.0465
G01 X74.9734 Y68.1373
G01 X74.9628 Y68.1528
G01 X74.9034 Y68.2329
G01 X74.8957 Y68.2427
G01 X74.8876 Y68.2521
G01 X74.8206 Y68.3260
G01 X74.8120 Y68.3350
G01 X74.8030 Y68.3436
G01 X74.7291 Y68.4106
G01 X74.7197 Y68.4187
G01 X74.7099 Y68.4264
G01 X74.6298 Y68.4858
G01 X74.6196 Y68.4930
G01 X74.6090 Y68.4996
G01 X74.5235 Y68.5509
G01 X74.5127 Y68.5570
G01 X74.5015 Y68.5626
G01 X74.4114 Y68.6053
G01 X74.4000 Y68.6103
G01 X74.3884 Y68.6148
G01 X74.2945 Y68.6484
G01 X74.2827 Y68.6523
G01 X74.2706 Y68.6556
G01 X74.1739 Y68.6799
G01 X74.1618 Y68.6826
G01 X74.1495 Y68.6847
G01 X74.0509 Y68.6994
G01 X74.0385 Y68.7009
G01 X74.0260 Y68.7018
G01 X73.9265 Y68.7067
G01 X73.9078 Y68.7069
G01 X73.8020 Y68.7018
G01 X73.7895 Y68.7009
G01 X73.7771 Y68.6994
G01 X73.6785 Y68.6847
G01 X73.6662 Y68.6826
G01 X73.6541 Y68.6799
G01 X73.5574 Y68.6556
G01 X73.5453 Y68.6523
G01 X73.5335 Y68.6484
G01 X73.4396 Y68.6148
G01 X73.4280 Y68.6103
G01 X73.4166 Y68.6053
G01 X73.3265 Y68.5626
G01 X73.3153 Y68.5570
G01 X73.3045 Y68.5509
G01 X73.2190 Y68.4996
G01 X73.2084 Y68.4930
G01 X73.1982 Y68.4858
G01 X73.1181 Y68.4264
G01 X73.1083 Y68.4187
G01 X73.0989 Y68.4106
G01 X73.0250 Y68.3436
G01 X73.0160 Y68.3350
G01 X73.0077 Y68.3263
G01 X71.3740 Y68.3263
G01 X71.3615 Y68.3260
G01 X71.2993 Y68.3230
G01 X71.2806 Y68.3213
G01 X71.2128 Y68.3114
G01 X71.2005 Y68.3092
G01 X71.1883 Y68.3065
G01 X71.1279 Y68.2913
G01 X71.1158 Y68.2880
G01 X71.1040 Y68.2841
G01 X71.0453 Y68.2631
G01 X71.0337 Y68.2586
G01 X71.0223 Y68.2536
G01 X70.9659 Y68.2269
G01 X70.9493 Y68.2183
G01 X70.8905 Y68.1831
G01 X70.8799 Y68.1764
G01 X70.8697 Y68.1693
G01 X70.8197 Y68.1321
G01 X70.8098 Y68.1245
G01 X70.8004 Y68.1163
G01 X70.7496 Y68.0702
G01 X66.6812 Y64.0018
G01 X66.6726 Y63.9928
G01 X66.6307 Y63.9466
G01 X66.6225 Y63.9372
G01 X66.6149 Y63.9273
G01 X66.5777 Y63.8773
G01 X66.5706 Y63.8671
G01 X66.5639 Y63.8565
G01 X66.5318 Y63.8031
G01 X66.5257 Y63.7922
G01 X66.5201 Y63.7811
G01 X66.4934 Y63.7247
G01 X66.4884 Y63.7133
G01 X66.4839 Y63.7017
G01 X66.4629 Y63.6430
G01 X66.4590 Y63.6312
G01 X66.4557 Y63.6191
G01 X66.4405 Y63.5587
G01 X66.4378 Y63.5465
G01 X66.4356 Y63.5342
G01 X66.4265 Y63.4725
G01 X66.4250 Y63.4602
G01 X66.4240 Y63.4477
G01 X66.4208 Y63.3792
G01 X66.4207 Y59.8931
G01 X43.3629 Y59.8947
G01 X24.2603 Y78.9973
G01 X24.2513 Y79.0059
G01 X24.1127 Y79.1315
G01 X24.1033 Y79.1397
G01 X24.0934 Y79.1473
G01 X23.9432 Y79.2588
G01 X23.9330 Y79.2659
G01 X23.9225 Y79.2726
G01 X23.7620 Y79.3688
G01 X23.7512 Y79.3749
G01 X23.7401 Y79.3805
G01 X23.5710 Y79.4605
G01 X23.5596 Y79.4655
G01 X23.5479 Y79.4700
G01 X23.3718 Y79.5330
G01 X23.3600 Y79.5369
G01 X23.3480 Y79.5403
G01 X23.1665 Y79.5857
G01 X23.1544 Y79.5884
G01 X23.1421 Y79.5906
G01 X22.9571 Y79.6180
G01 X22.9385 Y79.6201
G01 X22.7455 Y79.6296
G01 X22.7330 Y79.6300
G01 X16.8401 Y79.6300
G01 X16.8400 Y100.5143
G01 X16.8393 Y100.5301
G01 X16.8382 Y100.5419
G01 X16.8365 Y100.5536
G01 X16.8315 Y100.5800
G01 X16.8289 Y100.5923
G01 X16.8256 Y100.6044
G01 X16.8183 Y100.6259
G01 X16.8135 Y100.6376
G01 X16.8081 Y100.6491
G01 X16.8022 Y100.6603
G01 X16.7883 Y100.6846
G01 X16.7819 Y100.6947
G01 X16.7750 Y100.7045
G01 X16.7607 Y100.7226
G01 X16.7518 Y100.7325
G01 X16.7424 Y100.7418
G01 X16.7146 Y100.7666
G01 X16.7047 Y100.7744
G01 X16.6944 Y100.7816
G01 X16.6746 Y100.7939
G01 X16.6571 Y100.8030
G01 X16.6305 Y100.8146
G01 X16.6189 Y100.8192
G01 X16.6071 Y100.8233
G01 X16.5913 Y100.8277
G01 X16.5790 Y100.8307
G01 X16.5665 Y100.8330
G01 X16.5304 Y100.8371
G01 X16.5100 Y100.8379
G01 X1.0857 Y100.8378
G01 X1.0699 Y100.8371
G01 X1.0581 Y100.8360
G01 X1.0464 Y100.8343
G01 X1.0221 Y100.8298
G01 X1.0093 Y100.8271
G01 X0.9966 Y100.8238
G01 X0.9842 Y100.8198
G01 X0.9743 Y100.8162
G01 X0.9625 Y100.8114
G01 X0.9510 Y100.8060
G01 X0.9397 Y100.8000
G01 X0.9154 Y100.7861
G01 X0.9053 Y100.7797
G01 X0.8955 Y100.7728
G01 X0.8774 Y100.7585
G01 X0.8675 Y100.7496
G01 X0.8582 Y100.7402
G01 X0.8334 Y100.7124
G01 X0.8256 Y100.7025
G01 X0.8184 Y100.6922
G01 X0.8061 Y100.6724
G01 X0.7970 Y100.6549
G01 X0.7854 Y100.6283
G01 X0.7808 Y100.6167
G01 X0.7767 Y100.6049
G01 X0.7723 Y100.5891
G01 X0.7693 Y100.5768
G01 X0.7670 Y100.5643
G01 X0.7629 Y100.5282
G01 X0.7621 Y100.5078
G01 X0.7622 Y1.0844
G00 Z5.0000
G00 X16.8401 Y11.0500
G01 F100.00
G01 Z-0.4000
G01 F325.00
G01 X32.1253 Y11.0500
G01 X40.3084 Y19.2330
G01 X40.3097 Y20.7000
G01 X16.8401 Y20.7000
G01 X16.8401 Y11.0500
G00 Z5.0000
G00 X17.1449 Y11.3548
G01 F100.00
G01 Z-0.4000
G01 F325.00
G01 X31.9991 Y11.3548
G01 X40.0037 Y19.3594
G01 X40.0046 Y20.3952
G01 X17.1449 Y20.3952
G01 X17.1449 Y11.3548
G00 Z5.0000
G00 X17.4497 Y11.6596
G01 F100.00
G01 Z-0.4000
G01 F325.00
G01 X31.8728 Y11.6596
G01 X39.6990 Y19.4857
G01 X39.6995 Y20.0904
G01 X17.4497 Y20.0904
G01 X17.4497 Y11.6596
G00 Z5.0000
G00 X17.4497 Y27.7104
G01 F100.00
G01 Z-0.4000
G01 F325.00
G01 X17.4497 Y25.6296
G01 X39.7003 Y25.6296
G01 X39.7003 Y27.7104
G01 X17.4497 Y27.7104
G00 Z5.0000
G00 X17.1449 Y28.0152
G01 F100.00
G01 Z-0.4000
G01 F325.00
G01 X17.1449 Y25.3248
G01 X40.0051 Y25.3248
G01 X40.0051 Y28.0152
G01 X17.1449 Y28.0152
G00 Z5.0000
G00 X16.8401 Y28.3200
G01 F100.00
G01 Z-0.4000
G01 F325.00
G01 X16.8401 Y25.0200
G01 X40.3099 Y25.0200
G01 X40.3099 Y28.3200
G01 X16.8401 Y28.3200
G00 Z5.0000
G00 X17.4497 Y42.8234
G01 F100.00
G01 Z-0.4000
G01 F325.00
G01 X17.4497 Y33.2496
G01 X41.9100 Y33.2496
G01 X41.9312 Y33.2493
G01 X42.1392 Y33.2393
G01 X42.1603 Y33.2380
G01 X42.1815 Y33.2362
G01 X42.2025 Y33.2339
G01 X42.2235 Y33.2310
G01 X42.4085 Y33.2036
G01 X42.4295 Y33.2002
G01 X42.4503 Y33.1963
G01 X42.4710 Y33.1919
G01 X42.4917 Y33.1870
G01 X42.6731 Y33.1416
G01 X42.6936 Y33.1362
G01 X42.7140 Y33.1303
G01 X42.7342 Y33.1239
G01 X42.9303 Y33.0540
G01 X42.9502 Y33.0466
G01 X42.9699 Y33.0387
G01 X42.9893 Y33.0304
G01 X43.0086 Y33.0216
G01 X43.1967 Y32.9323
G01 X43.2156 Y32.9225
G01 X43.2341 Y32.9123
G01 X43.2524 Y32.9016
G01 X43.4309 Y32.7944
G01 X43.4487 Y32.7828
G01 X43.4662 Y32.7708
G01 X43.5739 Y32.6912
G01 X47.3932 Y32.6900
G01 X47.3932 Y43.3833
G01 X43.5760 Y43.3833
G01 X43.4662 Y43.3022
G01 X43.4487 Y43.2902
G01 X43.4309 Y43.2786
G01 X43.2524 Y43.1714
G01 X43.2341 Y43.1607
G01 X43.2156 Y43.1505
G01 X43.1967 Y43.1407
G01 X43.0086 Y43.0514
G01 X42.9893 Y43.0426
G01 X42.9699 Y43.0343
G01 X42.9502 Y43.0264
G01 X42.9303 Y43.0190
G01 X42.7342 Y42.9491
G01 X42.7140 Y42.9427
G01 X42.6936 Y42.9368
G01 X42.6731 Y42.9314
G01 X42.4917 Y42.8860
G01 X42.4710 Y42.8811
G01 X42.4503 Y42.8767
G01 X42.4295 Y42.8728
G01 X42.4085 Y42.8694
G01 X42.2235 Y42.8420
G01 X42.2025 Y42.8391
G01 X42.1815 Y42.8368
G01 X42.1603 Y42.8350
G01 X42.1392 Y42.8337
G01 X41.9312 Y42.8237
G01 X41.9100 Y42.8234
G01 X17.4497 Y42.8234
G00 Z5.0000
G00 X17.1449 Y43.1282
G01 F100.00
G01 Z-0.4000
G01 F325.00
G01 X17.1449 Y32.9448
G01 X41.9237 Y32.9446
G01 X42.1242 Y32.9349
G01 X42.1516 Y32.9329
G01 X42.1788 Y32.9295
G01 X42.3638 Y32.9021
G01 X42.3908 Y32.8974
G01 X42.4176 Y32.8914
G01 X42.5990 Y32.8459
G01 X42.6255 Y32.8386
G01 X42.6515 Y32.8300
G01 X42.8276 Y32.7670
G01 X42.8532 Y32.7571
G01 X42.8783 Y32.7460
G01 X43.0474 Y32.6660
G01 X43.0719 Y32.6537
G01 X43.0957 Y32.6402
G01 X43.2562 Y32.5440
G01 X43.2793 Y32.5294
G01 X43.3018 Y32.5136
G01 X43.4520 Y32.4022
G01 X43.4722 Y32.3864
G01 X47.6980 Y32.3851
G01 X47.6980 Y43.6881
G01 X43.4741 Y43.6881
G01 X43.4520 Y43.6708
G01 X43.3018 Y43.5594
G01 X43.2793 Y43.5436
G01 X43.2562 Y43.5290
G01 X43.0957 Y43.4328
G01 X43.0719 Y43.4193
G01 X43.0474 Y43.4070
G01 X42.8783 Y43.3270
G01 X42.8532 Y43.3159
G01 X42.8276 Y43.3060
G01 X42.6515 Y43.2430
G01 X42.6255 Y43.2344
G01 X42.5990 Y43.2271
G01 X42.4176 Y43.1816
G01 X42.3908 Y43.1756
G01 X42.3638 Y43.1709
G01 X42.1788 Y43.1435
G01 X42.1516 Y43.1401
G01 X42.1242 Y43.1381
G01 X41.9237 Y43.1284
G01 X17.1449 Y43.1282
G00 Z5.0000
G00 X16.8401 Y43.4330
G01 F100.00
G01 Z-0.4000
G01 F325.00
G01 X16.8401 Y32.6400
G01 X41.9162 Y32.6399
G01 X42.1093 Y32.6305
G01 X42.1217 Y32.6296
G01 X42.1341 Y32.6280
G01 X42.3191 Y32.6006
G01 X42.3314 Y32.5984
G01 X42.3435 Y32.5957
G01 X42.5250 Y32.5503
G01 X42.5370 Y32.5469
G01 X42.5488 Y32.5430
G01 X42.7308 Y32.4779
G01 X42.7480 Y32.4705
G01 X42.9171 Y32.3905
G01 X42.9282 Y32.3849
G01 X42.9390 Y32.3788
G01 X43.1048 Y32.2793
G01 X43.1202 Y32.2688
G01 X43.2754 Y32.1536
G01 X43.2897 Y32.1415
G01 X43.3557 Y32.0817
G01 X48.0028 Y32.0802
G01 X48.0028 Y43.9929
G01 X43.3575 Y43.9929
G01 X43.2897 Y43.9315
G01 X43.2754 Y43.9194
G01 X43.1202 Y43.8042
G01 X43.1048 Y43.7937
G01 X42.9390 Y43.6942
G01 X42.9282 Y43.6881
G01 X42.9171 Y43.6825
G01 X42.7480 Y43.6025
G01 X42.7308 Y43.5951
G01 X42.5488 Y43.5300
G01 X42.5370 Y43.5261
G01 X42.5250 Y43.5227
G01 X42.3435 Y43.4773
G01 X42.3314 Y43.4746
G01 X42.3191 Y43.4724
G01 X42.1341 Y43.4450
G01 X42.1217 Y43.4434
G01 X42.1093 Y43.4425
G01 X41.9162 Y43.4331
G01 X16.8401 Y43.4330
G00 Z5.0000
G00 X17.4497 Y50.4434
G01 F100.00
G01 Z-0.4000
G01 F325.00
G01 X17.4497 Y48.3626
G01 X39.7003 Y48.3626
G01 X39.7003 Y50.4434
G01 X17.4497 Y50.4434
G00 Z5.0000
G00 X17.1449 Y50.7482
G01 F100.00
G01 Z-0.4000
G01 F325.00
G01 X17.1449 Y48.0578
G01 X40.0051 Y48.0578
G01 X40.0051 Y50.7482
G01 X17.1449 Y50.7482
G00 Z5.0000
G00 X16.8401 Y51.0530
G01 F100.00
G01 Z-0.4000
G01 F325.00
G01 X16.8401 Y47.7530
G01 X40.3099 Y47.7530
G01 X40.3099 Y51.0530
G01 X16.8401 Y51.0530
G00 Z5.0000
G00 X17.4497 Y74.7004
G01 F100.00
G01 Z-0.4000
G01 F325.00
G01 X17.4497 Y55.9826
G01 X39.7003 Y55.9826
G01 X39.7003 Y56.5860
G01 X21.5858 Y74.7004
G01 X17.4497 Y74.7004
G00 Z5.0000
G00 X17.1449 Y75.0052
G01 F100.00
G01 Z-0.4000
G01 F325.00
G01 X17.1449 Y55.6778
G01 X40.0051 Y55.6778
G01 X40.0051 Y56.7122
G01 X21.7121 Y75.0052
G01 X17.1449 Y75.0052
G00 Z5.0000
G00 X16.8401 Y75.3100
G01 F100.00
G01 Z-0.4000
G01 F325.00
G01 X16.8401 Y55.3730
G01 X40.3099 Y55.3730
G01 X40.3099 Y56.8385
G01 X21.8383 Y75.3100
G01 X16.8401 Y75.3100
G00 Z5.0000
G00 X49.6059 Y77.2257
G01 F100.00
G01 Z-0.4000
G01 F325.00
G01 X49.5915 Y77.2095
G01 X49.5741 Y77.1883
G01 X49.4984 Y77.0862
G01 X49.4831 Y77.0634
G01 X49.4759 Y77.0517
G01 X49.4178 Y76.9544
G01 X49.4048 Y76.9302
G01 X49.3988 Y76.9179
G01 X49.3562 Y76.8277
G01 X49.3451 Y76.8026
G01 X49.3352 Y76.7771
G01 X49.2972 Y76.6702
G01 X49.2930 Y76.6571
G01 X49.2857 Y76.6307
G01 X49.2615 Y76.5340
G01 X49.2555 Y76.5072
G01 X49.2508 Y76.4802
G01 X49.2361 Y76.3816
G01 X49.2328 Y76.3544
G01 X49.2308 Y76.3270
G01 X49.2259 Y76.2274
G01 X49.2252 Y76.2000
G01 X49.2259 Y76.1726
G01 X49.2316 Y76.0593
G01 X49.2343 Y76.0320
G01 X49.2361 Y76.0184
G01 X49.2508 Y75.9198
G01 X49.2555 Y75.8928
G01 X49.2615 Y75.8660
G01 X49.2857 Y75.7693
G01 X49.2930 Y75.7429
G01 X49.3016 Y75.7168
G01 X49.3352 Y75.6229
G01 X49.3451 Y75.5974
G01 X49.3562 Y75.5723
G01 X49.3988 Y75.4821
G01 X49.4112 Y75.4576
G01 X49.4247 Y75.4338
G01 X49.4759 Y75.3483
G01 X49.4906 Y75.3251
G01 X49.5064 Y75.3027
G01 X49.5658 Y75.2226
G01 X49.5827 Y75.2010
G01 X49.6006 Y75.1802
G01 X49.6675 Y75.1063
G01 X49.6864 Y75.0864
G01 X49.7063 Y75.0675
G01 X49.7905 Y74.9915
G01 X49.8117 Y74.9741
G01 X49.8226 Y74.9658
G01 X49.9027 Y74.9064
G01 X49.9251 Y74.8906
G01 X49.9483 Y74.8759
G01 X50.0338 Y74.8247
G01 X50.0576 Y74.8112
G01 X50.0821 Y74.7988
G01 X50.1723 Y74.7562
G01 X50.1974 Y74.7451
G01 X50.2229 Y74.7352
G01 X50.3168 Y74.7016
G01 X50.3429 Y74.6930
G01 X50.3693 Y74.6857
G01 X50.4660 Y74.6615
G01 X50.4928 Y74.6555
G01 X50.5198 Y74.6508
G01 X50.6184 Y74.6361
G01 X50.6456 Y74.6328
G01 X50.6730 Y74.6308
G01 X50.7726 Y74.6259
G01 X50.8000 Y74.6252
G01 X50.8274 Y74.6259
G01 X50.9270 Y74.6308
G01 X50.9544 Y74.6328
G01 X50.9816 Y74.6361
G01 X51.0802 Y74.6508
G01 X51.1072 Y74.6555
G01 X51.1340 Y74.6615
G01 X51.2307 Y74.6857
G01 X51.2571 Y74.6930
G01 X51.2832 Y74.7016
G01 X51.3771 Y74.7352
G01 X51.4026 Y74.7451
G01 X51.4277 Y74.7562
G01 X51.5179 Y74.7988
G01 X51.5424 Y74.8112
G01 X51.5662 Y74.8247
G01 X51.6517 Y74.8759
G01 X51.6749 Y74.8906
G01 X51.6973 Y74.9064
G01 X51.7774 Y74.9658
G01 X51.7990 Y74.9827
G01 X51.8198 Y75.0006
G01 X51.8937 Y75.0675
G01 X51.9136 Y75.0864
G01 X51.9325 Y75.1063
G01 X52.0085 Y75.1905
G01 X52.0173 Y75.2010
G01 X52.0342 Y75.2226
G01 X52.0936 Y75.3027
G01 X52.1094 Y75.3251
G01 X52.1241 Y75.3483
G01 X52.1822 Y75.4456
G01 X52.1952 Y75.4698
G01 X52.2012 Y75.4821
G01 X52.2438 Y75.5723
G01 X52.2549 Y75.5974
G01 X52.2648 Y75.6229
G01 X52.2984 Y75.7168
G01 X52.3070 Y75.7429
G01 X52.3143 Y75.7693
G01 X52.3417 Y75.8794
G01 X52.3445 Y75.8928
G01 X52.3492 Y75.9198
G01 X52.3639 Y76.0184
G01 X52.3672 Y76.0456
G01 X52.3684 Y76.0593
G01 X52.3746 Y76.1863
G01 X52.3746 Y76.2137
G01 X52.3741 Y76.2274
G01 X52.3692 Y76.3270
G01 X52.3672 Y76.3544
G01 X52.3639 Y76.3816
G01 X52.3492 Y76.4802
G01 X52.3445 Y76.5072
G01 X52.3385 Y76.5340
G01 X52.3143 Y76.6307
G01 X52.3070 Y76.6571
G01 X52.2984 Y76.6832
G01 X52.2600 Y76.7899
G01 X52.2495 Y76.8153
G01 X52.2438 Y76.8277
G01 X52.2012 Y76.9179
G01 X52.1888 Y76.9424
G01 X52.1753 Y76.9662
G01 X52.1241 Y77.0517
G01 X52.1169 Y77.0634
G01 X52.1016 Y77.0862
G01 X52.0342 Y77.1774
G01 X52.0173 Y77.1990
G01 X51.9941 Y77.2257
G01 X51.9941 Y79.2365
G01 X52.0043 Y79.2527
G01 X52.0112 Y79.2646
G01 X52.0178 Y79.2766
G01 X52.0301 Y79.3011
G01 X52.0359 Y79.3136
G01 X52.0464 Y79.3389
G01 X52.0556 Y79.3647
G01 X52.0636 Y79.3910
G01 X52.0671 Y79.4042
G01 X52.0702 Y79.4176
G01 X52.0756 Y79.4445
G01 X52.0796 Y79.4716
G01 X52.0811 Y79.4852
G01 X52.0831 Y79.5126
G01 X52.0838 Y79.5400
G01 X52.0838 Y81.2400
G01 X52.0831 Y81.2674
G01 X52.0811 Y81.2948
G01 X52.0778 Y81.3220
G01 X52.0756 Y81.3355
G01 X52.0702 Y81.3624
G01 X52.0671 Y81.3758
G01 X52.0597 Y81.4022
G01 X52.0556 Y81.4153
G01 X52.0464 Y81.4411
G01 X52.0413 Y81.4538
G01 X52.0359 Y81.4664
G01 X52.0241 Y81.4912
G01 X52.0112 Y81.5154
G01 X52.0043 Y81.5273
G01 X51.9896 Y81.5505
G01 X51.9738 Y81.5729
G01 X51.9655 Y81.5838
G01 X51.9570 Y81.5945
G01 X51.9390 Y81.6153
G01 X51.9201 Y81.6351
G01 X51.9103 Y81.6447
G01 X51.8900 Y81.6631
G01 X51.8688 Y81.6805
G01 X51.8468 Y81.6969
G01 X51.8355 Y81.7046
G01 X51.8123 Y81.7193
G01 X51.8004 Y81.7262
G01 X51.7884 Y81.7328
G01 X51.7639 Y81.7451
G01 X51.7388 Y81.7563
G01 X51.7133 Y81.7661
G01 X51.6872 Y81.7747
G01 X51.6608 Y81.7821
G01 X51.6474 Y81.7852
G01 X51.6205 Y81.7906
G01 X51.5934 Y81.7946
G01 X51.5661 Y81.7973
G01 X51.5387 Y81.7986
G01 X50.0750 Y81.7988
G01 X50.0476 Y81.7981
G01 X50.0202 Y81.7961
G01 X50.0066 Y81.7946
G01 X49.9795 Y81.7906
G01 X49.9660 Y81.7881
G01 X49.9526 Y81.7852
G01 X49.9260 Y81.7786
G01 X49.8997 Y81.7706
G01 X49.8739 Y81.7614
G01 X49.8612 Y81.7563
G01 X49.8361 Y81.7451
G01 X49.8238 Y81.7391
G01 X49.7996 Y81.7262
G01 X49.7760 Y81.7121
G01 X49.7645 Y81.7046
G01 X49.7421 Y81.6888
G01 X49.7205 Y81.6720
G01 X49.7100 Y81.6631
G01 X49.6897 Y81.6447
G01 X49.6703 Y81.6253
G01 X49.6610 Y81.6153
G01 X49.6430 Y81.5945
G01 X49.6345 Y81.5838
G01 X49.6181 Y81.5618
G01 X49.6029 Y81.5390
G01 X49.5957 Y81.5273
G01 X49.5822 Y81.5034
G01 X49.5699 Y81.4789
G01 X49.5587 Y81.4538
G01 X49.5489 Y81.4283
G01 X49.5403 Y81.4022
G01 X49.5329 Y81.3758
G01 X49.5269 Y81.3490
G01 X49.5222 Y81.3220
G01 X49.5189 Y81.2948
G01 X49.5177 Y81.2811
G01 X49.5164 Y81.2537
G01 X49.5162 Y79.5400
G01 X49.5164 Y79.5263
G01 X49.5177 Y79.4989
G01 X49.5204 Y79.4716
G01 X49.5222 Y79.4580
G01 X49.5244 Y79.4445
G01 X49.5298 Y79.4176
G01 X49.5329 Y79.4042
G01 X49.5403 Y79.3778
G01 X49.5489 Y79.3517
G01 X49.5536 Y79.3389
G01 X49.5641 Y79.3136
G01 X49.5699 Y79.3011
G01 X49.5822 Y79.2766
G01 X49.5888 Y79.2646
G01 X49.5957 Y79.2527
G01 X49.6059 Y79.2365
G01 X49.6059 Y77.2257
G00 Z5.0000
G00 X49.9107 Y77.1063
G01 F100.00
G01 Z-0.4000
G01 F325.00
G01 X49.9020 Y77.0980
G01 X49.8934 Y77.0890
G01 X49.8264 Y77.0151
G01 X49.8183 Y77.0057
G01 X49.8106 Y76.9959
G01 X49.7512 Y76.9158
G01 X49.7440 Y76.9056
G01 X49.7374 Y76.8950
G01 X49.6861 Y76.8095
G01 X49.6800 Y76.7987
G01 X49.6744 Y76.7875
G01 X49.6317 Y76.6974
G01 X49.6267 Y76.6860
G01 X49.6222 Y76.6744
G01 X49.5886 Y76.5805
G01 X49.5847 Y76.5687
G01 X49.5814 Y76.5566
G01 X49.5571 Y76.4599
G01 X49.5544 Y76.4478
G01 X49.5523 Y76.4355
G01 X49.5376 Y76.3369
G01 X49.5361 Y76.3245
G01 X49.5352 Y76.3120
G01 X49.5303 Y76.2125
G01 X49.5300 Y76.2000
G01 X49.5303 Y76.1875
G01 X49.5352 Y76.0880
G01 X49.5361 Y76.0755
G01 X49.5376 Y76.0631
G01 X49.5523 Y75.9645
G01 X49.5544 Y75.9522
G01 X49.5571 Y75.9401
G01 X49.5814 Y75.8434
G01 X49.5847 Y75.8313
G01 X49.5886 Y75.8195
G01 X49.6222 Y75.7256
G01 X49.6267 Y75.7140
G01 X49.6317 Y75.7026
G01 X49.6744 Y75.6125
G01 X49.6800 Y75.6013
G01 X49.6861 Y75.5905
G01 X49.7374 Y75.5050
G01 X49.7440 Y75.4944
G01 X49.7512 Y75.4842
G01 X49.8106 Y75.4041
G01 X49.8183 Y75.3943
G01 X49.8264 Y75.3849
G01 X49.8934 Y75.3110
G01 X49.9020 Y75.3020
G01 X49.9110 Y75.2934
G01 X49.9849 Y75.2264
G01 X49.9943 Y75.2183
G01 X50.0041 Y75.2106
G01 X50.0842 Y75.1512
G01 X50.0944 Y75.1440
G01 X50.1050 Y75.1374
G01 X50.1905 Y75.0861
G01 X50.2013 Y75.0800
G01 X50.2125 Y75.0744
G01 X50.3026 Y75.0317
G01 X50.3140 Y75.0267
G01 X50.3256 Y75.0222
G01 X50.4195 Y74.9886
G01 X50.4313 Y74.9847
G01 X50.4434 Y74.9814
G01 X50.5401 Y74.9571
G01 X50.5522 Y74.9544
G01 X50.5645 Y74.9523
G01 X50.6631 Y74.9376
G01 X50.6755 Y74.9361
G01 X50.6880 Y74.9352
G01 X50.7875 Y74.9303
G01 X50.8000 Y74.9300
G01 X50.8125 Y74.9303
G01 X50.9120 Y74.9352
G01 X50.9245 Y74.9361
G01 X50.9369 Y74.9376
G01 X51.0355 Y74.9523
G01 X51.0478 Y74.9544
G01 X51.0599 Y74.9571
G01 X51.1566 Y74.9814
G01 X51.1687 Y74.9847
G01 X51.1805 Y74.9886
G01 X51.2744 Y75.0222
G01 X51.2860 Y75.0267
G01 X51.2974 Y75.0317
G01 X51.3875 Y75.0744
G01 X51.3987 Y75.0800
G01 X51.4095 Y75.0861
G01 X51.4950 Y75.1374
G01 X51.5056 Y75.1440
G01 X51.5158 Y75.1512
G01 X51.5959 Y75.2106
G01 X51.6057 Y75.2183
G01 X51.6151 Y75.2264
G01 X51.6890 Y75.2934
G01 X51.6980 Y75.3020
G01 X51.7066 Y75.3110
G01 X51.7736 Y75.3849
G01 X51.7817 Y75.3943
G01 X51.7894 Y75.4041
G01 X51.8488 Y75.4842
G01 X51.8560 Y75.4944
G01 X51.8626 Y75.5050
G01 X51.9139 Y75.5905
G01 X51.9200 Y75.6013
G01 X51.9256 Y75.6125
G01 X51.9683 Y75.7026
G01 X51.9733 Y75.7140
G01 X51.9778 Y75.7256
G01 X52.0114 Y75.8195
G01 X52.0153 Y75.8313
G01 X52.0186 Y75.8434
G01 X52.0429 Y75.9401
G01 X52.0456 Y75.9522
G01 X52.0477 Y75.9645
G01 X52.0624 Y76.0631
G01 X52.0639 Y76.0755
G01 X52.0648 Y76.0880
G01 X52.0697 Y76.1875
G01 X52.0699 Y76.2062
G01 X52.0648 Y76.3120
G01 X52.0639 Y76.3245
G01 X52.0624 Y76.3369
G01 X52.0477 Y76.4355
G01 X52.0456 Y76.4478
G01 X52.0429 Y76.4599
G01 X52.0186 Y76.5566
G01 X52.0153 Y76.5687
G01 X52.0114 Y76.5805
G01 X51.9778 Y76.6744
G01 X51.9733 Y76.6860
G01 X51.9683 Y76.6974
G01 X51.9256 Y76.7875
G01 X51.9200 Y76.7987
G01 X51.9139 Y76.8095
G01 X51.8626 Y76.8950
G01 X51.8560 Y76.9056
G01 X51.8488 Y76.9158
G01 X51.7894 Y76.9959
G01 X51.7817 Y77.0057
G01 X51.7736 Y77.0151
G01 X51.7066 Y77.0890
G01 X51.6980 Y77.0980
G01 X51.6893 Y77.1063
G01 X51.6893 Y79.3463
G01 X51.7001 Y79.3560
G01 X51.7090 Y79.3649
G01 X51.7173 Y79.3741
G01 X51.7252 Y79.3837
G01 X51.7327 Y79.3937
G01 X51.7396 Y79.4041
G01 X51.7460 Y79.4148
G01 X51.7519 Y79.4258
G01 X51.7572 Y79.4371
G01 X51.7620 Y79.4486
G01 X51.7662 Y79.4603
G01 X51.7698 Y79.4723
G01 X51.7728 Y79.4843
G01 X51.7763 Y79.5027
G01 X51.7778 Y79.5151
G01 X51.7787 Y79.5275
G01 X51.7790 Y79.5400
G01 X51.7789 Y81.2462
G01 X51.7778 Y81.2649
G01 X51.7753 Y81.2834
G01 X51.7714 Y81.3017
G01 X51.7662 Y81.3197
G01 X51.7597 Y81.3372
G01 X51.7519 Y81.3542
G01 X51.7429 Y81.3706
G01 X51.7327 Y81.3863
G01 X51.7213 Y81.4011
G01 X51.7090 Y81.4151
G01 X51.6956 Y81.4282
G01 X51.6813 Y81.4402
G01 X51.6661 Y81.4512
G01 X51.6502 Y81.4610
G01 X51.6336 Y81.4696
G01 X51.6164 Y81.4770
G01 X51.6047 Y81.4812
G01 X51.5927 Y81.4848
G01 X51.5807 Y81.4878
G01 X51.5684 Y81.4903
G01 X51.5499 Y81.4928
G01 X51.5375 Y81.4937
G01 X51.5250 Y81.4940
G01 X50.0750 Y81.4940
G01 X50.0563 Y81.4933
G01 X50.0377 Y81.4913
G01 X50.0193 Y81.4878
G01 X50.0013 Y81.4831
G01 X49.9836 Y81.4770
G01 X49.9664 Y81.4696
G01 X49.9498 Y81.4610
G01 X49.9391 Y81.4546
G01 X49.9237 Y81.4440
G01 X49.9091 Y81.4323
G01 X49.8954 Y81.4196
G01 X49.8827 Y81.4059
G01 X49.8710 Y81.3913
G01 X49.8604 Y81.3759
G01 X49.8510 Y81.3597
G01 X49.8454 Y81.3486
G01 X49.8380 Y81.3314
G01 X49.8338 Y81.3197
G01 X49.8302 Y81.3077
G01 X49.8272 Y81.2957
G01 X49.8247 Y81.2834
G01 X49.8222 Y81.2649
G01 X49.8213 Y81.2525
G01 X49.8210 Y81.2400
G01 X49.8211 Y79.5338
G01 X49.8217 Y79.5213
G01 X49.8229 Y79.5089
G01 X49.8247 Y79.4966
G01 X49.8272 Y79.4843
G01 X49.8319 Y79.4663
G01 X49.8358 Y79.4544
G01 X49.8403 Y79.4428
G01 X49.8454 Y79.4314
G01 X49.8510 Y79.4203
G01 X49.8604 Y79.4041
G01 X49.8673 Y79.3937
G01 X49.8748 Y79.3837
G01 X49.8827 Y79.3741
G01 X49.8910 Y79.3649
G01 X49.8999 Y79.3560
G01 X49.9107 Y79.3463
G01 X49.9107 Y77.1063
G00 Z5.0000
G00 X52.8309 Y78.9812
G01 F100.00
G01 Z-0.4000
G01 F325.00
G01 X53.8491 Y78.9812
G01 X53.8628 Y78.9814
G01 X53.8902 Y78.9827
G01 X53.9175 Y78.9854
G01 X53.9446 Y78.9894
G01 X53.9715 Y78.9948
G01 X53.9981 Y79.0014
G01 X54.0113 Y79.0053
G01 X54.0374 Y79.0139
G01 X54.0629 Y79.0237
G01 X54.0755 Y79.0291
G01 X54.1003 Y79.0409
G01 X54.1245 Y79.0538
G01 X54.1481 Y79.0679
G01 X54.1709 Y79.0831
G01 X54.1820 Y79.0912
G01 X54.2036 Y79.1080
G01 X54.2244 Y79.1260
G01 X54.2442 Y79.1449
G01 X54.2538 Y79.1547
G01 X54.2722 Y79.1750
G01 X54.2896 Y79.1962
G01 X54.2979 Y79.2071
G01 X54.3137 Y79.2295
G01 X54.3284 Y79.2527
G01 X54.3353 Y79.2646
G01 X54.3482 Y79.2888
G01 X54.3600 Y79.3136
G01 X54.3705 Y79.3389
G01 X54.3797 Y79.3647
G01 X54.3877 Y79.3910
G01 X54.3943 Y79.4176
G01 X54.3997 Y79.4445
G01 X54.4037 Y79.4716
G01 X54.4064 Y79.4989
G01 X54.4077 Y79.5263
G01 X54.4079 Y81.2400
G01 X54.4077 Y81.2537
G01 X54.4064 Y81.2811
G01 X54.4037 Y81.3084
G01 X54.4019 Y81.3220
G01 X54.3972 Y81.3490
G01 X54.3943 Y81.3624
G01 X54.3877 Y81.3890
G01 X54.3797 Y81.4153
G01 X54.3705 Y81.4411
G01 X54.3654 Y81.4538
G01 X54.3600 Y81.4664
G01 X54.3482 Y81.4912
G01 X54.3353 Y81.5154
G01 X54.3212 Y81.5390
G01 X54.3060 Y81.5618
G01 X54.2979 Y81.5729
G01 X54.2811 Y81.5945
G01 X54.2631 Y81.6153
G01 X54.2538 Y81.6253
G01 X54.2442 Y81.6351
G01 X54.2244 Y81.6540
G01 X54.2141 Y81.6631
G01 X54.1929 Y81.6805
G01 X54.1709 Y81.6969
G01 X54.1481 Y81.7121
G01 X54.1364 Y81.7193
G01 X54.1125 Y81.7328
G01 X54.1003 Y81.7391
G01 X54.0755 Y81.7509
G01 X54.0502 Y81.7614
G01 X54.0244 Y81.7706
G01 X53.9981 Y81.7786
G01 X53.9715 Y81.7852
G01 X53.9446 Y81.7906
G01 X53.9175 Y81.7946
G01 X53.8902 Y81.7973
G01 X53.8628 Y81.7986
G01 X52.8309 Y81.7988
G01 X52.8035 Y81.7981
G01 X52.7761 Y81.7961
G01 X52.7489 Y81.7928
G01 X52.7354 Y81.7906
G01 X52.7085 Y81.7852
G01 X52.6819 Y81.7786
G01 X52.6687 Y81.7747
G01 X52.6556 Y81.7706
G01 X52.6298 Y81.7614
G01 X52.6045 Y81.7509
G01 X52.5797 Y81.7391
G01 X52.5675 Y81.7328
G01 X52.5436 Y81.7193
G01 X52.5204 Y81.7046
G01 X52.4980 Y81.6888
G01 X52.4871 Y81.6805
G01 X52.4764 Y81.6720
G01 X52.4556 Y81.6540
G01 X52.4358 Y81.6351
G01 X52.4169 Y81.6153
G01 X52.4078 Y81.6050
G01 X52.3904 Y81.5838
G01 X52.3740 Y81.5618
G01 X52.3663 Y81.5505
G01 X52.3516 Y81.5273
G01 X52.3381 Y81.5034
G01 X52.3258 Y81.4789
G01 X52.3200 Y81.4664
G01 X52.3095 Y81.4411
G01 X52.3003 Y81.4153
G01 X52.2923 Y81.3890
G01 X52.2857 Y81.3624
G01 X52.2803 Y81.3355
G01 X52.2763 Y81.3084
G01 X52.2736 Y81.2811
G01 X52.2723 Y81.2537
G01 X52.2721 Y79.5400
G01 X52.2728 Y79.5126
G01 X52.2748 Y79.4852
G01 X52.2781 Y79.4580
G01 X52.2828 Y79.4310
G01 X52.2857 Y79.4176
G01 X52.2923 Y79.3910
G01 X52.3003 Y79.3647
G01 X52.3095 Y79.3389
G01 X52.3200 Y79.3136
G01 X52.3258 Y79.3011
G01 X52.3381 Y79.2766
G01 X52.3516 Y79.2527
G01 X52.3588 Y79.2410
G01 X52.3740 Y79.2182
G01 X52.3904 Y79.1962
G01 X52.4078 Y79.1750
G01 X52.4262 Y79.1547
G01 X52.4456 Y79.1353
G01 X52.4659 Y79.1169
G01 X52.4764 Y79.1080
G01 X52.4980 Y79.0912
G01 X52.5091 Y79.0831
G01 X52.5319 Y79.0679
G01 X52.5555 Y79.0538
G01 X52.5797 Y79.0409
G01 X52.6045 Y79.0291
G01 X52.6298 Y79.0186
G01 X52.6426 Y79.0139
G01 X52.6687 Y79.0053
G01 X52.6819 Y79.0014
G01 X52.7085 Y78.9948
G01 X52.7354 Y78.9894
G01 X52.7625 Y78.9854
G01 X52.7898 Y78.9827
G01 X52.8035 Y78.9819
G01 X52.8309 Y78.9812
G00 Z5.0000
G00 X52.8309 Y79.2860
G01 F100.00
G01 Z-0.4000
G01 F325.00
G01 X53.8491 Y79.2860
G01 X53.8616 Y79.2863
G01 X53.8740 Y79.2872
G01 X53.8864 Y79.2887
G01 X53.9048 Y79.2922
G01 X53.9168 Y79.2952
G01 X53.9347 Y79.3008
G01 X53.9520 Y79.3078
G01 X53.9633 Y79.3131
G01 X53.9743 Y79.3190
G01 X53.9902 Y79.3288
G01 X54.0004 Y79.3360
G01 X54.0150 Y79.3477
G01 X54.0242 Y79.3560
G01 X54.0373 Y79.3694
G01 X54.0454 Y79.3789
G01 X54.0568 Y79.3937
G01 X54.0670 Y79.4094
G01 X54.0731 Y79.4203
G01 X54.0787 Y79.4314
G01 X54.0838 Y79.4428
G01 X54.0903 Y79.4603
G01 X54.0939 Y79.4723
G01 X54.0969 Y79.4843
G01 X54.1004 Y79.5027
G01 X54.1024 Y79.5213
G01 X54.1030 Y79.5338
G01 X54.1031 Y81.2400
G01 X54.1028 Y81.2525
G01 X54.1019 Y81.2649
G01 X54.0994 Y81.2834
G01 X54.0969 Y81.2957
G01 X54.0922 Y81.3137
G01 X54.0883 Y81.3256
G01 X54.0813 Y81.3429
G01 X54.0731 Y81.3597
G01 X54.0637 Y81.3759
G01 X54.0531 Y81.3913
G01 X54.0454 Y81.4011
G01 X54.0331 Y81.4151
G01 X54.0242 Y81.4240
G01 X54.0102 Y81.4363
G01 X53.9954 Y81.4477
G01 X53.9797 Y81.4579
G01 X53.9688 Y81.4640
G01 X53.9520 Y81.4722
G01 X53.9405 Y81.4770
G01 X53.9288 Y81.4812
G01 X53.9168 Y81.4848
G01 X53.8987 Y81.4891
G01 X53.8864 Y81.4913
G01 X53.8740 Y81.4928
G01 X53.8553 Y81.4939
G01 X52.8309 Y81.4940
G01 X52.8122 Y81.4933
G01 X52.7936 Y81.4913
G01 X52.7813 Y81.4891
G01 X52.7632 Y81.4848
G01 X52.7512 Y81.4812
G01 X52.7395 Y81.4770
G01 X52.7223 Y81.4696
G01 X52.7057 Y81.4610
G01 X52.6950 Y81.4546
G01 X52.6846 Y81.4477
G01 X52.6698 Y81.4363
G01 X52.6603 Y81.4282
G01 X52.6469 Y81.4151
G01 X52.6346 Y81.4011
G01 X52.6232 Y81.3863
G01 X52.6163 Y81.3759
G01 X52.6069 Y81.3597
G01 X52.6013 Y81.3486
G01 X52.5962 Y81.3372
G01 X52.5897 Y81.3197
G01 X52.5861 Y81.3077
G01 X52.5831 Y81.2957
G01 X52.5796 Y81.2773
G01 X52.5776 Y81.2587
G01 X52.5770 Y81.2462
G01 X52.5769 Y79.5400
G01 X52.5772 Y79.5275
G01 X52.5781 Y79.5151
G01 X52.5796 Y79.5027
G01 X52.5818 Y79.4904
G01 X52.5861 Y79.4723
G01 X52.5897 Y79.4603
G01 X52.5939 Y79.4486
G01 X52.5987 Y79.4371
G01 X52.6040 Y79.4258
G01 X52.6099 Y79.4148
G01 X52.6163 Y79.4041
G01 X52.6269 Y79.3887
G01 X52.6346 Y79.3789
G01 X52.6427 Y79.3694
G01 X52.6513 Y79.3604
G01 X52.6603 Y79.3518
G01 X52.6698 Y79.3437
G01 X52.6796 Y79.3360
G01 X52.6898 Y79.3288
G01 X52.7003 Y79.3221
G01 X52.7167 Y79.3131
G01 X52.7280 Y79.3078
G01 X52.7395 Y79.3030
G01 X52.7572 Y79.2969
G01 X52.7692 Y79.2936
G01 X52.7813 Y79.2909
G01 X52.7936 Y79.2887
G01 X52.8060 Y79.2872
G01 X52.8184 Y79.2863
G01 X52.8309 Y79.2860
G00 Z5.0000
G00 X54.6859 Y79.2365
G01 F100.00
G01 Z-0.4000
G01 F325.00
G01 X54.6861 Y78.7263
G01 X54.6896 Y78.6503
G01 X54.6916 Y78.6230
G01 X54.6931 Y78.6093
G01 X54.6971 Y78.5816
G01 X54.7041 Y78.5341
G01 X54.7088 Y78.5070
G01 X54.7148 Y78.4803
G01 X54.7300 Y78.4198
G01 X54.7335 Y78.4065
G01 X54.7414 Y78.3803
G01 X54.7717 Y78.2958
G01 X54.7822 Y78.2704
G01 X54.7879 Y78.2580
G01 X54.8206 Y78.1893
G01 X54.8269 Y78.1771
G01 X54.8404 Y78.1532
G01 X54.8725 Y78.0998
G01 X54.8871 Y78.0766
G01 X54.9029 Y78.0542
G01 X54.9401 Y78.0041
G01 X54.9569 Y77.9825
G01 X54.9658 Y77.9720
G01 X55.0167 Y77.9155
G01 X55.0356 Y77.8956
G01 X56.1786 Y76.7526
G01 X56.1985 Y76.7337
G01 X56.2550 Y76.6828
G01 X56.2655 Y76.6739
G01 X56.2871 Y76.6571
G01 X56.3372 Y76.6199
G01 X56.3596 Y76.6041
G01 X56.3828 Y76.5895
G01 X56.4481 Y76.5505
G01 X56.4723 Y76.5376
G01 X56.4846 Y76.5316
G01 X56.5410 Y76.5049
G01 X56.5660 Y76.4938
G01 X56.5916 Y76.4839
G01 X56.6503 Y76.4629
G01 X56.6764 Y76.4543
G01 X56.6895 Y76.4505
G01 X56.7766 Y76.4287
G01 X56.8035 Y76.4233
G01 X56.8171 Y76.4211
G01 X56.8787 Y76.4120
G01 X56.9060 Y76.4086
G01 X56.9333 Y76.4066
G01 X56.9956 Y76.4036
G01 X57.0230 Y76.4029
G01 X70.8794 Y76.4029
G01 X72.3444 Y74.9379
G01 X72.3468 Y74.9026
G01 X72.3501 Y74.8754
G01 X72.3669 Y74.7633
G01 X72.3695 Y74.7498
G01 X72.3755 Y74.7230
G01 X72.3997 Y74.6263
G01 X72.4070 Y74.5999
G01 X72.4112 Y74.5868
G01 X72.4540 Y74.4671
G01 X72.4591 Y74.4544
G01 X72.4702 Y74.4293
G01 X72.5128 Y74.3391
G01 X72.5252 Y74.3146
G01 X72.5387 Y74.2908
G01 X72.5899 Y74.2053
G01 X72.6046 Y74.1821
G01 X72.6204 Y74.1597
G01 X72.6798 Y74.0796
G01 X72.6967 Y74.0580
G01 X72.7146 Y74.0372
G01 X72.7815 Y73.9633
G01 X72.8004 Y73.9434
G01 X72.8203 Y73.9245
G01 X72.8942 Y73.8576
G01 X72.9150 Y73.8397
G01 X72.9366 Y73.8228
G01 X73.0167 Y73.7634
G01 X73.0391 Y73.7476
G01 X73.0506 Y73.7401
G01 X73.1478 Y73.6817
G01 X73.1716 Y73.6682
G01 X73.1961 Y73.6558
G01 X73.2863 Y73.6132
G01 X73.3114 Y73.6021
G01 X73.3369 Y73.5922
G01 X73.4308 Y73.5586
G01 X73.4569 Y73.5500
G01 X73.4833 Y73.5427
G01 X73.5800 Y73.5185
G01 X73.6068 Y73.5125
G01 X73.6338 Y73.5078
G01 X73.7324 Y73.4931
G01 X73.7596 Y73.4898
G01 X73.7870 Y73.4878
G01 X73.8866 Y73.4829
G01 X73.9140 Y73.4822
G01 X73.9414 Y73.4829
G01 X74.0410 Y73.4878
G01 X74.0684 Y73.4898
G01 X74.0956 Y73.4931
G01 X74.1942 Y73.5078
G01 X74.2212 Y73.5125
G01 X74.2480 Y73.5185
G01 X74.3447 Y73.5427
G01 X74.3711 Y73.5500
G01 X74.3842 Y73.5542
G01 X74.5039 Y73.5970
G01 X74.5166 Y73.6021
G01 X74.5417 Y73.6132
G01 X74.6319 Y73.6558
G01 X74.6564 Y73.6682
G01 X74.6802 Y73.6817
G01 X74.7774 Y73.7401
G01 X74.8002 Y73.7554
G01 X74.8113 Y73.7634
G01 X74.8914 Y73.8228
G01 X74.9130 Y73.8397
G01 X74.9338 Y73.8576
G01 X75.0077 Y73.9245
G01 X75.0276 Y73.9434
G01 X75.0465 Y73.9633
G01 X75.1134 Y74.0372
G01 X75.1313 Y74.0580
G01 X75.1482 Y74.0796
G01 X75.2076 Y74.1597
G01 X75.2234 Y74.1821
G01 X75.2381 Y74.2053
G01 X75.2893 Y74.2908
G01 X75.3028 Y74.3146
G01 X75.3152 Y74.3391
G01 X75.3578 Y74.4293
G01 X75.3689 Y74.4544
G01 X75.3788 Y74.4799
G01 X75.4124 Y74.5738
G01 X75.4210 Y74.5999
G01 X75.4283 Y74.6263
G01 X75.4557 Y74.7364
G01 X75.4611 Y74.7633
G01 X75.4632 Y74.7768
G01 X75.4779 Y74.8754
G01 X75.4812 Y74.9026
G01 X75.4832 Y74.9300
G01 X75.4881 Y75.0296
G01 X75.4888 Y75.0570
G01 X75.4881 Y75.0844
G01 X75.4832 Y75.1840
G01 X75.4812 Y75.2114
G01 X75.4779 Y75.2386
G01 X75.4632 Y75.3372
G01 X75.4585 Y75.3642
G01 X75.4525 Y75.3910
G01 X75.4283 Y75.4877
G01 X75.4210 Y75.5141
G01 X75.4124 Y75.5402
G01 X75.3788 Y75.6341
G01 X75.3689 Y75.6596
G01 X75.3578 Y75.6847
G01 X75.3152 Y75.7749
G01 X75.3028 Y75.7994
G01 X75.2893 Y75.8232
G01 X75.2381 Y75.9087
G01 X75.2234 Y75.9319
G01 X75.2076 Y75.9543
G01 X75.1482 Y76.0344
G01 X75.1399 Y76.0453
G01 X75.1225 Y76.0665
G01 X75.0371 Y76.1607
G01 X75.0276 Y76.1706
G01 X75.0077 Y76.1895
G01 X74.9338 Y76.2564
G01 X74.9130 Y76.2743
G01 X74.8914 Y76.2912
G01 X74.8002 Y76.3586
G01 X74.7889 Y76.3664
G01 X74.7657 Y76.3811
G01 X74.6802 Y76.4323
G01 X74.6564 Y76.4458
G01 X74.6319 Y76.4582
G01 X74.5417 Y76.5008
G01 X74.5293 Y76.5065
G01 X74.5039 Y76.5170
G01 X74.3842 Y76.5598
G01 X74.3580 Y76.5678
G01 X74.3447 Y76.5713
G01 X74.2480 Y76.5955
G01 X74.2212 Y76.6015
G01 X74.2077 Y76.6041
G01 X74.0956 Y76.6209
G01 X74.0684 Y76.6242
G01 X74.0331 Y76.6266
G01 X72.2184 Y78.4414
G01 X72.1985 Y78.4603
G01 X72.1523 Y78.5022
G01 X72.1420 Y78.5112
G01 X72.1208 Y78.5286
G01 X72.0598 Y78.5741
G01 X72.0374 Y78.5899
G01 X72.0142 Y78.6045
G01 X71.9608 Y78.6366
G01 X71.9489 Y78.6435
G01 X71.9247 Y78.6564
G01 X71.8560 Y78.6891
G01 X71.8310 Y78.7002
G01 X71.8054 Y78.7101
G01 X71.7467 Y78.7311
G01 X71.7206 Y78.7397
G01 X71.7075 Y78.7435
G01 X71.6204 Y78.7653
G01 X71.5935 Y78.7707
G01 X71.5799 Y78.7729
G01 X71.5183 Y78.7820
G01 X71.4910 Y78.7854
G01 X71.4637 Y78.7874
G01 X71.4014 Y78.7904
G01 X71.3740 Y78.7911
G01 X57.5176 Y78.7911
G01 X57.0741 Y79.2346
G01 X57.0741 Y79.2365
G01 X57.0843 Y79.2527
G01 X57.0912 Y79.2646
G01 X57.0978 Y79.2766
G01 X57.1101 Y79.3011
G01 X57.1159 Y79.3136
G01 X57.1264 Y79.3389
G01 X57.1356 Y79.3647
G01 X57.1397 Y79.3778
G01 X57.1471 Y79.4042
G01 X57.1502 Y79.4176
G01 X57.1556 Y79.4445
G01 X57.1596 Y79.4716
G01 X57.1611 Y79.4852
G01 X57.1623 Y79.4989
G01 X57.1636 Y79.5263
G01 X57.1636 Y81.2537
G01 X57.1631 Y81.2674
G01 X57.1611 Y81.2948
G01 X57.1578 Y81.3220
G01 X57.1556 Y81.3355
G01 X57.1502 Y81.3624
G01 X57.1471 Y81.3758
G01 X57.1397 Y81.4022
G01 X57.1356 Y81.4153
G01 X57.1264 Y81.4411
G01 X57.1159 Y81.4664
G01 X57.1041 Y81.4912
G01 X57.0912 Y81.5154
G01 X57.0843 Y81.5273
G01 X57.0696 Y81.5505
G01 X57.0619 Y81.5618
G01 X57.0538 Y81.5729
G01 X57.0370 Y81.5945
G01 X57.0190 Y81.6153
G01 X57.0001 Y81.6351
G01 X56.9903 Y81.6447
G01 X56.9700 Y81.6631
G01 X56.9488 Y81.6805
G01 X56.9379 Y81.6888
G01 X56.9268 Y81.6969
G01 X56.9040 Y81.7121
G01 X56.8804 Y81.7262
G01 X56.8684 Y81.7328
G01 X56.8439 Y81.7451
G01 X56.8314 Y81.7509
G01 X56.8061 Y81.7614
G01 X56.7933 Y81.7661
G01 X56.7672 Y81.7747
G01 X56.7408 Y81.7821
G01 X56.7274 Y81.7852
G01 X56.7005 Y81.7906
G01 X56.6734 Y81.7946
G01 X56.6598 Y81.7961
G01 X56.6324 Y81.7981
G01 X56.6187 Y81.7986
G01 X55.1550 Y81.7988
G01 X55.1276 Y81.7981
G01 X55.1002 Y81.7961
G01 X55.0866 Y81.7946
G01 X55.0595 Y81.7906
G01 X55.0326 Y81.7852
G01 X55.0060 Y81.7786
G01 X54.9797 Y81.7706
G01 X54.9539 Y81.7614
G01 X54.9412 Y81.7563
G01 X54.9161 Y81.7451
G01 X54.8916 Y81.7328
G01 X54.8677 Y81.7193
G01 X54.8445 Y81.7046
G01 X54.8221 Y81.6888
G01 X54.8005 Y81.6720
G01 X54.7797 Y81.6540
G01 X54.7599 Y81.6351
G01 X54.7410 Y81.6153
G01 X54.7230 Y81.5945
G01 X54.7062 Y81.5729
G01 X54.6981 Y81.5618
G01 X54.6829 Y81.5390
G01 X54.6757 Y81.5273
G01 X54.6622 Y81.5034
G01 X54.6499 Y81.4789
G01 X54.6441 Y81.4664
G01 X54.6336 Y81.4411
G01 X54.6244 Y81.4153
G01 X54.6164 Y81.3890
G01 X54.6129 Y81.3758
G01 X54.6069 Y81.3490
G01 X54.6044 Y81.3355
G01 X54.6004 Y81.3084
G01 X54.5977 Y81.2811
G01 X54.5964 Y81.2537
G01 X54.5962 Y81.2400
G01 X54.5962 Y79.5400
G01 X54.5969 Y79.5126
G01 X54.5977 Y79.4989
G01 X54.6004 Y79.4716
G01 X54.6044 Y79.4445
G01 X54.6069 Y79.4310
G01 X54.6129 Y79.4042
G01 X54.6203 Y79.3778
G01 X54.6244 Y79.3647
G01 X54.6336 Y79.3389
G01 X54.6441 Y79.3136
G01 X54.6499 Y79.3011
G01 X54.6622 Y79.2766
G01 X54.6688 Y79.2646
G01 X54.6757 Y79.2527
G01 X54.6859 Y79.2365
G00 Z5.0000
G00 X54.9907 Y79.3463
G01 F100.00
G01 Z-0.4000
G01 F325.00
G01 X54.9907 Y78.7400
G01 X54.9910 Y78.7275
G01 X54.9940 Y78.6653
G01 X54.9950 Y78.6528
G01 X54.9965 Y78.6405
G01 X55.0066 Y78.5726
G01 X55.0105 Y78.5543
G01 X55.0257 Y78.4939
G01 X55.0290 Y78.4818
G01 X55.0329 Y78.4700
G01 X55.0539 Y78.4113
G01 X55.0584 Y78.3997
G01 X55.0634 Y78.3883
G01 X55.0901 Y78.3319
G01 X55.0957 Y78.3208
G01 X55.1018 Y78.3099
G01 X55.1339 Y78.2565
G01 X55.1441 Y78.2408
G01 X55.1849 Y78.1857
G01 X55.1925 Y78.1758
G01 X55.2007 Y78.1664
G01 X55.2426 Y78.1202
G01 X55.2512 Y78.1112
G01 X56.3942 Y76.9682
G01 X56.4032 Y76.9596
G01 X56.4494 Y76.9177
G01 X56.4588 Y76.9095
G01 X56.4687 Y76.9019
G01 X56.5187 Y76.8647
G01 X56.5289 Y76.8576
G01 X56.5395 Y76.8509
G01 X56.5929 Y76.8188
G01 X56.6038 Y76.8127
G01 X56.6149 Y76.8071
G01 X56.6713 Y76.7804
G01 X56.6827 Y76.7754
G01 X56.6943 Y76.7709
G01 X56.7530 Y76.7499
G01 X56.7648 Y76.7460
G01 X56.7769 Y76.7427
G01 X56.8434 Y76.7261
G01 X56.8618 Y76.7226
G01 X56.9235 Y76.7135
G01 X56.9358 Y76.7120
G01 X56.9483 Y76.7110
G01 X57.0105 Y76.7080
G01 X57.0230 Y76.7077
G01 X71.0056 Y76.7077
G01 X72.6443 Y75.0690
G01 X72.6440 Y75.0570
G01 X72.6443 Y75.0445
G01 X72.6492 Y74.9450
G01 X72.6501 Y74.9325
G01 X72.6516 Y74.9201
G01 X72.6663 Y74.8215
G01 X72.6684 Y74.8092
G01 X72.6711 Y74.7971
G01 X72.6954 Y74.7004
G01 X72.6987 Y74.6883
G01 X72.7026 Y74.6765
G01 X72.7362 Y74.5826
G01 X72.7407 Y74.5710
G01 X72.7457 Y74.5596
G01 X72.7884 Y74.4695
G01 X72.7940 Y74.4583
G01 X72.8001 Y74.4475
G01 X72.8514 Y74.3620
G01 X72.8580 Y74.3514
G01 X72.8652 Y74.3412
G01 X72.9246 Y74.2611
G01 X72.9323 Y74.2513
G01 X72.9404 Y74.2419
G01 X73.0074 Y74.1680
G01 X73.0160 Y74.1590
G01 X73.0250 Y74.1504
G01 X73.0989 Y74.0834
G01 X73.1083 Y74.0753
G01 X73.1181 Y74.0676
G01 X73.1982 Y74.0082
G01 X73.2084 Y74.0010
G01 X73.2190 Y73.9944
G01 X73.3045 Y73.9431
G01 X73.3153 Y73.9370
G01 X73.3265 Y73.9314
G01 X73.4166 Y73.8887
G01 X73.4280 Y73.8837
G01 X73.4396 Y73.8792
G01 X73.5335 Y73.8456
G01 X73.5453 Y73.8417
G01 X73.5574 Y73.8384
G01 X73.6541 Y73.8141
G01 X73.6662 Y73.8114
G01 X73.6785 Y73.8093
G01 X73.7771 Y73.7946
G01 X73.7895 Y73.7931
G01 X73.8020 Y73.7922
G01 X73.9015 Y73.7873
G01 X73.9140 Y73.7870
G01 X73.9265 Y73.7873
G01 X74.0260 Y73.7922
G01 X74.0385 Y73.7931
G01 X74.0509 Y73.7946
G01 X74.1495 Y73.8093
G01 X74.1618 Y73.8114
G01 X74.1739 Y73.8141
G01 X74.2706 Y73.8384
G01 X74.2827 Y73.8417
G01 X74.2945 Y73.8456
G01 X74.3884 Y73.8792
G01 X74.4000 Y73.8837
G01 X74.4114 Y73.8887
G01 X74.5015 Y73.9314
G01 X74.5127 Y73.9370
G01 X74.5235 Y73.9431
G01 X74.6090 Y73.9944
G01 X74.6196 Y74.0010
G01 X74.6298 Y74.0082
G01 X74.7099 Y74.0676
G01 X74.7197 Y74.0753
G01 X74.7291 Y74.0834
G01 X74.8030 Y74.1504
G01 X74.8120 Y74.1590
G01 X74.8206 Y74.1680
G01 X74.8876 Y74.2419
G01 X74.8957 Y74.2513
G01 X74.9034 Y74.2611
G01 X74.9628 Y74.3412
G01 X74.9700 Y74.3514
G01 X74.9766 Y74.3620
G01 X75.0279 Y74.4475
G01 X75.0340 Y74.4583
G01 X75.0396 Y74.4695
G01 X75.0823 Y74.5596
G01 X75.0873 Y74.5710
G01 X75.0918 Y74.5826
G01 X75.1254 Y74.6765
G01 X75.1293 Y74.6883
G01 X75.1326 Y74.7004
G01 X75.1583 Y74.8031
G01 X75.1617 Y74.8215
G01 X75.1764 Y74.9201
G01 X75.1779 Y74.9325
G01 X75.1788 Y74.9450
G01 X75.1837 Y75.0445
G01 X75.1840 Y75.0570
G01 X75.1837 Y75.0695
G01 X75.1788 Y75.1690
G01 X75.1779 Y75.1815
G01 X75.1764 Y75.1939
G01 X75.1617 Y75.2925
G01 X75.1596 Y75.3048
G01 X75.1569 Y75.3169
G01 X75.1326 Y75.4136
G01 X75.1293 Y75.4257
G01 X75.1254 Y75.4375
G01 X75.0918 Y75.5314
G01 X75.0873 Y75.5430
G01 X75.0823 Y75.5544
G01 X75.0396 Y75.6445
G01 X75.0340 Y75.6557
G01 X75.0279 Y75.6665
G01 X74.9766 Y75.7520
G01 X74.9700 Y75.7626
G01 X74.9628 Y75.7728
G01 X74.9034 Y75.8529
G01 X74.8957 Y75.8627
G01 X74.8876 Y75.8721
G01 X74.8206 Y75.9460
G01 X74.8120 Y75.9550
G01 X74.8030 Y75.9636
G01 X74.7291 Y76.0306
G01 X74.7197 Y76.0387
G01 X74.7099 Y76.0464
G01 X74.6298 Y76.1058
G01 X74.6196 Y76.1130
G01 X74.6090 Y76.1196
G01 X74.5235 Y76.1709
G01 X74.5127 Y76.1770
G01 X74.5015 Y76.1826
G01 X74.4114 Y76.2253
G01 X74.4000 Y76.2303
G01 X74.3884 Y76.2348
G01 X74.2945 Y76.2684
G01 X74.2827 Y76.2723
G01 X74.2706 Y76.2756
G01 X74.1739 Y76.2999
G01 X74.1618 Y76.3026
G01 X74.1495 Y76.3047
G01 X74.0509 Y76.3194
G01 X74.0385 Y76.3209
G01 X74.0260 Y76.3218
G01 X73.9265 Y76.3267
G01 X73.9140 Y76.3270
G01 X73.9020 Y76.3267
G01 X72.0028 Y78.2258
G01 X71.9938 Y78.2344
G01 X71.9476 Y78.2763
G01 X71.9382 Y78.2845
G01 X71.9283 Y78.2921
G01 X71.8783 Y78.3293
G01 X71.8681 Y78.3364
G01 X71.8575 Y78.3431
G01 X71.8041 Y78.3752
G01 X71.7932 Y78.3813
G01 X71.7821 Y78.3869
G01 X71.7257 Y78.4136
G01 X71.7143 Y78.4186
G01 X71.7027 Y78.4231
G01 X71.6440 Y78.4441
G01 X71.6322 Y78.4480
G01 X71.6201 Y78.4513
G01 X71.5536 Y78.4679
G01 X71.5352 Y78.4714
G01 X71.4735 Y78.4805
G01 X71.4612 Y78.4820
G01 X71.4487 Y78.4830
G01 X71.3865 Y78.4860
G01 X71.3740 Y78.4863
G01 X57.3914 Y78.4863
G01 X56.7693 Y79.1084
G01 X56.7693 Y79.3463
G01 X56.7801 Y79.3560
G01 X56.7890 Y79.3649
G01 X56.7973 Y79.3741
G01 X56.8052 Y79.3837
G01 X56.8127 Y79.3937
G01 X56.8196 Y79.4041
G01 X56.8260 Y79.4148
G01 X56.8319 Y79.4258
G01 X56.8372 Y79.4371
G01 X56.8420 Y79.4486
G01 X56.8462 Y79.4603
G01 X56.8498 Y79.4723
G01 X56.8528 Y79.4843
G01 X56.8563 Y79.5027
G01 X56.8578 Y79.5151
G01 X56.8587 Y79.5275
G01 X56.8590 Y79.5400
G01 X56.8590 Y81.2400
G01 X56.8583 Y81.2587
G01 X56.8563 Y81.2773
G01 X56.8541 Y81.2896
G01 X56.8514 Y81.3017
G01 X56.8481 Y81.3137
G01 X56.8442 Y81.3256
G01 X56.8372 Y81.3429
G01 X56.8319 Y81.3542
G01 X56.8260 Y81.3652
G01 X56.8196 Y81.3759
G01 X56.8127 Y81.3863
G01 X56.8052 Y81.3963
G01 X56.7973 Y81.4059
G01 X56.7846 Y81.4196
G01 X56.7709 Y81.4323
G01 X56.7613 Y81.4402
G01 X56.7513 Y81.4477
G01 X56.7409 Y81.4546
G01 X56.7302 Y81.4610
G01 X56.7192 Y81.4669
G01 X56.7079 Y81.4722
G01 X56.6964 Y81.4770
G01 X56.6847 Y81.4812
G01 X56.6727 Y81.4848
G01 X56.6607 Y81.4878
G01 X56.6484 Y81.4903
G01 X56.6361 Y81.4921
G01 X56.6175 Y81.4937
G01 X56.6050 Y81.4940
G01 X55.1550 Y81.4940
G01 X55.1363 Y81.4933
G01 X55.1239 Y81.4921
G01 X55.1116 Y81.4903
G01 X55.0993 Y81.4878
G01 X55.0813 Y81.4831
G01 X55.0636 Y81.4770
G01 X55.0521 Y81.4722
G01 X55.0408 Y81.4669
G01 X55.0298 Y81.4610
G01 X55.0191 Y81.4546
G01 X55.0037 Y81.4440
G01 X54.9939 Y81.4363
G01 X54.9844 Y81.4282
G01 X54.9754 Y81.4196
G01 X54.9668 Y81.4106
G01 X54.9587 Y81.4011
G01 X54.9510 Y81.3913
G01 X54.9404 Y81.3759
G01 X54.9310 Y81.3597
G01 X54.9228 Y81.3429
G01 X54.9158 Y81.3256
G01 X54.9119 Y81.3137
G01 X54.9086 Y81.3017
G01 X54.9047 Y81.2834
G01 X54.9022 Y81.2649
G01 X54.9011 Y81.2462
G01 X54.9011 Y79.5338
G01 X54.9017 Y79.5213
G01 X54.9029 Y79.5089
G01 X54.9047 Y79.4966
G01 X54.9072 Y79.4843
G01 X54.9119 Y79.4663
G01 X54.9158 Y79.4544
G01 X54.9203 Y79.4428
G01 X54.9254 Y79.4314
G01 X54.9310 Y79.4203
G01 X54.9404 Y79.4041
G01 X54.9473 Y79.3937
G01 X54.9548 Y79.3837
G01 X54.9627 Y79.3741
G01 X54.9710 Y79.3649
G01 X54.9799 Y79.3560
G01 X54.9907 Y79.3463
G00 Z5.0000
G00 X54.5020 Y81.8052
G01 F100.00
G01 Z-0.4000
G01 F325.00
G01 X54.4890 Y81.8200
G01 X54.4746 Y81.8355
G01 X54.4598 Y81.8507
G01 X54.4446 Y81.8655
G01 X54.4291 Y81.8799
G01 X54.4132 Y81.8939
G01 X54.3970 Y81.9076
G01 X54.3804 Y81.9208
G01 X54.3635 Y81.9336
G01 X54.3464 Y81.9461
G01 X54.3289 Y81.9581
G01 X54.3111 Y81.9696
G01 X54.2931 Y81.9807
G01 X54.2748 Y81.9914
G01 X54.2562 Y82.0016
G01 X54.2374 Y82.0114
G01 X54.2183 Y82.0207
G01 X54.1991 Y82.0295
G01 X54.1796 Y82.0379
G01 X54.1599 Y82.0457
G01 X54.1400 Y82.0531
G01 X54.1200 Y82.0600
G01 X54.0998 Y82.0664
G01 X54.0794 Y82.0723
G01 X54.0589 Y82.0777
G01 X54.0383 Y82.0826
G01 X54.0176 Y82.0870
G01 X53.9967 Y82.0909
G01 X53.9758 Y82.0943
G01 X53.9548 Y82.0971
G01 X53.9337 Y82.0994
G01 X53.9126 Y82.1013
G01 X53.8915 Y82.1026
G01 X53.8703 Y82.1033
G01 X53.8491 Y82.1036
G01 X52.8309 Y82.1036
G01 X52.8097 Y82.1033
G01 X52.7885 Y82.1026
G01 X52.7674 Y82.1013
G01 X52.7463 Y82.0994
G01 X52.7252 Y82.0971
G01 X52.7042 Y82.0943
G01 X52.6833 Y82.0909
G01 X52.6624 Y82.0870
G01 X52.6417 Y82.0826
G01 X52.6211 Y82.0777
G01 X52.6006 Y82.0723
G01 X52.5802 Y82.0664
G01 X52.5600 Y82.0600
G01 X52.5400 Y82.0531
G01 X52.5201 Y82.0457
G01 X52.5004 Y82.0379
G01 X52.4809 Y82.0295
G01 X52.4617 Y82.0207
G01 X52.4426 Y82.0114
G01 X52.4238 Y82.0016
G01 X52.4052 Y81.9914
G01 X52.3869 Y81.9807
G01 X52.3689 Y81.9696
G01 X52.3511 Y81.9581
G01 X52.3336 Y81.9461
G01 X52.3165 Y81.9336
G01 X52.2996 Y81.9208
G01 X52.2830 Y81.9076
G01 X52.2668 Y81.8939
G01 X52.2509 Y81.8799
G01 X52.2354 Y81.8655
G01 X52.2202 Y81.8507
G01 X52.2054 Y81.8355
G01 X52.1910 Y81.8200
G01 X52.1779 Y81.8052
G01 X52.1649 Y81.8200
G01 X52.1505 Y81.8355
G01 X52.1357 Y81.8507
G01 X52.1205 Y81.8655
G01 X52.1050 Y81.8799
G01 X52.0891 Y81.8939
G01 X52.0729 Y81.9076
G01 X52.0563 Y81.9208
G01 X52.0394 Y81.9336
G01 X52.0223 Y81.9461
G01 X52.0048 Y81.9581
G01 X51.9870 Y81.9696
G01 X51.9690 Y81.9807
G01 X51.9507 Y81.9914
G01 X51.9321 Y82.0016
G01 X51.9133 Y82.0114
G01 X51.8942 Y82.0207
G01 X51.8750 Y82.0295
G01 X51.8555 Y82.0379
G01 X51.8358 Y82.0457
G01 X51.8159 Y82.0531
G01 X51.7959 Y82.0600
G01 X51.7757 Y82.0664
G01 X51.7553 Y82.0723
G01 X51.7348 Y82.0777
G01 X51.7142 Y82.0826
G01 X51.6935 Y82.0870
G01 X51.6726 Y82.0909
G01 X51.6517 Y82.0943
G01 X51.6307 Y82.0971
G01 X51.6096 Y82.0994
G01 X51.5885 Y82.1013
G01 X51.5674 Y82.1026
G01 X51.5462 Y82.1033
G01 X51.5250 Y82.1036
G01 X50.0750 Y82.1036
G01 X50.0538 Y82.1033
G01 X50.0326 Y82.1026
G01 X50.0115 Y82.1013
G01 X49.9904 Y82.0994
G01 X49.9693 Y82.0971
G01 X49.9483 Y82.0943
G01 X49.9274 Y82.0909
G01 X49.9065 Y82.0870
G01 X49.8858 Y82.0826
G01 X49.8652 Y82.0777
G01 X49.8447 Y82.0723
G01 X49.8243 Y82.0664
G01 X49.8041 Y82.0600
G01 X49.7841 Y82.0531
G01 X49.7642 Y82.0457
G01 X49.7445 Y82.0379
G01 X49.7250 Y82.0295
G01 X49.7058 Y82.0207
G01 X49.6867 Y82.0114
G01 X49.6679 Y82.0016
G01 X49.6493 Y81.9914
G01 X49.6310 Y81.9807
G01 X49.6130 Y81.9696
G01 X49.5952 Y81.9581
G01 X49.5777 Y81.9461
G01 X49.5606 Y81.9336
G01 X49.5437 Y81.9208
G01 X49.5271 Y81.9076
G01 X49.5109 Y81.8939
G01 X49.4950 Y81.8799
G01 X49.4795 Y81.8655
G01 X49.4643 Y81.8507
G01 X49.4495 Y81.8355
G01 X49.4351 Y81.8200
G01 X49.4211 Y81.8041
G01 X49.4074 Y81.7879
G01 X49.3942 Y81.7713
G01 X49.3814 Y81.7544
G01 X49.3689 Y81.7373
G01 X49.3569 Y81.7198
G01 X49.3454 Y81.7020
G01 X49.3343 Y81.6840
G01 X49.3236 Y81.6657
G01 X49.3134 Y81.6471
G01 X49.3036 Y81.6283
G01 X49.2943 Y81.6092
G01 X49.2855 Y81.5900
G01 X49.2771 Y81.5705
G01 X49.2693 Y81.5508
G01 X49.2619 Y81.5309
G01 X49.2550 Y81.5109
G01 X49.2486 Y81.4907
G01 X49.2427 Y81.4703
G01 X49.2373 Y81.4498
G01 X49.2324 Y81.4292
G01 X49.2280 Y81.4085
G01 X49.2241 Y81.3876
G01 X49.2207 Y81.3667
G01 X49.2179 Y81.3457
G01 X49.2156 Y81.3246
G01 X49.2137 Y81.3035
G01 X49.2124 Y81.2824
G01 X49.2117 Y81.2612
G01 X49.2114 Y81.2400
G01 X49.2114 Y79.5400
G01 X49.2117 Y79.5188
G01 X49.2124 Y79.4976
G01 X49.2137 Y79.4765
G01 X49.2156 Y79.4554
G01 X49.2179 Y79.4343
G01 X49.2207 Y79.4133
G01 X49.2241 Y79.3924
G01 X49.2280 Y79.3715
G01 X49.2324 Y79.3508
G01 X49.2373 Y79.3302
G01 X49.2427 Y79.3097
G01 X49.2486 Y79.2893
G01 X49.2550 Y79.2691
G01 X49.2619 Y79.2491
G01 X49.2693 Y79.2292
G01 X49.2771 Y79.2095
G01 X49.2855 Y79.1900
G01 X49.3011 Y79.1569
G01 X49.3011 Y77.3322
G01 X49.2492 Y77.2617
G01 X49.2372 Y77.2442
G01 X49.2256 Y77.2265
G01 X49.1632 Y77.1229
G01 X49.1526 Y77.1046
G01 X49.1423 Y77.0860
G01 X49.1326 Y77.0672
G01 X49.0807 Y76.9580
G01 X49.0718 Y76.9388
G01 X49.0635 Y76.9193
G01 X49.0556 Y76.8996
G01 X49.0482 Y76.8797
G01 X49.0146 Y76.7859
G01 X49.0077 Y76.7658
G01 X49.0013 Y76.7456
G01 X48.9954 Y76.7253
G01 X48.9900 Y76.7048
G01 X48.9658 Y76.6080
G01 X48.9609 Y76.5874
G01 X48.9565 Y76.5667
G01 X48.9526 Y76.5459
G01 X48.9493 Y76.5249
G01 X48.9346 Y76.4263
G01 X48.9318 Y76.4053
G01 X48.9295 Y76.3842
G01 X48.9276 Y76.3631
G01 X48.9263 Y76.3420
G01 X48.9214 Y76.2424
G01 X48.9207 Y76.2212
G01 X48.9204 Y76.2000
G01 X48.9207 Y76.1788
G01 X48.9214 Y76.1576
G01 X48.9263 Y76.0580
G01 X48.9276 Y76.0369
G01 X48.9295 Y76.0158
G01 X48.9318 Y75.9947
G01 X48.9493 Y75.8751
G01 X48.9526 Y75.8541
G01 X48.9565 Y75.8333
G01 X48.9609 Y75.8126
G01 X48.9658 Y75.7920
G01 X48.9900 Y75.6952
G01 X48.9954 Y75.6747
G01 X49.0013 Y75.6544
G01 X49.0077 Y75.6342
G01 X49.0146 Y75.6141
G01 X49.0482 Y75.5203
G01 X49.0556 Y75.5004
G01 X49.0635 Y75.4807
G01 X49.0718 Y75.4612
G01 X49.0807 Y75.4420
G01 X49.1326 Y75.3328
G01 X49.1423 Y75.3140
G01 X49.1526 Y75.2954
G01 X49.1632 Y75.2771
G01 X49.2145 Y75.1916
G01 X49.2256 Y75.1735
G01 X49.2372 Y75.1558
G01 X49.2492 Y75.1383
G01 X49.2616 Y75.1211
G01 X49.3210 Y75.0410
G01 X49.3338 Y75.0241
G01 X49.3470 Y75.0076
G01 X49.3607 Y74.9914
G01 X49.4417 Y74.9016
G01 X49.4561 Y74.8861
G01 X49.4709 Y74.8709
G01 X49.4861 Y74.8561
G01 X49.5016 Y74.8417
G01 X49.5914 Y74.7607
G01 X49.6076 Y74.7470
G01 X49.6241 Y74.7338
G01 X49.6410 Y74.7210
G01 X49.7211 Y74.6616
G01 X49.7383 Y74.6492
G01 X49.7558 Y74.6372
G01 X49.7735 Y74.6256
G01 X49.7916 Y74.6145
G01 X49.8771 Y74.5632
G01 X49.8954 Y74.5526
G01 X49.9140 Y74.5423
G01 X49.9328 Y74.5326
G01 X49.9518 Y74.5233
G01 X50.0420 Y74.4807
G01 X50.0612 Y74.4718
G01 X50.0807 Y74.4635
G01 X50.1004 Y74.4556
G01 X50.2141 Y74.4146
G01 X50.2342 Y74.4077
G01 X50.2544 Y74.4013
G01 X50.2747 Y74.3954
G01 X50.2952 Y74.3900
G01 X50.3920 Y74.3658
G01 X50.4126 Y74.3609
G01 X50.4333 Y74.3565
G01 X50.4541 Y74.3526
G01 X50.4751 Y74.3493
G01 X50.5737 Y74.3346
G01 X50.5947 Y74.3318
G01 X50.6158 Y74.3295
G01 X50.6369 Y74.3276
G01 X50.6580 Y74.3263
G01 X50.7576 Y74.3214
G01 X50.7788 Y74.3207
G01 X50.8000 Y74.3204
G01 X50.8212 Y74.3207
G01 X50.8424 Y74.3214
G01 X50.9420 Y74.3263
G01 X50.9631 Y74.3276
G01 X50.9842 Y74.3295
G01 X51.0053 Y74.3318
G01 X51.0263 Y74.3346
G01 X51.1249 Y74.3493
G01 X51.1459 Y74.3526
G01 X51.1667 Y74.3565
G01 X51.1874 Y74.3609
G01 X51.2080 Y74.3658
G01 X51.3048 Y74.3900
G01 X51.3253 Y74.3954
G01 X51.3456 Y74.4013
G01 X51.3658 Y74.4077
G01 X51.3859 Y74.4146
G01 X51.4996 Y74.4556
G01 X51.5193 Y74.4635
G01 X51.5388 Y74.4718
G01 X51.5580 Y74.4807
G01 X51.6482 Y74.5233
G01 X51.6672 Y74.5326
G01 X51.6860 Y74.5423
G01 X51.7046 Y74.5526
G01 X51.7229 Y74.5632
G01 X51.8084 Y74.6145
G01 X51.8265 Y74.6256
G01 X51.8442 Y74.6372
G01 X51.8617 Y74.6492
G01 X51.8789 Y74.6616
G01 X51.9590 Y74.7210
G01 X51.9759 Y74.7338
G01 X51.9924 Y74.7470
G01 X52.0086 Y74.7607
G01 X52.0245 Y74.7747
G01 X52.0984 Y74.8417
G01 X52.1139 Y74.8561
G01 X52.1291 Y74.8709
G01 X52.1439 Y74.8861
G01 X52.1583 Y74.9016
G01 X52.2393 Y74.9914
G01 X52.2530 Y75.0076
G01 X52.2662 Y75.0241
G01 X52.2790 Y75.0410
G01 X52.3508 Y75.1383
G01 X52.3628 Y75.1558
G01 X52.3744 Y75.1735
G01 X52.4368 Y75.2771
G01 X52.4474 Y75.2954
G01 X52.4577 Y75.3140
G01 X52.4674 Y75.3328
G01 X52.4767 Y75.3518
G01 X52.5282 Y75.4612
G01 X52.5365 Y75.4807
G01 X52.5444 Y75.5004
G01 X52.5854 Y75.6141
G01 X52.5923 Y75.6342
G01 X52.5987 Y75.6544
G01 X52.6046 Y75.6747
G01 X52.6342 Y75.7920
G01 X52.6391 Y75.8126
G01 X52.6435 Y75.8333
G01 X52.6474 Y75.8541
G01 X52.6507 Y75.8751
G01 X52.6682 Y75.9947
G01 X52.6705 Y76.0158
G01 X52.6724 Y76.0369
G01 X52.6737 Y76.0580
G01 X52.6786 Y76.1576
G01 X52.6793 Y76.1788
G01 X52.6796 Y76.2000
G01 X52.6793 Y76.2212
G01 X52.6786 Y76.2424
G01 X52.6737 Y76.3420
G01 X52.6724 Y76.3631
G01 X52.6705 Y76.3842
G01 X52.6682 Y76.4053
G01 X52.6654 Y76.4263
G01 X52.6507 Y76.5249
G01 X52.6474 Y76.5459
G01 X52.6435 Y76.5667
G01 X52.6391 Y76.5874
G01 X52.6342 Y76.6080
G01 X52.6100 Y76.7048
G01 X52.6046 Y76.7253
G01 X52.5987 Y76.7456
G01 X52.5923 Y76.7658
G01 X52.5854 Y76.7859
G01 X52.5518 Y76.8797
G01 X52.5444 Y76.8996
G01 X52.5365 Y76.9193
G01 X52.5282 Y76.9388
G01 X52.5193 Y76.9580
G01 X52.4674 Y77.0672
G01 X52.4577 Y77.0860
G01 X52.4474 Y77.1046
G01 X52.4368 Y77.1229
G01 X52.3744 Y77.2265
G01 X52.3628 Y77.2442
G01 X52.3508 Y77.2617
G01 X52.2989 Y77.3322
G01 X52.2989 Y78.8597
G01 X52.3165 Y78.8464
G01 X52.3336 Y78.8339
G01 X52.3511 Y78.8219
G01 X52.3689 Y78.8104
G01 X52.3869 Y78.7993
G01 X52.4052 Y78.7886
G01 X52.4238 Y78.7784
G01 X52.4426 Y78.7686
G01 X52.4617 Y78.7593
G01 X52.4809 Y78.7505
G01 X52.5004 Y78.7421
G01 X52.5201 Y78.7343
G01 X52.5400 Y78.7269
G01 X52.5600 Y78.7200
G01 X52.5802 Y78.7136
G01 X52.6006 Y78.7077
G01 X52.6211 Y78.7023
G01 X52.6417 Y78.6974
G01 X52.6624 Y78.6930
G01 X52.6833 Y78.6891
G01 X52.7042 Y78.6857
G01 X52.7252 Y78.6829
G01 X52.7463 Y78.6806
G01 X52.7674 Y78.6787
G01 X52.7885 Y78.6774
G01 X52.8097 Y78.6767
G01 X52.8309 Y78.6764
G01 X53.8491 Y78.6764
G01 X53.8703 Y78.6767
G01 X53.8915 Y78.6774
G01 X53.9126 Y78.6787
G01 X53.9337 Y78.6806
G01 X53.9548 Y78.6829
G01 X53.9758 Y78.6857
G01 X53.9967 Y78.6891
G01 X54.0176 Y78.6930
G01 X54.0383 Y78.6974
G01 X54.0589 Y78.7023
G01 X54.0794 Y78.7077
G01 X54.0998 Y78.7136
G01 X54.1200 Y78.7200
G01 X54.1400 Y78.7269
G01 X54.1599 Y78.7343
G01 X54.1796 Y78.7421
G01 X54.1991 Y78.7505
G01 X54.2183 Y78.7593
G01 X54.2374 Y78.7686
G01 X54.2562 Y78.7784
G01 X54.2748 Y78.7886
G01 X54.2931 Y78.7993
G01 X54.3111 Y78.8104
G01 X54.3289 Y78.8219
G01 X54.3464 Y78.8339
G01 X54.3635 Y78.8464
G01 X54.3811 Y78.8597
G01 X54.3813 Y78.7188
G01 X54.3821 Y78.6976
G01 X54.3865 Y78.6142
G01 X54.3883 Y78.5931
G01 X54.3906 Y78.5720
G01 X54.3956 Y78.5369
G01 X54.4060 Y78.4684
G01 X54.4099 Y78.4476
G01 X54.4143 Y78.4268
G01 X54.4343 Y78.3457
G01 X54.4397 Y78.3252
G01 X54.4456 Y78.3049
G01 X54.4520 Y78.2847
G01 X54.4799 Y78.2059
G01 X54.4873 Y78.1861
G01 X54.4952 Y78.1664
G01 X54.5035 Y78.1469
G01 X54.5124 Y78.1276
G01 X54.5483 Y78.0522
G01 X54.5581 Y78.0334
G01 X54.5683 Y78.0148
G01 X54.5790 Y77.9965
G01 X54.6221 Y77.9250
G01 X54.6337 Y77.9072
G01 X54.6457 Y77.8898
G01 X54.6581 Y77.8726
G01 X54.7081 Y77.8056
G01 X54.7213 Y77.7891
G01 X54.7350 Y77.7729
G01 X54.7909 Y77.7108
G01 X54.8053 Y77.6953
G01 X54.8201 Y77.6801
G01 X55.9631 Y76.5371
G01 X55.9783 Y76.5223
G01 X55.9938 Y76.5079
G01 X56.0400 Y76.4660
G01 X56.0559 Y76.4520
G01 X56.0721 Y76.4383
G01 X56.0886 Y76.4251
G01 X56.1055 Y76.4122
G01 X56.1556 Y76.3751
G01 X56.1728 Y76.3627
G01 X56.1902 Y76.3507
G01 X56.2080 Y76.3391
G01 X56.2795 Y76.2960
G01 X56.2978 Y76.2853
G01 X56.3164 Y76.2751
G01 X56.3352 Y76.2653
G01 X56.3543 Y76.2560
G01 X56.4106 Y76.2294
G01 X56.4299 Y76.2205
G01 X56.4494 Y76.2122
G01 X56.4691 Y76.2043
G01 X56.4889 Y76.1969
G01 X56.5677 Y76.1690
G01 X56.5879 Y76.1626
G01 X56.6082 Y76.1567
G01 X56.6287 Y76.1513
G01 X56.6892 Y76.1362
G01 X56.7098 Y76.1313
G01 X56.7306 Y76.1269
G01 X56.7514 Y76.1230
G01 X56.7723 Y76.1196
G01 X56.8340 Y76.1105
G01 X56.8550 Y76.1076
G01 X56.8761 Y76.1053
G01 X56.8972 Y76.1035
G01 X56.9184 Y76.1022
G01 X56.9806 Y76.0991
G01 X57.0018 Y76.0983
G01 X57.0230 Y76.0981
G01 X70.7531 Y76.0981
G01 X72.0535 Y74.7977
G01 X72.0666 Y74.7111
G01 X72.0705 Y74.6903
G01 X72.0749 Y74.6696
G01 X72.1040 Y74.5522
G01 X72.1094 Y74.5317
G01 X72.1153 Y74.5114
G01 X72.1217 Y74.4912
G01 X72.1622 Y74.3773
G01 X72.1696 Y74.3574
G01 X72.1775 Y74.3377
G01 X72.1858 Y74.3182
G01 X72.1947 Y74.2990
G01 X72.2466 Y74.1898
G01 X72.2563 Y74.1710
G01 X72.2666 Y74.1524
G01 X72.3285 Y74.0486
G01 X72.3396 Y74.0305
G01 X72.3512 Y74.0128
G01 X72.3632 Y73.9953
G01 X72.3756 Y73.9781
G01 X72.4350 Y73.8980
G01 X72.4478 Y73.8811
G01 X72.4610 Y73.8646
G01 X72.4747 Y73.8484
G01 X72.4887 Y73.8325
G01 X72.5557 Y73.7586
G01 X72.5701 Y73.7431
G01 X72.5849 Y73.7279
G01 X72.6001 Y73.7131
G01 X72.6156 Y73.6987
G01 X72.6895 Y73.6317
G01 X72.7054 Y73.6177
G01 X72.7216 Y73.6040
G01 X72.7381 Y73.5908
G01 X72.7550 Y73.5780
G01 X72.8351 Y73.5186
G01 X72.8523 Y73.5062
G01 X72.8698 Y73.4942
G01 X72.8875 Y73.4826
G01 X72.9911 Y73.4202
G01 X73.0094 Y73.4096
G01 X73.0280 Y73.3993
G01 X73.0468 Y73.3896
G01 X73.0658 Y73.3803
G01 X73.1560 Y73.3377
G01 X73.1752 Y73.3288
G01 X73.1947 Y73.3205
G01 X73.2144 Y73.3126
G01 X73.2343 Y73.3052
G01 X73.3281 Y73.2716
G01 X73.3482 Y73.2647
G01 X73.3684 Y73.2583
G01 X73.3887 Y73.2524
G01 X73.4092 Y73.2470
G01 X73.5060 Y73.2228
G01 X73.5266 Y73.2179
G01 X73.5473 Y73.2135
G01 X73.5681 Y73.2096
G01 X73.5891 Y73.2063
G01 X73.6877 Y73.1916
G01 X73.7087 Y73.1888
G01 X73.7298 Y73.1865
G01 X73.7509 Y73.1846
G01 X73.7720 Y73.1833
G01 X73.8716 Y73.1784
G01 X73.8928 Y73.1777
G01 X73.9140 Y73.1774
G01 X73.9352 Y73.1777
G01 X73.9564 Y73.1784
G01 X74.0560 Y73.1833
G01 X74.0771 Y73.1846
G01 X74.0982 Y73.1865
G01 X74.1193 Y73.1888
G01 X74.1403 Y73.1916
G01 X74.2389 Y73.2063
G01 X74.2599 Y73.2096
G01 X74.2807 Y73.2135
G01 X74.3014 Y73.2179
G01 X74.3220 Y73.2228
G01 X74.4188 Y73.2470
G01 X74.4393 Y73.2524
G01 X74.4596 Y73.2583
G01 X74.4798 Y73.2647
G01 X74.4999 Y73.2716
G01 X74.6136 Y73.3126
G01 X74.6333 Y73.3205
G01 X74.6528 Y73.3288
G01 X74.6720 Y73.3377
G01 X74.7622 Y73.3803
G01 X74.7812 Y73.3896
G01 X74.8000 Y73.3993
G01 X74.8186 Y73.4096
G01 X74.8369 Y73.4202
G01 X74.9224 Y73.4715
G01 X74.9405 Y73.4826
G01 X74.9582 Y73.4942
G01 X74.9757 Y73.5062
G01 X74.9929 Y73.5186
G01 X75.0730 Y73.5780
G01 X75.0899 Y73.5908
G01 X75.1064 Y73.6040
G01 X75.1226 Y73.6177
G01 X75.1385 Y73.6317
G01 X75.2124 Y73.6987
G01 X75.2279 Y73.7131
G01 X75.2431 Y73.7279
G01 X75.2579 Y73.7431
G01 X75.2723 Y73.7586
G01 X75.3533 Y73.8484
G01 X75.3670 Y73.8646
G01 X75.3802 Y73.8811
G01 X75.3930 Y73.8980
G01 X75.4524 Y73.9781
G01 X75.4648 Y73.9953
G01 X75.4768 Y74.0128
G01 X75.4884 Y74.0305
G01 X75.4995 Y74.0486
G01 X75.5508 Y74.1341
G01 X75.5614 Y74.1524
G01 X75.5717 Y74.1710
G01 X75.5814 Y74.1898
G01 X75.5907 Y74.2088
G01 X75.6333 Y74.2990
G01 X75.6422 Y74.3182
G01 X75.6505 Y74.3377
G01 X75.6584 Y74.3574
G01 X75.6658 Y74.3773
G01 X75.6994 Y74.4711
G01 X75.7063 Y74.4912
G01 X75.7127 Y74.5114
G01 X75.7186 Y74.5317
G01 X75.7482 Y74.6490
G01 X75.7531 Y74.6696
G01 X75.7575 Y74.6903
G01 X75.7614 Y74.7111
G01 X75.7647 Y74.7321
G01 X75.7822 Y74.8517
G01 X75.7845 Y74.8728
G01 X75.7864 Y74.8939
G01 X75.7877 Y74.9150
G01 X75.7926 Y75.0146
G01 X75.7933 Y75.0358
G01 X75.7936 Y75.0570
G01 X75.7933 Y75.0782
G01 X75.7926 Y75.0994
G01 X75.7877 Y75.1990
G01 X75.7864 Y75.2201
G01 X75.7845 Y75.2412
G01 X75.7822 Y75.2623
G01 X75.7647 Y75.3819
G01 X75.7614 Y75.4029
G01 X75.7575 Y75.4237
G01 X75.7531 Y75.4444
G01 X75.7482 Y75.4650
G01 X75.7186 Y75.5823
G01 X75.7127 Y75.6026
G01 X75.7063 Y75.6228
G01 X75.6994 Y75.6429
G01 X75.6658 Y75.7367
G01 X75.6584 Y75.7566
G01 X75.6505 Y75.7763
G01 X75.6422 Y75.7958
G01 X75.6333 Y75.8150
G01 X75.5907 Y75.9052
G01 X75.5814 Y75.9242
G01 X75.5717 Y75.9430
G01 X75.5614 Y75.9616
G01 X75.4995 Y76.0654
G01 X75.4884 Y76.0835
G01 X75.4768 Y76.1012
G01 X75.4648 Y76.1187
G01 X75.4524 Y76.1359
G01 X75.3930 Y76.2160
G01 X75.3802 Y76.2329
G01 X75.3670 Y76.2494
G01 X75.3533 Y76.2656
G01 X75.2723 Y76.3554
G01 X75.2579 Y76.3709
G01 X75.2431 Y76.3861
G01 X75.2279 Y76.4009
G01 X75.2124 Y76.4153
G01 X75.1385 Y76.4823
G01 X75.1226 Y76.4963
G01 X75.1064 Y76.5100
G01 X75.0899 Y76.5232
G01 X75.0730 Y76.5360
G01 X74.9929 Y76.5954
G01 X74.9757 Y76.6078
G01 X74.9582 Y76.6198
G01 X74.9405 Y76.6314
G01 X74.9224 Y76.6425
G01 X74.8186 Y76.7044
G01 X74.8000 Y76.7147
G01 X74.7812 Y76.7244
G01 X74.7622 Y76.7337
G01 X74.6720 Y76.7763
G01 X74.6528 Y76.7852
G01 X74.6333 Y76.7935
G01 X74.6136 Y76.8014
G01 X74.5937 Y76.8088
G01 X74.4798 Y76.8493
G01 X74.4596 Y76.8557
G01 X74.4393 Y76.8616
G01 X74.4188 Y76.8670
G01 X74.3014 Y76.8961
G01 X74.2807 Y76.9005
G01 X74.2599 Y76.9044
G01 X74.1733 Y76.9175
G01 X72.4339 Y78.6569
G01 X72.4187 Y78.6717
G01 X72.4032 Y78.6861
G01 X72.3570 Y78.7280
G01 X72.3411 Y78.7420
G01 X72.3249 Y78.7557
G01 X72.3084 Y78.7689
G01 X72.2414 Y78.8189
G01 X72.2242 Y78.8313
G01 X72.2068 Y78.8433
G01 X72.1890 Y78.8549
G01 X72.1709 Y78.8660
G01 X72.0992 Y78.9087
G01 X72.0806 Y78.9189
G01 X72.0618 Y78.9287
G01 X71.9864 Y78.9646
G01 X71.9671 Y78.9735
G01 X71.9476 Y78.9818
G01 X71.9279 Y78.9897
G01 X71.8494 Y79.0181
G01 X71.8293 Y79.0250
G01 X71.8091 Y79.0314
G01 X71.7888 Y79.0373
G01 X71.7683 Y79.0427
G01 X71.6872 Y79.0627
G01 X71.6664 Y79.0671
G01 X71.6456 Y79.0710
G01 X71.5630 Y79.0835
G01 X71.5420 Y79.0864
G01 X71.5209 Y79.0887
G01 X71.4998 Y79.0905
G01 X71.4786 Y79.0918
G01 X71.4164 Y79.0949
G01 X71.3952 Y79.0957
G01 X71.3740 Y79.0959
G01 X57.6439 Y79.0959
G01 X57.4357 Y79.3041
G01 X57.4427 Y79.3302
G01 X57.4476 Y79.3508
G01 X57.4520 Y79.3715
G01 X57.4559 Y79.3924
G01 X57.4593 Y79.4133
G01 X57.4621 Y79.4343
G01 X57.4644 Y79.4554
G01 X57.4663 Y79.4765
G01 X57.4676 Y79.4976
G01 X57.4683 Y79.5188
G01 X57.4686 Y79.5400
G01 X57.4686 Y81.2400
G01 X57.4683 Y81.2612
G01 X57.4676 Y81.2824
G01 X57.4663 Y81.3035
G01 X57.4644 Y81.3246
G01 X57.4621 Y81.3457
G01 X57.4593 Y81.3667
G01 X57.4559 Y81.3876
G01 X57.4520 Y81.4085
G01 X57.4476 Y81.4292
G01 X57.4427 Y81.4498
G01 X57.4373 Y81.4703
G01 X57.4314 Y81.4907
G01 X57.4250 Y81.5109
G01 X57.4181 Y81.5309
G01 X57.4107 Y81.5508
G01 X57.4029 Y81.5705
G01 X57.3945 Y81.5900
G01 X57.3857 Y81.6092
G01 X57.3764 Y81.6283
G01 X57.3666 Y81.6471
G01 X57.3564 Y81.6657
G01 X57.3457 Y81.6840
G01 X57.3346 Y81.7020
G01 X57.3231 Y81.7198
G01 X57.3111 Y81.7373
G01 X57.2986 Y81.7544
G01 X57.2858 Y81.7713
G01 X57.2726 Y81.7879
G01 X57.2589 Y81.8041
G01 X57.2449 Y81.8200
G01 X57.2305 Y81.8355
G01 X57.2157 Y81.8507
G01 X57.2005 Y81.8655
G01 X57.1850 Y81.8799
G01 X57.1691 Y81.8939
G01 X57.1529 Y81.9076
G01 X57.1363 Y81.9208
G01 X57.1194 Y81.9336
G01 X57.1023 Y81.9461
G01 X57.0848 Y81.9581
G01 X57.0670 Y81.9696
G01 X57.0490 Y81.9807
G01 X57.0307 Y81.9914
G01 X57.0121 Y82.0016
G01 X56.9933 Y82.0114
G01 X56.9742 Y82.0207
G01 X56.9550 Y82.0295
G01 X56.9355 Y82.0379
G01 X56.9158 Y82.0457
G01 X56.8959 Y82.0531
G01 X56.8759 Y82.0600
G01 X56.8557 Y82.0664
G01 X56.8353 Y82.0723
G01 X56.8148 Y82.0777
G01 X56.7942 Y82.0826
G01 X56.7735 Y82.0870
G01 X56.7526 Y82.0909
G01 X56.7317 Y82.0943
G01 X56.7107 Y82.0971
G01 X56.6896 Y82.0994
G01 X56.6685 Y82.1013
G01 X56.6474 Y82.1026
G01 X56.6262 Y82.1033
G01 X56.6050 Y82.1036
G01 X55.1550 Y82.1036
G01 X55.1338 Y82.1033
G01 X55.1126 Y82.1026
G01 X55.0915 Y82.1013
G01 X55.0704 Y82.0994
G01 X55.0493 Y82.0971
G01 X55.0283 Y82.0943
G01 X55.0074 Y82.0909
G01 X54.9865 Y82.0870
G01 X54.9658 Y82.0826
G01 X54.9452 Y82.0777
G01 X54.9247 Y82.0723
G01 X54.9043 Y82.0664
G01 X54.8841 Y82.0600
G01 X54.8641 Y82.0531
G01 X54.8442 Y82.0457
G01 X54.8245 Y82.0379
G01 X54.8050 Y82.0295
G01 X54.7858 Y82.0207
G01 X54.7667 Y82.0114
G01 X54.7479 Y82.0016
G01 X54.7293 Y81.9914
G01 X54.7110 Y81.9807
G01 X54.6930 Y81.9696
G01 X54.6752 Y81.9581
G01 X54.6577 Y81.9461
G01 X54.6406 Y81.9336
G01 X54.6237 Y81.9208
G01 X54.6071 Y81.9076
G01 X54.5909 Y81.8939
G01 X54.5750 Y81.8799
G01 X54.5595 Y81.8655
G01 X54.5443 Y81.8507
G01 X54.5295 Y81.8355
G01 X54.5151 Y81.8200
G01 X54.5020 Y81.8052
G00 Z5.0000
G00 X55.1550 Y88.6860
G01 F100.00
G01 Z-0.4000
G01 F325.00
G01 X56.6050 Y88.6860
G01 X56.6175 Y88.6863
G01 X56.6299 Y88.6872
G01 X56.6484 Y88.6897
G01 X56.6607 Y88.6922
G01 X56.6727 Y88.6952
G01 X56.6906 Y88.7008
G01 X56.7022 Y88.7053
G01 X56.7136 Y88.7104
G01 X56.7302 Y88.7190
G01 X56.7409 Y88.7254
G01 X56.7513 Y88.7323
G01 X56.7661 Y88.7437
G01 X56.7801 Y88.7560
G01 X56.7890 Y88.7649
G01 X56.7973 Y88.7741
G01 X56.8090 Y88.7887
G01 X56.8162 Y88.7989
G01 X56.8260 Y88.8148
G01 X56.8319 Y88.8258
G01 X56.8372 Y88.8371
G01 X56.8420 Y88.8486
G01 X56.8481 Y88.8663
G01 X56.8514 Y88.8783
G01 X56.8553 Y88.8966
G01 X56.8578 Y88.9151
G01 X56.8589 Y88.9338
G01 X56.8590 Y89.2807
G01 X73.6600 Y89.2807
G01 X73.6725 Y89.2810
G01 X73.7347 Y89.2840
G01 X73.7472 Y89.2850
G01 X73.7595 Y89.2865
G01 X73.8212 Y89.2956
G01 X73.8335 Y89.2978
G01 X73.8457 Y89.3005
G01 X73.9061 Y89.3157
G01 X73.9182 Y89.3190
G01 X73.9300 Y89.3229
G01 X73.9887 Y89.3439
G01 X74.0003 Y89.3484
G01 X74.0117 Y89.3534
G01 X74.0681 Y89.3801
G01 X74.0792 Y89.3857
G01 X74.0901 Y89.3918
G01 X74.1435 Y89.4239
G01 X74.1541 Y89.4306
G01 X74.1643 Y89.4377
G01 X74.2143 Y89.4749
G01 X74.2242 Y89.4825
G01 X74.2336 Y89.4907
G01 X74.2798 Y89.5326
G01 X74.2888 Y89.5412
G01 X74.2974 Y89.5502
G01 X74.3393 Y89.5964
G01 X74.3475 Y89.6058
G01 X74.3551 Y89.6157
G01 X74.3923 Y89.6657
G01 X74.3994 Y89.6759
G01 X74.4061 Y89.6865
G01 X74.4382 Y89.7399
G01 X74.4443 Y89.7508
G01 X74.4499 Y89.7619
G01 X74.4766 Y89.8183
G01 X74.4816 Y89.8297
G01 X74.4861 Y89.8413
G01 X74.5071 Y89.9000
G01 X74.5110 Y89.9118
G01 X74.5143 Y89.9239
G01 X74.5295 Y89.9843
G01 X74.5322 Y89.9965
G01 X74.5344 Y90.0088
G01 X74.5435 Y90.0705
G01 X74.5450 Y90.0828
G01 X74.5460 Y90.0953
G01 X74.5492 Y90.1638
G01 X74.5493 Y91.7116
G01 X74.5984 Y91.7189
G01 X74.6168 Y91.7223
G01 X74.6947 Y91.7417
G01 X74.7127 Y91.7469
G01 X74.7883 Y91.7739
G01 X74.7999 Y91.7784
G01 X74.8113 Y91.7834
G01 X74.8782 Y91.8151
G01 X74.8893 Y91.8207
G01 X88.9000 Y91.8207
G01 X88.9125 Y91.8210
G01 X88.9747 Y91.8240
G01 X88.9872 Y91.8250
G01 X88.9995 Y91.8265
G01 X89.0612 Y91.8356
G01 X89.0796 Y91.8391
G01 X89.1461 Y91.8557
G01 X89.1582 Y91.8590
G01 X89.1700 Y91.8629
G01 X89.2287 Y91.8839
G01 X89.2403 Y91.8884
G01 X89.2517 Y91.8934
G01 X89.3081 Y91.9201
G01 X89.3192 Y91.9257
G01 X89.3301 Y91.9318
G01 X89.3835 Y91.9639
G01 X89.3941 Y91.9706
G01 X89.4043 Y91.9777
G01 X89.4543 Y92.0149
G01 X89.4689 Y92.0266
G01 X89.5198 Y92.0726
G01 X89.5288 Y92.0812
G01 X89.5374 Y92.0902
G01 X89.5793 Y92.1364
G01 X89.5875 Y92.1458
G01 X89.5951 Y92.1557
G01 X89.6323 Y92.2057
G01 X89.6394 Y92.2159
G01 X89.6461 Y92.2265
G01 X89.6782 Y92.2799
G01 X89.6843 Y92.2908
G01 X89.6899 Y92.3019
G01 X89.7166 Y92.3583
G01 X89.7216 Y92.3697
G01 X89.7261 Y92.3813
