(G-CODE GENERATED BY FLATCAM v8.994 - www.flatcam.org - Version Date: 2020/11/7)

(Name: copper_top.gbr_noncopper_mt_paint_cnc)
(Type: G-code from Geometry)
(Units: MM)

(Created on Sunday, 03 April 2022 at 13:14)

(This preprocessor is the default preprocessor used by FlatCAM.)
(It is made to work with MACH3 compatible motion controllers.)

(TOOL DIAMETER: 1.5875 mm)
(Feedrate_XY: 350.0 mm/min)
(Feedrate_Z: 190.0 mm/min)
(Feedrate rapids 400.0 mm/min)

(Z_Cut: -0.4 mm)
(Z_Move: 5.0 mm)
(Z Start: None mm)
(Z End: 15.0 mm)
(X,Y End: None mm)
(Steps per circle: 64)
(Preprocessor Geometry: default)

(X range:   17.3799 ...  135.0201  mm)
(Y range:    1.8099 ...   99.7901  mm)

(Spindle Speed: 22250.0 RPM)
G21
G90
G94

G01 F350.00

M5
G00 Z15.0000
G00 X0.0000 Y0.0000
T2
M6    
(MSG, Change to Tool Dia = 1.5875)
M0
G00 Z15.0000

M03 S22250.0
G01 F350.00
G00 X17.3799 Y1.8099
G01 F190.00
G01 Z-0.4000
G01 F350.00
G01 X17.3799 Y6.1903
G01 X33.0200 Y6.1903
G01 X33.0589 Y6.1913
G01 X33.2458 Y6.2004
G01 X33.2846 Y6.2033
G01 X33.3233 Y6.2081
G01 X33.5083 Y6.2355
G01 X33.5467 Y6.2422
G01 X33.5847 Y6.2507
G01 X33.7661 Y6.2962
G01 X33.8037 Y6.3065
G01 X33.8407 Y6.3188
G01 X34.0168 Y6.3818
G01 X34.0531 Y6.3958
G01 X34.0887 Y6.4116
G01 X34.2578 Y6.4916
G01 X34.2926 Y6.5091
G01 X34.3265 Y6.5283
G01 X34.4870 Y6.6244
G01 X34.5199 Y6.6453
G01 X34.5517 Y6.6677
G01 X34.6283 Y6.7245
G01 X34.7020 Y6.7791
G01 X34.7327 Y6.8031
G01 X34.7622 Y6.8285
G01 X34.9150 Y6.9674
G01 X43.5866 Y15.6386
G01 X49.3696 Y15.6401
G01 X68.5800 Y15.6401
G01 X68.6228 Y15.6412
G01 X68.6597 Y15.6439
G01 X68.6782 Y15.6459
G01 X68.7148 Y15.6511
G01 X68.7733 Y15.6623
G01 X68.8113 Y15.6716
G01 X68.8302 Y15.6770
G01 X68.8674 Y15.6890
G01 X68.8897 Y15.6971
G01 X68.9081 Y15.7044
G01 X68.9443 Y15.7202
G01 X68.9797 Y15.7378
G01 X68.9970 Y15.7473
G01 X69.0348 Y15.7690
G01 X69.0507 Y15.7788
G01 X69.0818 Y15.7996
G01 X69.1119 Y15.8218
G01 X69.1312 Y15.8370
G01 X69.1471 Y15.8503
G01 X69.1626 Y15.8641
G01 X69.1777 Y15.8782
G01 X69.1925 Y15.8927
G01 X69.2069 Y15.9075
G01 X69.2421 Y15.9465
G01 X69.2672 Y15.9769
G01 X69.2907 Y16.0084
G01 X69.3019 Y16.0246
G01 X69.3148 Y16.0444
G01 X69.3255 Y16.0618
G01 X69.3359 Y16.0795
G01 X69.3457 Y16.0975
G01 X69.3551 Y16.1157
G01 X69.3641 Y16.1342
G01 X69.3830 Y16.1771
G01 X69.3974 Y16.2133
G01 X69.4101 Y16.2501
G01 X69.4209 Y16.2875
G01 X69.4267 Y16.3105
G01 X69.4349 Y16.3494
G01 X69.4411 Y16.3885
G01 X69.4453 Y16.4249
G01 X69.4473 Y16.4462
G01 X69.4487 Y16.4674
G01 X69.4496 Y16.4887
G01 X69.4499 Y16.5100
G01 X69.4499 Y31.7500
G01 X69.4495 Y31.7742
G01 X69.4477 Y31.8113
G01 X69.4461 Y31.8297
G01 X69.4417 Y31.8665
G01 X69.4356 Y31.9031
G01 X69.4290 Y31.9375
G01 X69.4245 Y31.9575
G01 X69.4195 Y31.9773
G01 X69.4141 Y31.9970
G01 X69.4081 Y32.0166
G01 X69.4016 Y32.0360
G01 X69.3946 Y32.0552
G01 X69.3859 Y32.0774
G01 X69.3700 Y32.1139
G01 X69.3523 Y32.1495
G01 X69.3427 Y32.1669
G01 X69.3210 Y32.2048
G01 X69.3010 Y32.2364
G01 X69.2795 Y32.2670
G01 X69.2658 Y32.2850
G01 X69.2530 Y32.3012
G01 X69.2397 Y32.3171
G01 X69.2259 Y32.3326
G01 X69.2118 Y32.3477
G01 X69.1973 Y32.3625
G01 X69.1825 Y32.3769
G01 X69.1435 Y32.4121
G01 X69.1284 Y32.4249
G01 X69.0975 Y32.4492
G01 X69.0654 Y32.4719
G01 X69.0456 Y32.4848
G01 X69.0282 Y32.4955
G01 X69.0105 Y32.5059
G01 X68.9925 Y32.5157
G01 X68.9743 Y32.5251
G01 X68.9558 Y32.5341
G01 X68.9371 Y32.5425
G01 X68.8949 Y32.5604
G01 X68.8767 Y32.5674
G01 X68.8399 Y32.5801
G01 X68.8025 Y32.5909
G01 X68.7795 Y32.5967
G01 X68.7601 Y32.6010
G01 X68.7211 Y32.6082
G01 X68.6818 Y32.6135
G01 X68.6438 Y32.6173
G01 X68.6226 Y32.6187
G01 X68.6013 Y32.6196
G01 X68.5800 Y32.6199
G01 X61.7569 Y32.6199
G01 X61.7569 Y43.4531
G01 X68.5800 Y43.4531
G01 X68.6228 Y43.4542
G01 X68.6413 Y43.4553
G01 X68.6782 Y43.4589
G01 X68.7148 Y43.4641
G01 X68.7733 Y43.4753
G01 X68.7923 Y43.4797
G01 X68.8302 Y43.4900
G01 X68.8489 Y43.4958
G01 X68.8711 Y43.5033
G01 X68.9081 Y43.5174
G01 X68.9263 Y43.5251
G01 X68.9621 Y43.5418
G01 X68.9797 Y43.5508
G01 X68.9970 Y43.5603
G01 X69.0348 Y43.5820
G01 X69.0507 Y43.5918
G01 X69.0818 Y43.6126
G01 X69.0970 Y43.6235
G01 X69.1150 Y43.6372
G01 X69.1312 Y43.6500
G01 X69.1471 Y43.6633
G01 X69.1626 Y43.6771
G01 X69.1777 Y43.6912
G01 X69.1925 Y43.7057
G01 X69.2069 Y43.7205
G01 X69.2421 Y43.7595
G01 X69.2672 Y43.7899
G01 X69.2907 Y43.8214
G01 X69.3019 Y43.8376
G01 X69.3148 Y43.8574
G01 X69.3255 Y43.8748
G01 X69.3359 Y43.8925
G01 X69.3457 Y43.9105
G01 X69.3551 Y43.9287
G01 X69.3641 Y43.9472
G01 X69.3725 Y43.9659
G01 X69.3904 Y44.0081
G01 X69.4040 Y44.0446
G01 X69.4101 Y44.0631
G01 X69.4209 Y44.1005
G01 X69.4267 Y44.1235
G01 X69.4310 Y44.1429
G01 X69.4349 Y44.1624
G01 X69.4411 Y44.2015
G01 X69.4453 Y44.2379
G01 X69.4473 Y44.2592
G01 X69.4487 Y44.2804
G01 X69.4496 Y44.3017
G01 X69.4499 Y44.3230
G01 X69.4499 Y59.5630
G01 X69.4495 Y59.5872
G01 X69.4477 Y59.6243
G01 X69.4441 Y59.6612
G01 X69.4389 Y59.6978
G01 X69.4290 Y59.7505
G01 X69.4245 Y59.7705
G01 X69.4195 Y59.7903
G01 X69.4141 Y59.8100
G01 X69.4081 Y59.8296
G01 X69.4016 Y59.8490
G01 X69.3932 Y59.8719
G01 X69.3782 Y59.9087
G01 X69.3614 Y59.9448
G01 X69.3427 Y59.9799
G01 X69.3210 Y60.0178
G01 X69.3010 Y60.0494
G01 X69.2795 Y60.0800
G01 X69.2530 Y60.1142
G01 X69.2397 Y60.1301
G01 X69.2259 Y60.1456
G01 X69.2118 Y60.1607
G01 X69.1973 Y60.1755
G01 X69.1825 Y60.1899
G01 X69.1672 Y60.2039
G01 X69.1435 Y60.2251
G01 X69.1284 Y60.2379
G01 X69.0975 Y60.2622
G01 X69.0654 Y60.2849
G01 X69.0456 Y60.2978
G01 X69.0282 Y60.3085
G01 X69.0105 Y60.3189
G01 X68.9925 Y60.3287
G01 X68.9743 Y60.3381
G01 X68.9558 Y60.3471
G01 X68.9129 Y60.3660
G01 X68.8767 Y60.3804
G01 X68.8399 Y60.3931
G01 X68.8025 Y60.4039
G01 X68.7795 Y60.4097
G01 X68.7601 Y60.4140
G01 X68.7391 Y60.4182
G01 X68.7391 Y62.7811
G01 X71.9659 Y66.0079
G01 X72.8049 Y66.0079
G01 X72.8767 Y65.9547
G01 X72.9086 Y65.9322
G01 X72.9415 Y65.9114
G01 X73.0438 Y65.8503
G01 X73.0609 Y65.8409
G01 X73.0957 Y65.8234
G01 X73.2035 Y65.7727
G01 X73.2395 Y65.7578
G01 X73.3517 Y65.7174
G01 X73.3887 Y65.7052
G01 X73.4262 Y65.6948
G01 X73.5229 Y65.6706
G01 X73.5419 Y65.6661
G01 X73.5801 Y65.6585
G01 X73.6979 Y65.6407
G01 X73.7366 Y65.6360
G01 X73.7755 Y65.6331
G01 X73.8751 Y65.6282
G01 X73.9140 Y65.6272
G01 X73.9529 Y65.6282
G01 X74.0720 Y65.6343
G01 X74.0914 Y65.6360
G01 X74.1301 Y65.6407
G01 X74.2287 Y65.6554
G01 X74.2671 Y65.6620
G01 X74.3051 Y65.6706
G01 X74.4018 Y65.6948
G01 X74.4206 Y65.6998
G01 X74.4579 Y65.7111
G01 X74.5885 Y65.7578
G01 X74.6245 Y65.7727
G01 X74.7323 Y65.8234
G01 X74.7671 Y65.8409
G01 X74.8010 Y65.8601
G01 X74.8865 Y65.9114
G01 X74.9194 Y65.9322
G01 X74.9513 Y65.9547
G01 X75.0314 Y66.0141
G01 X75.0621 Y66.0380
G01 X75.0916 Y66.0635
G01 X75.1797 Y66.1437
G01 X75.2073 Y66.1713
G01 X75.2206 Y66.1855
G01 X75.2875 Y66.2594
G01 X75.3130 Y66.2889
G01 X75.3369 Y66.3196
G01 X75.3963 Y66.3997
G01 X75.4188 Y66.4316
G01 X75.4396 Y66.4645
G01 X75.4909 Y66.5500
G01 X75.5101 Y66.5839
G01 X75.5276 Y66.6187
G01 X75.5702 Y66.7088
G01 X75.5783 Y66.7265
G01 X75.5932 Y66.7625
G01 X75.6336 Y66.8747
G01 X75.6458 Y66.9117
G01 X75.6562 Y66.9492
G01 X75.6849 Y67.0649
G01 X75.6890 Y67.0839
G01 X75.6956 Y67.1223
G01 X75.7103 Y67.2209
G01 X75.7150 Y67.2596
G01 X75.7179 Y67.2985
G01 X75.7228 Y67.3981
G01 X75.7238 Y67.4370
G01 X75.7228 Y67.4759
G01 X75.7179 Y67.5755
G01 X75.7150 Y67.6144
G01 X75.7103 Y67.6531
G01 X75.6956 Y67.7517
G01 X75.6890 Y67.7901
G01 X75.6804 Y67.8281
G01 X75.6512 Y67.9436
G01 X75.6399 Y67.9809
G01 X75.6336 Y67.9993
G01 X75.6000 Y68.0932
G01 X75.5860 Y68.1296
G01 X75.5702 Y68.1652
G01 X75.5276 Y68.2553
G01 X75.5101 Y68.2901
G01 X75.4909 Y68.3240
G01 X75.4396 Y68.4095
G01 X75.4188 Y68.4424
G01 X75.3963 Y68.4743
G01 X75.3369 Y68.5544
G01 X75.3130 Y68.5851
G01 X75.2875 Y68.6146
G01 X75.2206 Y68.6885
G01 X75.1937 Y68.7167
G01 X75.1655 Y68.7436
G01 X75.0916 Y68.8105
G01 X75.0621 Y68.8360
G01 X75.0314 Y68.8599
G01 X74.9355 Y68.9307
G01 X74.9031 Y68.9524
G01 X74.8865 Y68.9626
G01 X74.8010 Y69.0139
G01 X74.7671 Y69.0331
G01 X74.7323 Y69.0506
G01 X74.6422 Y69.0932
G01 X74.6066 Y69.1090
G01 X74.5702 Y69.1230
G01 X74.4763 Y69.1566
G01 X74.4393 Y69.1688
G01 X74.4018 Y69.1792
G01 X74.2861 Y69.2079
G01 X74.2671 Y69.2120
G01 X74.2287 Y69.2186
G01 X74.1301 Y69.2333
G01 X74.0914 Y69.2380
G01 X74.0525 Y69.2409
G01 X73.9529 Y69.2458
G01 X73.9140 Y69.2468
G01 X73.8751 Y69.2458
G01 X73.7755 Y69.2409
G01 X73.7366 Y69.2380
G01 X73.6979 Y69.2333
G01 X73.5993 Y69.2186
G01 X73.5609 Y69.2120
G01 X73.5419 Y69.2079
G01 X73.4262 Y69.1792
G01 X73.4074 Y69.1742
G01 X73.3701 Y69.1629
G01 X73.2395 Y69.1162
G01 X73.2035 Y69.1013
G01 X73.1858 Y69.0932
G01 X73.0782 Y69.0420
G01 X73.0609 Y69.0331
G01 X73.0270 Y69.0139
G01 X72.9415 Y68.9626
G01 X72.9086 Y68.9418
G01 X72.8767 Y68.9193
G01 X72.8049 Y68.8661
G01 X71.3545 Y68.8658
G01 X71.2728 Y68.8621
G01 X71.2339 Y68.8592
G01 X71.1953 Y68.8544
G01 X71.1336 Y68.8453
G01 X71.1144 Y68.8422
G01 X71.0761 Y68.8346
G01 X70.9779 Y68.8100
G01 X70.9406 Y68.7986
G01 X70.9222 Y68.7923
G01 X70.8635 Y68.7713
G01 X70.8271 Y68.7573
G01 X70.7915 Y68.7415
G01 X70.7351 Y68.7148
G01 X70.7003 Y68.6973
G01 X70.6664 Y68.6781
G01 X70.6130 Y68.6461
G01 X70.5801 Y68.6252
G01 X70.5640 Y68.6142
G01 X70.4981 Y68.5657
G01 X70.4674 Y68.5417
G01 X70.4379 Y68.5162
G01 X70.3917 Y68.4744
G01 X70.3635 Y68.4475
G01 X66.2995 Y64.3835
G01 X66.2726 Y64.3553
G01 X66.2179 Y64.2945
G01 X66.1931 Y64.2644
G01 X66.1813 Y64.2489
G01 X66.1442 Y64.1988
G01 X66.1218 Y64.1669
G01 X66.1009 Y64.1340
G01 X66.0591 Y64.0637
G01 X66.0407 Y64.0294
G01 X66.0322 Y64.0119
G01 X66.0055 Y63.9555
G01 X65.9897 Y63.9199
G01 X65.9757 Y63.8835
G01 X65.9547 Y63.8248
G01 X65.9425 Y63.7878
G01 X65.9370 Y63.7691
G01 X65.9124 Y63.6709
G01 X65.9048 Y63.6326
G01 X65.9017 Y63.6134
G01 X65.8926 Y63.5517
G01 X65.8878 Y63.5131
G01 X65.8849 Y63.4742
G01 X65.8819 Y63.4119
G01 X65.8809 Y63.3730
G01 X65.8809 Y60.4329
G01 X43.5881 Y60.4329
G01 X24.6420 Y79.3790
G01 X24.6138 Y79.4058
G01 X24.4752 Y79.5315
G01 X24.4457 Y79.5569
G01 X24.4150 Y79.5809
G01 X24.2647 Y79.6923
G01 X24.2329 Y79.7147
G01 X24.2000 Y79.7356
G01 X24.0395 Y79.8317
G01 X24.0056 Y79.8509
G01 X23.9708 Y79.8684
G01 X23.8017 Y79.9484
G01 X23.7661 Y79.9642
G01 X23.7298 Y79.9782
G01 X23.5537 Y80.0412
G01 X23.5167 Y80.0535
G01 X23.4791 Y80.0638
G01 X23.2977 Y80.1093
G01 X23.2597 Y80.1178
G01 X23.2213 Y80.1245
G01 X23.0363 Y80.1519
G01 X22.9976 Y80.1567
G01 X22.9782 Y80.1584
G01 X22.7719 Y80.1687
G01 X22.7330 Y80.1697
G01 X17.3799 Y80.1697
G01 X17.3799 Y99.7901
G01 X135.0201 Y99.7901
G01 X135.0201 Y77.4836
G01 X134.8932 Y77.4382
G01 X134.8569 Y77.4242
G01 X134.8213 Y77.4084
G01 X134.6522 Y77.3284
G01 X134.6174 Y77.3109
G01 X134.6003 Y77.3015
G01 X134.4065 Y77.1853
G01 X134.3901 Y77.1747
G01 X134.3583 Y77.1523
G01 X134.2080 Y77.0409
G01 X134.1773 Y77.0169
G01 X134.1478 Y76.9915
G01 X134.0092 Y76.8658
G01 X133.9810 Y76.8390
G01 X118.2617 Y61.1197
G01 X109.3791 Y61.1197
G01 X109.3791 Y63.6609
G01 X109.4323 Y63.7327
G01 X109.4548 Y63.7646
G01 X109.4756 Y63.7975
G01 X109.5269 Y63.8830
G01 X109.5461 Y63.9169
G01 X109.5550 Y63.9342
G01 X109.6143 Y64.0595
G01 X109.6220 Y64.0774
G01 X109.6360 Y64.1138
G01 X109.6696 Y64.2077
G01 X109.6818 Y64.2447
G01 X109.6922 Y64.2822
G01 X109.7164 Y64.3789
G01 X109.7250 Y64.4169
G01 X109.7316 Y64.4553
G01 X109.7463 Y64.5539
G01 X109.7510 Y64.5926
G01 X109.7539 Y64.6315
G01 X109.7595 Y64.7505
G01 X109.7595 Y64.7895
G01 X109.7588 Y64.8089
G01 X109.7539 Y64.9085
G01 X109.7510 Y64.9474
G01 X109.7463 Y64.9861
G01 X109.7316 Y65.0847
G01 X109.7250 Y65.1231
G01 X109.7209 Y65.1421
G01 X109.6872 Y65.2766
G01 X109.6818 Y65.2953
G01 X109.6696 Y65.3323
G01 X109.6292 Y65.4445
G01 X109.6143 Y65.4805
G01 X109.5636 Y65.5883
G01 X109.5461 Y65.6231
G01 X109.5269 Y65.6570
G01 X109.4654 Y65.7591
G01 X109.4437 Y65.7915
G01 X109.3729 Y65.8874
G01 X109.3490 Y65.9181
G01 X109.3235 Y65.9476
G01 X109.2566 Y66.0215
G01 X109.2297 Y66.0497
G01 X109.2015 Y66.0766
G01 X109.1276 Y66.1435
G01 X109.0981 Y66.1690
G01 X109.0674 Y66.1929
G01 X108.9873 Y66.2523
G01 X108.9554 Y66.2748
G01 X108.9225 Y66.2956
G01 X108.8202 Y66.3567
G01 X108.8031 Y66.3661
G01 X108.7683 Y66.3836
G01 X108.6782 Y66.4262
G01 X108.6426 Y66.4420
G01 X108.6062 Y66.4560
G01 X108.5123 Y66.4896
G01 X108.4753 Y66.5018
G01 X108.4378 Y66.5122
G01 X108.3411 Y66.5364
G01 X108.3031 Y66.5450
G01 X108.2647 Y66.5516
G01 X108.1661 Y66.5663
G01 X108.1467 Y66.5689
G01 X108.1080 Y66.5727
G01 X107.9889 Y66.5788
G01 X107.9500 Y66.5798
G01 X107.9111 Y66.5788
G01 X107.8115 Y66.5739
G01 X107.7726 Y66.5710
G01 X107.7339 Y66.5663
G01 X107.6353 Y66.5516
G01 X107.5969 Y66.5450
G01 X107.5589 Y66.5364
G01 X107.4622 Y66.5122
G01 X107.4247 Y66.5018
G01 X107.3877 Y66.4896
G01 X107.2938 Y66.4560
G01 X107.2574 Y66.4420
G01 X107.2218 Y66.4262
G01 X107.1142 Y66.3750
G01 X107.0798 Y66.3567
G01 X106.9775 Y66.2956
G01 X106.9446 Y66.2748
G01 X106.9127 Y66.2523
G01 X106.8171 Y66.1811
G01 X106.7870 Y66.1564
G01 X106.6985 Y66.0766
G01 X106.6703 Y66.0497
G01 X106.6434 Y66.0215
G01 X106.5765 Y65.9476
G01 X106.5510 Y65.9181
G01 X106.5271 Y65.8874
G01 X106.4677 Y65.8073
G01 X106.4452 Y65.7754
G01 X106.4244 Y65.7425
G01 X106.3731 Y65.6570
G01 X106.3539 Y65.6231
G01 X106.3364 Y65.5883
G01 X106.2938 Y65.4982
G01 X106.2780 Y65.4626
G01 X106.2640 Y65.4262
G01 X106.2241 Y65.3139
G01 X106.2128 Y65.2766
G01 X106.1791 Y65.1421
G01 X106.1750 Y65.1231
G01 X106.1684 Y65.0847
G01 X106.1537 Y64.9861
G01 X106.1490 Y64.9474
G01 X106.1461 Y64.9085
G01 X106.1412 Y64.8089
G01 X106.1402 Y64.7700
G01 X106.1405 Y64.7505
G01 X106.1461 Y64.6315
G01 X106.1490 Y64.5926
G01 X106.1537 Y64.5539
G01 X106.1684 Y64.4553
G01 X106.1750 Y64.4169
G01 X106.1836 Y64.3789
G01 X106.2078 Y64.2822
G01 X106.2182 Y64.2447
G01 X106.2304 Y64.2077
G01 X106.2640 Y64.1138
G01 X106.2708 Y64.0955
G01 X106.2857 Y64.0595
G01 X106.3450 Y63.9342
G01 X106.3539 Y63.9169
G01 X106.3731 Y63.8830
G01 X106.4244 Y63.7975
G01 X106.4452 Y63.7646
G01 X106.4677 Y63.7327
G01 X106.5209 Y63.6609
G01 X106.5209 Y60.7083
G01 X106.4665 Y60.6753
G01 X106.4341 Y60.6537
G01 X106.2680 Y60.5309
G01 X106.2373 Y60.5069
G01 X106.2224 Y60.4944
G01 X106.1542 Y60.4329
G01 X81.2800 Y60.4329
G01 X81.2558 Y60.4325
G01 X81.2187 Y60.4307
G01 X81.1818 Y60.4271
G01 X81.1452 Y60.4219
G01 X81.0925 Y60.4120
G01 X81.0725 Y60.4075
G01 X81.0527 Y60.4025
G01 X81.0330 Y60.3971
G01 X81.0134 Y60.3911
G01 X80.9940 Y60.3846
G01 X80.9748 Y60.3776
G01 X80.9526 Y60.3689
G01 X80.9343 Y60.3612
G01 X80.8982 Y60.3444
G01 X80.8631 Y60.3257
G01 X80.8252 Y60.3040
G01 X80.7936 Y60.2840
G01 X80.7630 Y60.2625
G01 X80.7288 Y60.2360
G01 X80.7129 Y60.2227
G01 X80.6974 Y60.2089
G01 X80.6823 Y60.1948
G01 X80.6675 Y60.1803
G01 X80.6531 Y60.1655
G01 X80.6391 Y60.1502
G01 X80.6149 Y60.1229
G01 X80.6025 Y60.1081
G01 X80.5788 Y60.0776
G01 X80.5567 Y60.0461
G01 X80.5435 Y60.0260
G01 X80.5331 Y60.0089
G01 X80.5230 Y59.9915
G01 X80.5134 Y59.9739
G01 X80.5043 Y59.9561
G01 X80.4955 Y59.9380
G01 X80.4770 Y59.8959
G01 X80.4626 Y59.8597
G01 X80.4499 Y59.8229
G01 X80.4443 Y59.8043
G01 X80.4381 Y59.7817
G01 X80.4290 Y59.7431
G01 X80.4218 Y59.7041
G01 X80.4189 Y59.6845
G01 X80.4147 Y59.6481
G01 X80.4127 Y59.6268
G01 X80.4113 Y59.6056
G01 X80.4104 Y59.5843
G01 X80.4101 Y59.5630
G01 X80.4101 Y44.3230
G01 X80.4112 Y44.2802
G01 X80.4123 Y44.2617
G01 X80.4159 Y44.2248
G01 X80.4211 Y44.1882
G01 X80.4323 Y44.1297
G01 X80.4416 Y44.0917
G01 X80.4470 Y44.0728
G01 X80.4590 Y44.0356
G01 X80.4671 Y44.0133
G01 X80.4744 Y43.9949
G01 X80.4902 Y43.9587
G01 X80.5078 Y43.9233
G01 X80.5173 Y43.9060
G01 X80.5390 Y43.8682
G01 X80.5488 Y43.8523
G01 X80.5696 Y43.8212
G01 X80.5805 Y43.8060
G01 X80.6070 Y43.7718
G01 X80.6203 Y43.7559
G01 X80.6341 Y43.7404
G01 X80.6482 Y43.7253
G01 X80.6627 Y43.7105
G01 X80.6775 Y43.6961
G01 X80.7057 Y43.6706
G01 X80.7201 Y43.6579
G01 X80.7500 Y43.6335
G01 X80.7810 Y43.6105
G01 X80.7969 Y43.5997
G01 X80.8170 Y43.5865
G01 X80.8341 Y43.5761
G01 X80.8515 Y43.5660
G01 X80.8691 Y43.5564
G01 X80.8869 Y43.5473
G01 X80.9050 Y43.5385
G01 X80.9471 Y43.5200
G01 X80.9833 Y43.5056
G01 X81.0016 Y43.4990
G01 X81.0387 Y43.4873
G01 X81.0613 Y43.4811
G01 X81.0805 Y43.4763
G01 X81.1194 Y43.4681
G01 X81.1389 Y43.4648
G01 X81.1782 Y43.4595
G01 X81.2162 Y43.4557
G01 X81.2374 Y43.4543
G01 X81.2587 Y43.4534
G01 X81.2800 Y43.4531
G01 X88.1031 Y43.4531
G01 X88.1031 Y32.7469
G01 X81.2800 Y32.7469
G01 X81.2372 Y32.7458
G01 X81.2003 Y32.7431
G01 X81.1635 Y32.7387
G01 X81.1269 Y32.7326
G01 X81.0925 Y32.7260
G01 X81.0725 Y32.7215
G01 X81.0527 Y32.7165
G01 X81.0330 Y32.7111
G01 X81.0134 Y32.7051
G01 X80.9940 Y32.6986
G01 X80.9711 Y32.6902
G01 X80.9343 Y32.6752
G01 X80.8982 Y32.6584
G01 X80.8805 Y32.6493
G01 X80.8413 Y32.6274
G01 X80.8093 Y32.6082
G01 X80.7936 Y32.5980
G01 X80.7630 Y32.5765
G01 X80.7288 Y32.5500
G01 X80.7129 Y32.5367
G01 X80.6974 Y32.5229
G01 X80.6823 Y32.5088
G01 X80.6675 Y32.4943
G01 X80.6531 Y32.4795
G01 X80.6391 Y32.4642
G01 X80.6149 Y32.4369
G01 X80.5905 Y32.4070
G01 X80.5788 Y32.3916
G01 X80.5567 Y32.3601
G01 X80.5435 Y32.3400
G01 X80.5331 Y32.3229
G01 X80.5230 Y32.3055
G01 X80.5134 Y32.2879
G01 X80.5043 Y32.2701
G01 X80.4955 Y32.2520
G01 X80.4873 Y32.2337
G01 X80.4696 Y32.1919
G01 X80.4626 Y32.1737
G01 X80.4499 Y32.1369
G01 X80.4391 Y32.0995
G01 X80.4333 Y32.0765
G01 X80.4290 Y32.0571
G01 X80.4218 Y32.0181
G01 X80.4189 Y31.9985
G01 X80.4147 Y31.9621
G01 X80.4127 Y31.9408
G01 X80.4113 Y31.9196
G01 X80.4104 Y31.8983
G01 X80.4101 Y31.8770
G01 X80.4101 Y16.6370
G01 X80.4104 Y16.6167
G01 X80.4112 Y16.5942
G01 X80.4123 Y16.5757
G01 X80.4159 Y16.5388
G01 X80.4211 Y16.5022
G01 X80.4323 Y16.4437
G01 X80.4416 Y16.4057
G01 X80.4528 Y16.3681
G01 X80.4603 Y16.3459
G01 X80.4744 Y16.3089
G01 X80.4902 Y16.2727
G01 X80.5078 Y16.2373
G01 X80.5296 Y16.1983
G01 X80.5488 Y16.1663
G01 X80.5696 Y16.1352
G01 X80.5805 Y16.1200
G01 X80.5942 Y16.1020
G01 X80.6070 Y16.0858
G01 X80.6203 Y16.0699
G01 X80.6341 Y16.0544
G01 X80.6482 Y16.0393
G01 X80.6627 Y16.0245
G01 X80.6775 Y16.0101
G01 X80.7201 Y15.9719
G01 X80.7500 Y15.9475
G01 X80.7810 Y15.9245
G01 X80.8170 Y15.9005
G01 X80.8341 Y15.8901
G01 X80.8515 Y15.8800
G01 X80.8691 Y15.8704
G01 X80.8869 Y15.8613
G01 X80.9050 Y15.8525
G01 X80.9471 Y15.8340
G01 X80.9833 Y15.8196
G01 X81.0201 Y15.8069
G01 X81.0387 Y15.8013
G01 X81.0613 Y15.7951
G01 X81.0999 Y15.7860
G01 X81.1389 Y15.7788
G01 X81.1585 Y15.7759
G01 X81.1949 Y15.7717
G01 X81.2162 Y15.7697
G01 X81.2374 Y15.7683
G01 X81.2587 Y15.7674
G01 X81.2800 Y15.7671
G01 X106.1449 Y15.7671
G01 X114.9310 Y6.9810
G01 X114.9592 Y6.9542
G01 X115.0978 Y6.8285
G01 X115.1273 Y6.8031
G01 X115.1580 Y6.7791
G01 X115.3083 Y6.6677
G01 X115.3401 Y6.6453
G01 X115.3730 Y6.6244
G01 X115.5503 Y6.5185
G01 X115.5674 Y6.5091
G01 X115.6022 Y6.4916
G01 X115.7890 Y6.4035
G01 X115.8250 Y6.3886
G01 X115.8432 Y6.3818
G01 X116.0193 Y6.3188
G01 X116.0563 Y6.3065
G01 X116.0939 Y6.2962
G01 X116.2753 Y6.2507
G01 X116.3133 Y6.2422
G01 X116.3517 Y6.2355
G01 X116.5367 Y6.2081
G01 X116.5754 Y6.2033
G01 X116.6142 Y6.2004
G01 X116.8205 Y6.1905
G01 X135.0201 Y6.1903
G01 X135.0201 Y1.8099
G01 X17.3799 Y1.8099
G01 X18.4117 Y2.8417
G01 X18.4117 Y5.1584
G01 X33.0200 Y5.1584
G01 X33.0521 Y5.1587
G01 X33.1096 Y5.1606
G01 X33.2964 Y5.1698
G01 X33.3537 Y5.1736
G01 X33.3984 Y5.1777
G01 X33.4622 Y5.1856
G01 X33.6597 Y5.2148
G01 X33.7164 Y5.2242
G01 X33.7604 Y5.2327
G01 X33.8231 Y5.2468
G01 X34.0169 Y5.2952
G01 X34.0480 Y5.3033
G01 X34.0911 Y5.3155
G01 X34.1339 Y5.3287
G01 X34.1883 Y5.3472
G01 X34.3644 Y5.4102
G01 X34.4182 Y5.4305
G01 X34.4597 Y5.4474
G01 X34.5185 Y5.4734
G01 X34.6990 Y5.5588
G01 X34.7279 Y5.5728
G01 X34.7678 Y5.5931
G01 X34.8073 Y5.6145
G01 X34.8570 Y5.6432
G01 X35.0283 Y5.7459
G01 X35.0826 Y5.7803
G01 X35.1197 Y5.8054
G01 X35.1664 Y5.8389
G01 X35.3268 Y5.9579
G01 X35.3775 Y5.9975
G01 X35.4119 Y6.0261
G01 X35.4551 Y6.0640
G01 X35.5937 Y6.1896
G01 X35.6357 Y6.2289
G01 X35.6586 Y6.2514
G01 X44.0141 Y14.6069
G01 X49.3634 Y14.6083
G01 X50.5382 Y14.6082
G01 X50.4742 Y14.5852
G01 X50.4323 Y14.5693
G01 X50.3908 Y14.5524
G01 X50.3426 Y14.5311
G01 X50.3001 Y14.5162
G01 X50.2582 Y14.5003
G01 X50.2167 Y14.4833
G01 X50.1756 Y14.4654
G01 X50.1350 Y14.4465
G01 X50.0776 Y14.4176
G01 X50.0382 Y14.3962
G01 X50.0162 Y14.3837
G01 X49.9610 Y14.3507
G01 X49.9233 Y14.3265
G01 X49.9023 Y14.3125
G01 X49.8655 Y14.2868
G01 X49.8294 Y14.2604
G01 X49.7787 Y14.2208
G01 X49.7591 Y14.2047
G01 X49.7250 Y14.1756
G01 X49.6798 Y14.1347
G01 X49.6330 Y14.0981
G01 X49.5985 Y14.0695
G01 X49.5793 Y14.0530
G01 X49.5553 Y14.0316
G01 X49.4629 Y13.9479
G01 X49.4210 Y13.9086
G01 X49.3755 Y13.8631
G01 X49.3448 Y13.8305
G01 X49.2440 Y13.7194
G01 X49.2021 Y13.6707
G01 X49.1738 Y13.6359
G01 X49.1388 Y13.5903
G01 X49.0571 Y13.4799
G01 X49.0201 Y13.4274
G01 X48.9954 Y13.3900
G01 X48.9818 Y13.3686
G01 X48.9650 Y13.3412
G01 X48.9009 Y13.2342
G01 X48.8722 Y13.1845
G01 X48.8508 Y13.1451
G01 X48.8219 Y13.0876
G01 X48.7631 Y12.9635
G01 X48.7394 Y12.9112
G01 X48.7221 Y12.8699
G01 X48.6989 Y12.8099
G01 X48.6526 Y12.6806
G01 X48.6420 Y12.6502
G01 X48.6282 Y12.6076
G01 X48.6154 Y12.5646
G01 X48.6037 Y12.5214
G01 X48.5673 Y12.3759
G01 X48.5572 Y12.3322
G01 X48.5482 Y12.2883
G01 X48.5403 Y12.2442
G01 X48.5353 Y12.2125
G01 X48.5170 Y12.0891
G01 X48.5126 Y12.0573
G01 X48.5074 Y12.0128
G01 X48.5049 Y11.9876
G01 X48.5014 Y11.9429
G01 X48.4995 Y11.9108
G01 X48.4928 Y11.7736
G01 X48.4915 Y11.7288
G01 X48.4911 Y11.6967
G01 X48.4911 Y9.4663
G01 X48.4498 Y9.4206
G01 X48.4203 Y9.3868
G01 X48.3795 Y9.3371
G01 X48.3522 Y9.3016
G01 X48.1737 Y9.0612
G01 X48.1548 Y9.0352
G01 X48.1402 Y9.0144
G01 X48.1151 Y8.9773
G01 X48.0910 Y8.9396
G01 X48.0742 Y8.9122
G01 X47.9267 Y8.6662
G01 X47.8980 Y8.6164
G01 X47.8767 Y8.5770
G01 X47.8563 Y8.5371
G01 X47.8423 Y8.5082
G01 X47.7197 Y8.2489
G01 X47.6959 Y8.1966
G01 X47.6713 Y8.1372
G01 X47.6554 Y8.0953
G01 X47.5503 Y7.8014
G01 X47.5301 Y7.7404
G01 X47.5173 Y7.6974
G01 X47.5056 Y7.6542
G01 X47.4298 Y7.3514
G01 X47.4197 Y7.3078
G01 X47.4108 Y7.2639
G01 X47.4029 Y7.2198
G01 X47.3978 Y7.1880
G01 X47.3540 Y6.8918
G01 X47.3461 Y6.8280
G01 X47.3419 Y6.7834
G01 X47.3389 Y6.7387
G01 X47.3241 Y6.4396
G01 X47.3229 Y6.4075
G01 X47.3220 Y6.3627
G01 X47.3222 Y6.3179
G01 X47.3236 Y6.2731
G01 X47.3382 Y5.9740
G01 X47.3401 Y5.9419
G01 X47.3436 Y5.8972
G01 X47.3461 Y5.8720
G01 X47.3513 Y5.8275
G01 X47.3557 Y5.7957
G01 X47.3978 Y5.5120
G01 X47.4029 Y5.4802
G01 X47.4108 Y5.4361
G01 X47.4157 Y5.4113
G01 X47.4253 Y5.3675
G01 X47.4328 Y5.3363
G01 X47.5056 Y5.0458
G01 X47.5173 Y5.0026
G01 X47.5301 Y4.9596
G01 X47.5439 Y4.9170
G01 X47.5545 Y4.8866
G01 X47.6511 Y4.6166
G01 X47.6622 Y4.5864
G01 X47.6786 Y4.5447
G01 X47.6883 Y4.5213
G01 X47.7143 Y4.4625
G01 X47.8423 Y4.1918
G01 X47.8563 Y4.1629
G01 X47.8767 Y4.1230
G01 X47.8980 Y4.0836
G01 X47.9203 Y4.0447
G01 X48.0742 Y3.7878
G01 X48.1045 Y3.7390
G01 X48.1402 Y3.6856
G01 X48.1737 Y3.6388
G01 X48.3522 Y3.3984
G01 X48.3917 Y3.3477
G01 X48.4078 Y3.3281
G01 X48.4369 Y3.2940
G01 X48.4582 Y3.2700
G01 X48.6508 Y3.0575
G01 X48.6901 Y3.0155
G01 X48.7216 Y2.9837
G01 X48.7539 Y2.9526
G01 X48.7775 Y2.9308
G01 X48.8758 Y2.8417
G01 X18.4117 Y2.8417
G01 X19.4436 Y3.8736
G01 X19.4436 Y4.1265
G01 X33.0200 Y4.1265
G01 X33.0775 Y4.1272
G01 X33.1539 Y4.1297
G01 X33.3660 Y4.1402
G01 X33.4296 Y4.1445
G01 X33.4995 Y4.1508
G01 X33.5692 Y4.1588
G01 X33.6261 Y4.1667
G01 X33.8299 Y4.1970
G01 X33.8679 Y4.2031
G01 X33.9244 Y4.2133
G01 X33.9932 Y4.2272
G01 X34.0677 Y4.2443
G01 X34.2737 Y4.2958
G01 X34.3110 Y4.3055
G01 X34.3598 Y4.3190
G01 X34.4269 Y4.3392
G01 X34.4936 Y4.3609
G01 X34.5359 Y4.3757
G01 X34.7180 Y4.4408
G01 X34.7659 Y4.4586
G01 X34.8194 Y4.4796
G01 X34.8662 Y4.4990
G01 X34.9189 Y4.5220
G01 X34.9711 Y4.5460
G01 X35.1402 Y4.6259
G01 X35.1805 Y4.6455
G01 X35.2145 Y4.6625
G01 X35.2543 Y4.6831
G01 X35.2877 Y4.7011
G01 X35.3379 Y4.7291
G01 X35.3657 Y4.7453
G01 X35.5534 Y4.8576
G01 X35.6183 Y4.8979
G01 X35.6559 Y4.9224
G01 X35.6874 Y4.9435
G01 X35.7346 Y4.9764
G01 X35.7607 Y4.9951
G01 X35.9364 Y5.1253
G01 X35.9671 Y5.1485
G01 X36.0070 Y5.1797
G01 X36.0614 Y5.2240
G01 X36.1146 Y5.2696
G01 X36.1481 Y5.2994
G01 X36.2338 Y5.3771
G01 X36.3196 Y5.4554
G01 X36.3563 Y5.4903
G01 X36.3883 Y5.5217
G01 X44.4416 Y13.5751
G01 X47.9123 Y13.5760
G01 X47.8864 Y13.5231
G01 X47.8196 Y13.3817
G01 X47.7910 Y13.3177
G01 X47.7640 Y13.2530
G01 X47.7521 Y13.2231
G01 X47.7317 Y13.1694
G01 X47.6789 Y13.0222
G01 X47.6543 Y12.9498
G01 X47.6334 Y12.8829
G01 X47.6142 Y12.8155
G01 X47.5996 Y12.7599
G01 X47.5633 Y12.6143
G01 X47.5504 Y12.5583
G01 X47.5411 Y12.5145
G01 X47.5280 Y12.4456
G01 X47.5175 Y12.3826
G01 X47.4954 Y12.2343
G01 X47.4854 Y12.1585
G01 X47.4805 Y12.1139
G01 X47.4768 Y12.0761
G01 X47.4741 Y12.0441
G01 X47.4702 Y11.9867
G01 X47.4619 Y11.8179
G01 X47.4605 Y11.7795
G01 X47.4594 Y11.7220
G01 X47.4593 Y9.8301
G01 X47.3449 Y9.6758
G01 X47.3185 Y9.6396
G01 X47.2894 Y9.5982
G01 X47.2502 Y9.5400
G01 X47.2192 Y9.4916
G01 X47.1924 Y9.4481
G01 X47.0417 Y9.1967
G01 X47.0127 Y9.1471
G01 X46.9846 Y9.0969
G01 X46.9607 Y9.0522
G01 X46.9346 Y9.0011
G01 X46.9122 Y8.9551
G01 X46.7868 Y8.6901
G01 X46.7680 Y8.6494
G01 X46.7398 Y8.5852
G01 X46.7132 Y8.5204
G01 X46.6950 Y8.4731
G01 X46.6817 Y8.4370
G01 X46.5829 Y8.1610
G01 X46.5641 Y8.1067
G01 X46.5464 Y8.0520
G01 X46.5263 Y7.9848
G01 X46.5078 Y7.9172
G01 X46.4318 Y7.6145
G01 X46.4185 Y7.5586
G01 X46.4062 Y7.5024
G01 X46.3963 Y7.4527
G01 X46.3841 Y7.3837
G01 X46.3771 Y7.3394
G01 X46.3341 Y7.0495
G01 X46.3272 Y6.9988
G01 X46.3205 Y6.9417
G01 X46.3139 Y6.8719
G01 X46.3090 Y6.8019
G01 X46.2924 Y6.4649
G01 X46.2904 Y6.3948
G01 X46.2901 Y6.3373
G01 X46.2907 Y6.2925
G01 X46.2926 Y6.2288
G01 X46.3086 Y5.9044
G01 X46.3129 Y5.8407
G01 X46.3192 Y5.7709
G01 X46.3272 Y5.7012
G01 X46.3341 Y5.6505
G01 X46.3771 Y5.3606
G01 X46.3862 Y5.3038
G01 X46.3963 Y5.2473
G01 X46.4062 Y5.1976
G01 X46.4185 Y5.1414
G01 X46.4318 Y5.0855
G01 X46.5015 Y4.8073
G01 X46.5128 Y4.7640
G01 X46.5317 Y4.6964
G01 X46.5427 Y4.6601
G01 X46.5562 Y4.6174
G01 X46.5808 Y4.5450
G01 X46.6795 Y4.2690
G01 X46.6950 Y4.2269
G01 X46.7132 Y4.1796
G01 X46.7398 Y4.1148
G01 X46.7680 Y4.0506
G01 X46.7868 Y4.0099
G01 X46.8513 Y3.8736
G01 X19.4436 Y3.8736
G00 Z5.0000
G00 X17.3799 Y11.5897
G01 F190.00
G01 Z-0.4000
G01 F350.00
G01 X17.3799 Y20.1603
G01 X39.7701 Y20.1603
G01 X39.7701 Y19.4581
G01 X31.9017 Y11.5897
G01 X17.3799 Y11.5897
G01 X18.4117 Y12.6216
G01 X18.4117 Y19.1284
G01 X37.9812 Y19.1284
G01 X31.4743 Y12.6216
G01 X18.4117 Y12.6216
G01 X19.4436 Y13.6535
G01 X19.4436 Y18.0965
G01 X35.4900 Y18.0965
G01 X31.0469 Y13.6535
G01 X19.4436 Y13.6535
G01 X20.4755 Y14.6853
G01 X20.4755 Y17.0647
G01 X32.9988 Y17.0647
G01 X30.6195 Y14.6853
G01 X20.4755 Y14.6853
G01 X21.5074 Y15.7172
G01 X21.5074 Y16.0328
G01 X30.5077 Y16.0328
G01 X30.1921 Y15.7172
G01 X21.5074 Y15.7172
G00 Z5.0000
G00 X18.4117 Y26.7484
G01 F190.00
G01 Z-0.4000
G01 F350.00
G01 X38.7383 Y26.7484
G01 X38.7383 Y26.5916
G01 X18.4117 Y26.5916
G01 X18.4117 Y26.7484
G01 X17.3799 Y27.7803
G01 X39.7701 Y27.7803
G01 X39.7701 Y25.5597
G01 X17.3799 Y25.5597
G01 X17.3799 Y27.7803
G00 Z5.0000
G00 X21.5074 Y38.7658
G01 F190.00
G01 Z-0.4000
G01 F350.00
G01 X41.9432 Y38.7659
G01 X42.0181 Y38.7670
G01 X42.1056 Y38.7697
G01 X42.3573 Y38.7819
G01 X42.4209 Y38.7857
G01 X42.4967 Y38.7913
G01 X42.5571 Y38.7966
G01 X42.6264 Y38.8036
G01 X42.7118 Y38.8136
G01 X42.7829 Y38.8231
G01 X43.0039 Y38.8557
G01 X43.0524 Y38.8632
G01 X43.1356 Y38.8771
G01 X43.1953 Y38.8880
G01 X43.2667 Y38.9020
G01 X43.3356 Y38.9166
G01 X43.3356 Y37.1564
G01 X43.2667 Y37.1710
G01 X43.1953 Y37.1850
G01 X43.1356 Y37.1959
G01 X43.0524 Y37.2098
G01 X43.0039 Y37.2173
G01 X42.7829 Y37.2499
G01 X42.7118 Y37.2594
G01 X42.6264 Y37.2694
G01 X42.5571 Y37.2764
G01 X42.4967 Y37.2817
G01 X42.4209 Y37.2873
G01 X42.3573 Y37.2911
G01 X42.1056 Y37.3033
G01 X42.0181 Y37.3060
G01 X41.9432 Y37.3071
G01 X21.5074 Y37.3072
G01 X21.5074 Y38.7658
G01 X20.4755 Y39.7977
G01 X41.9100 Y39.7977
G01 X41.9928 Y39.7986
G01 X42.0371 Y39.7998
G01 X42.0914 Y39.8019
G01 X42.2908 Y39.8117
G01 X42.3450 Y39.8148
G01 X42.4019 Y39.8189
G01 X42.4465 Y39.8226
G01 X42.4969 Y39.8275
G01 X42.5415 Y39.8324
G01 X42.6043 Y39.8401
G01 X42.6581 Y39.8476
G01 X42.8557 Y39.8769
G01 X42.9155 Y39.8863
G01 X42.9779 Y39.8971
G01 X43.0282 Y39.9066
G01 X43.0969 Y39.9207
G01 X43.1525 Y39.9331
G01 X43.2238 Y39.9501
G01 X43.4083 Y39.9963
G01 X43.4884 Y40.0173
G01 X43.5559 Y40.0364
G01 X43.6104 Y40.0528
G01 X43.6652 Y40.0702
G01 X43.7193 Y40.0882
G01 X43.7706 Y40.1060
G01 X43.9616 Y40.1744
G01 X44.0214 Y40.1966
G01 X44.0745 Y40.2173
G01 X44.1453 Y40.2462
G01 X44.2039 Y40.2714
G01 X44.2765 Y40.3041
G01 X44.3674 Y40.3470
G01 X44.3674 Y35.7260
G01 X44.2765 Y35.7689
G01 X44.2039 Y35.8016
G01 X44.1453 Y35.8268
G01 X44.0745 Y35.8557
G01 X44.0214 Y35.8764
G01 X43.9616 Y35.8986
G01 X43.7706 Y35.9670
G01 X43.7193 Y35.9848
G01 X43.6652 Y36.0028
G01 X43.6104 Y36.0202
G01 X43.5559 Y36.0366
G01 X43.4884 Y36.0557
G01 X43.4083 Y36.0767
G01 X43.2238 Y36.1229
G01 X43.1525 Y36.1399
G01 X43.0969 Y36.1523
G01 X43.0282 Y36.1664
G01 X42.9779 Y36.1759
G01 X42.9155 Y36.1867
G01 X42.8557 Y36.1961
G01 X42.6581 Y36.2254
G01 X42.6043 Y36.2329
G01 X42.5415 Y36.2406
G01 X42.4969 Y36.2455
G01 X42.4465 Y36.2504
G01 X42.4019 Y36.2541
G01 X42.3450 Y36.2582
G01 X42.2908 Y36.2613
G01 X42.0914 Y36.2711
G01 X42.0371 Y36.2732
G01 X41.9928 Y36.2744
G01 X41.9100 Y36.2753
G01 X20.4755 Y36.2753
G01 X20.4755 Y39.7977
G01 X19.4436 Y40.8295
G01 X41.9100 Y40.8295
G01 X41.9675 Y40.8302
G01 X42.0054 Y40.8312
G01 X42.0502 Y40.8330
G01 X42.2370 Y40.8422
G01 X42.2944 Y40.8456
G01 X42.3517 Y40.8502
G01 X42.4021 Y40.8551
G01 X42.4592 Y40.8618
G01 X42.4973 Y40.8670
G01 X42.7199 Y40.9000
G01 X42.7828 Y40.9105
G01 X42.8269 Y40.9187
G01 X42.8832 Y40.9302
G01 X42.9515 Y40.9458
G01 X43.1637 Y40.9988
G01 X43.2132 Y41.0118
G01 X43.2685 Y41.0275
G01 X43.3169 Y41.0422
G01 X43.3716 Y41.0599
G01 X43.4259 Y41.0787
G01 X43.6020 Y41.1417
G01 X43.6441 Y41.1571
G01 X43.6913 Y41.1754
G01 X43.7212 Y41.1874
G01 X43.7741 Y41.2097
G01 X43.8204 Y41.2302
G01 X43.8554 Y41.2463
G01 X44.0530 Y41.3399
G01 X44.1045 Y41.3655
G01 X44.1479 Y41.3881
G01 X45.3993 Y41.3885
G01 X45.3993 Y34.6836
G01 X44.1504 Y34.6836
G01 X44.1045 Y34.7075
G01 X44.0530 Y34.7331
G01 X43.8554 Y34.8267
G01 X43.8204 Y34.8428
G01 X43.7741 Y34.8633
G01 X43.7446 Y34.8759
G01 X43.6913 Y34.8976
G01 X43.6441 Y34.9159
G01 X43.6020 Y34.9313
G01 X43.4259 Y34.9943
G01 X43.3716 Y35.0131
G01 X43.3169 Y35.0308
G01 X43.2685 Y35.0455
G01 X43.2132 Y35.0612
G01 X43.1637 Y35.0742
G01 X42.9515 Y35.1272
G01 X42.8832 Y35.1428
G01 X42.8269 Y35.1543
G01 X42.7828 Y35.1625
G01 X42.7199 Y35.1730
G01 X42.4973 Y35.2060
G01 X42.4592 Y35.2112
G01 X42.4021 Y35.2179
G01 X42.3517 Y35.2228
G01 X42.2944 Y35.2274
G01 X42.2370 Y35.2308
G01 X42.0502 Y35.2400
G01 X42.0054 Y35.2418
G01 X41.9675 Y35.2428
G01 X41.9100 Y35.2435
G01 X19.4436 Y35.2435
G01 X19.4436 Y40.8295
G01 X18.4117 Y41.8614
G01 X41.9100 Y41.8614
G01 X41.9421 Y41.8617
G01 X41.9996 Y41.8636
G01 X42.1864 Y41.8728
G01 X42.2185 Y41.8747
G01 X42.2631 Y41.8782
G01 X42.2884 Y41.8807
G01 X42.3329 Y41.8860
G01 X42.3647 Y41.8904
G01 X42.5622 Y41.9197
G01 X42.6064 Y41.9272
G01 X42.6504 Y41.9357
G01 X42.6942 Y41.9453
G01 X42.7254 Y41.9528
G01 X42.9069 Y41.9982
G01 X42.9624 Y42.0131
G01 X43.0053 Y42.0259
G01 X43.0479 Y42.0397
G01 X43.0783 Y42.0502
G01 X43.2544 Y42.1132
G01 X43.2846 Y42.1243
G01 X43.3263 Y42.1407
G01 X43.3497 Y42.1504
G01 X43.3907 Y42.1683
G01 X43.4199 Y42.1818
G01 X43.5890 Y42.2618
G01 X43.6179 Y42.2758
G01 X43.6578 Y42.2961
G01 X43.6973 Y42.3175
G01 X43.7361 Y42.3398
G01 X43.8699 Y42.4199
G01 X46.4312 Y42.4207
G01 X46.4312 Y33.6517
G01 X43.8723 Y33.6517
G01 X43.7361 Y33.7332
G01 X43.6973 Y33.7555
G01 X43.6578 Y33.7769
G01 X43.6179 Y33.7972
G01 X43.5890 Y33.8112
G01 X43.4199 Y33.8912
G01 X43.3907 Y33.9047
G01 X43.3676 Y33.9149
G01 X43.3263 Y33.9323
G01 X43.2846 Y33.9487
G01 X43.2544 Y33.9598
G01 X43.0783 Y34.0228
G01 X43.0479 Y34.0333
G01 X43.0053 Y34.0471
G01 X42.9624 Y34.0599
G01 X42.9069 Y34.0748
G01 X42.7254 Y34.1202
G01 X42.6942 Y34.1277
G01 X42.6504 Y34.1373
G01 X42.6064 Y34.1458
G01 X42.5622 Y34.1533
G01 X42.3647 Y34.1826
G01 X42.3329 Y34.1870
G01 X42.2884 Y34.1923
G01 X42.2631 Y34.1948
G01 X42.2185 Y34.1983
G01 X42.1864 Y34.2002
G01 X41.9996 Y34.2094
G01 X41.9421 Y34.2113
G01 X41.9100 Y34.2116
G01 X18.4117 Y34.2116
G01 X18.4117 Y41.8614
G01 X17.3799 Y42.8933
G01 X41.9295 Y42.8935
G01 X42.1358 Y42.9034
G01 X42.1746 Y42.9063
G01 X42.2133 Y42.9111
G01 X42.3983 Y42.9385
G01 X42.4367 Y42.9452
G01 X42.4747 Y42.9537
G01 X42.6750 Y43.0041
G01 X42.6937 Y43.0095
G01 X42.7307 Y43.0218
G01 X42.9068 Y43.0848
G01 X42.9431 Y43.0988
G01 X42.9787 Y43.1146
G01 X43.1478 Y43.1946
G01 X43.1826 Y43.2121
G01 X43.2165 Y43.2313
G01 X43.3770 Y43.3274
G01 X43.4099 Y43.3483
G01 X43.4417 Y43.3707
G01 X43.5508 Y43.4516
G01 X47.4631 Y43.4529
G01 X47.4631 Y32.6199
G01 X43.5529 Y32.6199
G01 X43.4417 Y32.7023
G01 X43.4099 Y32.7247
G01 X43.3770 Y32.7456
G01 X43.2165 Y32.8417
G01 X43.1826 Y32.8609
G01 X43.1478 Y32.8784
G01 X42.9787 Y32.9584
G01 X42.9431 Y32.9742
G01 X42.9068 Y32.9882
G01 X42.7307 Y33.0512
G01 X42.6937 Y33.0635
G01 X42.6750 Y33.0689
G01 X42.4747 Y33.1193
G01 X42.4367 Y33.1278
G01 X42.3983 Y33.1345
G01 X42.2133 Y33.1619
G01 X42.1746 Y33.1667
G01 X42.1358 Y33.1696
G01 X41.9295 Y33.1795
G01 X17.3799 Y33.1797
G01 X17.3799 Y42.8933
G00 Z5.0000
G00 X18.4117 Y49.4814
G01 F190.00
G01 Z-0.4000
G01 F350.00
G01 X38.7383 Y49.4814
G01 X38.7383 Y49.3246
G01 X18.4117 Y49.3246
G01 X18.4117 Y49.4814
G01 X17.3799 Y50.5133
G01 X39.7701 Y50.5133
G01 X39.7701 Y48.2927
G01 X17.3799 Y48.2927
G01 X17.3799 Y50.5133
G00 Z5.0000
G00 X23.5711 Y64.0582
G01 F190.00
G01 Z-0.4000
G01 F350.00
G01 X25.5253 Y62.1040
G01 X23.5711 Y62.1040
G01 X23.5711 Y64.0582
G01 X22.5392 Y66.5494
G01 X28.0165 Y61.0721
G01 X22.5392 Y61.0721
G01 X22.5392 Y66.5494
G01 X21.5074 Y69.0405
G01 X30.5077 Y60.0402
G01 X21.5074 Y60.0402
G01 X21.5074 Y69.0405
G01 X20.4755 Y71.5317
G01 X32.9988 Y59.0083
G01 X20.4755 Y59.0083
G01 X20.4755 Y71.5317
G01 X19.4436 Y72.7065
G01 X20.7599 Y72.7065
G01 X35.4900 Y57.9765
G01 X19.4436 Y57.9765
G01 X19.4436 Y72.7065
G01 X18.4117 Y73.7384
G01 X21.1873 Y73.7384
G01 X37.9812 Y56.9446
G01 X18.4117 Y56.9446
G01 X18.4117 Y73.7384
G01 X17.3799 Y74.7703
G01 X21.6147 Y74.7703
G01 X39.7688 Y56.6162
G01 X39.7694 Y55.9127
G01 X17.3799 Y55.9127
G01 X17.3799 Y74.7703
G00 Z5.0000
G00 X23.5711 Y86.3213
G01 F190.00
G01 Z-0.4000
G01 F350.00
G01 X23.6423 Y86.3143
G01 X23.7222 Y86.3055
G01 X23.8039 Y86.2955
G01 X23.8821 Y86.2851
G01 X23.9417 Y86.2766
G01 X24.1611 Y86.2440
G01 X24.2467 Y86.2303
G01 X24.3302 Y86.2160
G01 X24.4093 Y86.2014
G01 X24.4830 Y86.1869
G01 X24.5618 Y86.1706
G01 X24.6229 Y86.1573
G01 X24.6916 Y86.1417
G01 X24.7590 Y86.1256
G01 X24.9851 Y86.0691
G01 X25.0495 Y86.0526
G01 X25.1195 Y86.0340
G01 X25.1835 Y86.0162
G01 X25.2502 Y85.9971
G01 X25.3268 Y85.9741
G01 X25.3804 Y85.9575
G01 X25.4442 Y85.9371
G01 X25.5134 Y85.9143
G01 X25.5769 Y85.8926
G01 X25.6321 Y85.8732
G01 X25.8246 Y85.8043
G01 X25.9059 Y85.7745
G01 X25.9644 Y85.7523
G01 X26.0389 Y85.7233
G01 X26.1032 Y85.6974
G01 X26.1683 Y85.6704
G01 X26.2386 Y85.6404
G01 X26.3074 Y85.6101
G01 X26.3623 Y85.5854
G01 X26.4317 Y85.5533
G01 X26.6223 Y85.4632
G01 X26.6766 Y85.4371
G01 X26.7529 Y85.3996
G01 X26.8375 Y85.3566
G01 X26.8990 Y85.3245
G01 X26.9715 Y85.2855
G01 X27.0302 Y85.2532
G01 X27.1018 Y85.2127
G01 X27.2062 Y85.1518
G01 X27.4317 Y85.0164
G01 X27.4859 Y84.9829
G01 X27.5475 Y84.9441
G01 X27.6098 Y84.9039
G01 X27.6600 Y84.8708
G01 X27.7204 Y84.8302
G01 X27.7834 Y84.7869
G01 X27.8429 Y84.7449
G01 X27.8993 Y84.7044
G01 X27.9504 Y84.6670
G01 X28.1133 Y84.5461
G01 X28.1614 Y84.5099
G01 X28.2170 Y84.4674
G01 X28.2818 Y84.4166
G01 X28.3445 Y84.3663
G01 X28.4026 Y84.3186
G01 X28.4642 Y84.2669
G01 X28.5284 Y84.2117
G01 X28.5942 Y84.1537
G01 X28.7950 Y83.9719
G01 X28.8540 Y83.9173
G01 X28.9114 Y83.8629
G01 X28.9670 Y83.8090
G01 X29.0143 Y83.7624
G01 X42.9047 Y69.8720
G01 X42.9166 Y69.9443
G01 X42.9308 Y70.0254
G01 X42.9431 Y70.0912
G01 X42.9590 Y70.1719
G01 X42.9755 Y70.2507
G01 X42.9918 Y70.3241
G01 X43.0053 Y70.3827
G01 X43.0252 Y70.4648
G01 X43.0544 Y70.5815
G01 X43.0710 Y70.6457
G01 X43.0908 Y70.7196
G01 X43.1147 Y70.8049
G01 X43.1374 Y70.8821
G01 X43.1634 Y70.9668
G01 X43.1887 Y71.0457
G01 X43.2167 Y71.1298
G01 X43.2437 Y71.2073
G01 X43.2879 Y71.3310
G01 X43.3107 Y71.3934
G01 X43.3368 Y71.4627
G01 X43.3654 Y71.5365
G01 X43.3939 Y71.6074
G01 X43.4227 Y71.6769
G01 X43.4543 Y71.7508
G01 X43.4885 Y71.8283
G01 X43.5236 Y71.9052
G01 X43.5903 Y72.0470
G01 X43.6177 Y72.1040
G01 X43.6521 Y72.1740
G01 X43.6910 Y72.2510
G01 X43.7275 Y72.3209
G01 X43.7645 Y72.3900
G01 X43.7197 Y72.4738
G01 X43.6788 Y72.5530
G01 X43.6349 Y72.6408
G01 X43.5930 Y72.7275
G01 X43.5335 Y72.8534
G01 X43.4882 Y72.9524
G01 X43.4462 Y73.0480
G01 X43.4224 Y73.1038
G01 X43.4005 Y73.1565
G01 X43.3637 Y73.2479
G01 X43.3239 Y73.3513
G01 X43.2911 Y73.4402
G01 X43.2405 Y73.5818
G01 X43.2071 Y73.6787
G01 X43.1787 Y73.7652
G01 X43.1519 Y73.8502
G01 X43.1237 Y73.9442
G01 X43.0992 Y74.0299
G01 X43.0698 Y74.1389
G01 X43.0548 Y74.1972
G01 X43.0274 Y74.3062
G01 X43.0098 Y74.3784
G01 X42.9854 Y74.4845
G01 X42.9665 Y74.5716
G01 X42.9471 Y74.6678
G01 X42.9307 Y74.7554
G01 X42.9128 Y74.8583
G01 X42.8981 Y74.9503
G01 X42.8754 Y75.1038
G01 X42.8603 Y75.2148
G01 X42.8478 Y75.3185
G01 X42.8363 Y75.4292
G01 X42.8275 Y75.5274
G01 X42.8203 Y75.6221
G01 X42.8139 Y75.7278
G01 X42.8073 Y75.8590
G01 X42.8044 Y75.9253
G01 X42.8019 Y76.0001
G01 X42.8000 Y76.0824
G01 X42.7991 Y76.1652
G01 X42.7993 Y76.2538
G01 X42.8004 Y76.3366
G01 X42.8027 Y76.4252
G01 X42.8062 Y76.5159
G01 X42.8134 Y76.6630
G01 X42.8187 Y76.7542
G01 X42.8251 Y76.8426
G01 X42.8320 Y76.9251
G01 X42.8405 Y77.0134
G01 X42.8495 Y77.0957
G01 X42.8604 Y77.1860
G01 X42.8716 Y77.2698
G01 X42.8944 Y77.4248
G01 X42.9053 Y77.4952
G01 X42.9178 Y77.5713
G01 X42.9332 Y77.6586
G01 X42.9487 Y77.7399
G01 X42.9662 Y77.8268
G01 X42.9842 Y77.9101
G01 X43.0053 Y78.0027
G01 X43.0260 Y78.0878
G01 X43.0642 Y78.2398
G01 X43.0866 Y78.3243
G01 X43.1104 Y78.4097
G01 X43.1335 Y78.4892
G01 X43.1579 Y78.5691
G01 X43.1444 Y78.6700
G01 X43.1308 Y78.7869
G01 X43.1201 Y78.8932
G01 X43.1106 Y79.0048
G01 X43.1064 Y79.0617
G01 X43.1026 Y79.1222
G01 X43.0971 Y79.2265
G01 X43.0931 Y79.3338
G01 X43.0907 Y79.4446
G01 X43.0900 Y79.5400
G01 X43.0900 Y81.2417
G01 X43.0904 Y81.3129
G01 X43.0915 Y81.3829
G01 X43.0936 Y81.4628
G01 X43.0961 Y81.5298
G01 X43.0992 Y81.5962
G01 X43.1025 Y81.6562
G01 X43.1068 Y81.7231
G01 X43.1117 Y81.7894
G01 X43.1173 Y81.8561
G01 X43.1273 Y81.9601
G01 X43.1392 Y82.0667
G01 X43.1523 Y82.1704
G01 X43.1606 Y82.2304
G01 X43.1689 Y82.2868
G01 X43.1866 Y82.3975
G01 X43.2047 Y82.5004
G01 X43.2146 Y82.5530
G01 X43.2269 Y82.6159
G01 X43.2470 Y82.7124
G01 X43.2712 Y82.8206
G01 X43.2948 Y82.9188
G01 X43.3234 Y83.0304
G01 X43.3516 Y83.1335
G01 X43.3808 Y83.2343
G01 X43.4114 Y83.3342
G01 X43.4476 Y83.4461
G01 X43.4807 Y83.5432
G01 X43.5167 Y83.6438
G01 X43.5527 Y83.7398
G01 X43.5942 Y83.8456
G01 X43.6355 Y83.9459
G01 X43.6768 Y84.0423
G01 X43.7195 Y84.1377
G01 X43.7449 Y84.1928
G01 X43.7692 Y84.2443
G01 X43.8133 Y84.3352
G01 X43.8603 Y84.4285
G01 X43.9078 Y84.5194
G01 X43.9619 Y84.6193
G01 X44.0163 Y84.7159
G01 X44.0729 Y84.8126
G01 X44.1022 Y84.8615
G01 X44.1339 Y84.9132
G01 X44.1907 Y85.0036
G01 X44.2469 Y85.0900
G01 X44.1852 Y85.1850
G01 X44.1548 Y85.2332
G01 X44.1216 Y85.2868
G01 X44.0644 Y85.3817
G01 X44.0081 Y85.4786
G01 X43.9800 Y85.5282
G01 X43.9495 Y85.5833
G01 X43.8970 Y85.6809
G01 X43.8455 Y85.7804
G01 X43.8199 Y85.8313
G01 X43.7922 Y85.8879
G01 X43.7445 Y85.9879
G01 X43.6980 Y86.0899
G01 X43.6749 Y86.1420
G01 X43.6500 Y86.1999
G01 X43.6073 Y86.3021
G01 X43.5658 Y86.4062
G01 X43.5454 Y86.4594
G01 X43.5232 Y86.5184
G01 X43.4857 Y86.6226
G01 X43.4486 Y86.7309
G01 X43.4308 Y86.7851
G01 X43.4123 Y86.8428
G01 X43.3799 Y86.9488
G01 X43.3488 Y87.0564
G01 X43.3337 Y87.1114
G01 X43.3174 Y87.1723
G01 X43.2903 Y87.2797
G01 X43.2645 Y87.3887
G01 X43.2521 Y87.4444
G01 X43.2388 Y87.5060
G01 X43.2170 Y87.6146
G01 X43.1966 Y87.7248
G01 X43.1869 Y87.7809
G01 X43.1767 Y87.8431
G01 X43.1602 Y87.9527
G01 X43.1449 Y88.0661
G01 X43.1380 Y88.1227
G01 X43.1312 Y88.1829
G01 X43.1201 Y88.2932
G01 X43.1186 Y88.3089
G01 X43.1180 Y88.3152
G01 X43.1174 Y88.3223
G01 X43.1147 Y88.3536
G01 X43.1104 Y88.4072
G01 X43.1063 Y88.4640
G01 X43.1020 Y88.5309
G01 X43.0971 Y88.6265
G01 X43.0936 Y88.7179
G01 X43.0911 Y88.8200
G01 X43.0901 Y88.9132
G01 X43.0900 Y90.6417
G01 X43.0908 Y90.7450
G01 X43.0929 Y90.8407
G01 X43.0962 Y90.9321
G01 X43.1013 Y91.0365
G01 X43.1074 Y91.1325
G01 X43.1150 Y91.2296
G01 X43.1250 Y91.3380
G01 X43.1356 Y91.4361
G01 X43.1465 Y91.5264
G01 X43.1553 Y91.5928
G01 X43.1638 Y91.6524
G01 X43.1747 Y91.7244
G01 X43.1866 Y91.7975
G01 X43.1984 Y91.8653
G01 X43.2112 Y91.9351
G01 X43.2218 Y91.9903
G01 X43.2362 Y92.0616
G01 X43.2517 Y92.1341
G01 X43.2662 Y92.1990
G01 X43.2821 Y92.2665
G01 X43.2958 Y92.3226
G01 X43.3127 Y92.3894
G01 X43.3297 Y92.4541
G01 X43.3509 Y92.5312
G01 X43.3694 Y92.5956
G01 X43.3865 Y92.6532
G01 X43.4078 Y92.7228
G01 X43.4269 Y92.7829
G01 X43.4496 Y92.8521
G01 X43.4734 Y92.9222
G01 X43.4912 Y92.9730
G01 X43.5159 Y93.0415
G01 X43.5392 Y93.1043
G01 X43.5652 Y93.1723
G01 X43.5858 Y93.2246
G01 X43.6109 Y93.2867
G01 X43.6416 Y93.3605
G01 X43.6680 Y93.4220
G01 X43.6957 Y93.4850
G01 X43.7195 Y93.5377
G01 X43.7477 Y93.5989
G01 X23.5711 Y93.5989
G01 X23.5711 Y86.3213
G01 X24.6030 Y87.2149
G01 X24.6348 Y87.2088
G01 X24.7093 Y87.1940
G01 X24.7795 Y87.1793
G01 X24.8413 Y87.1658
G01 X24.9186 Y87.1483
G01 X25.0314 Y87.1213
G01 X25.2583 Y87.0644
G01 X25.3695 Y87.0353
G01 X25.4886 Y87.0023
G01 X25.5984 Y86.9700
G01 X25.6558 Y86.9525
G01 X25.7183 Y86.9329
G01 X25.8356 Y86.8946
G01 X25.9538 Y86.8539
G01 X26.1866 Y86.7707
G01 X26.2431 Y86.7500
G01 X26.3107 Y86.7246
G01 X26.4273 Y86.6793
G01 X26.4909 Y86.6536
G01 X26.5509 Y86.6289
G01 X26.6092 Y86.6043
G01 X26.6721 Y86.5771
G01 X26.7820 Y86.5281
G01 X26.8868 Y86.4796
G01 X27.0650 Y86.3953
G01 X27.1307 Y86.3637
G01 X27.1978 Y86.3308
G01 X27.2558 Y86.3017
G01 X27.3122 Y86.2728
G01 X27.3729 Y86.2411
G01 X27.4329 Y86.2091
G01 X27.4885 Y86.1789
G01 X27.5527 Y86.1433
G01 X27.6188 Y86.1058
G01 X27.7260 Y86.0433
G01 X27.9157 Y85.9296
G01 X28.0260 Y85.8622
G01 X28.1370 Y85.7919
G01 X28.2353 Y85.7275
G01 X28.2945 Y85.6877
G01 X28.3523 Y85.6481
G01 X28.4442 Y85.5835
G01 X28.5392 Y85.5149
G01 X28.7306 Y85.3730
G01 X28.8269 Y85.3001
G01 X28.8881 Y85.2526
G01 X28.9353 Y85.2153
G01 X28.9838 Y85.1764
G01 X29.0414 Y85.1293
G01 X29.1352 Y85.0508
G01 X29.1917 Y85.0023
G01 X29.2371 Y84.9627
G01 X29.3232 Y84.8859
G01 X29.4736 Y84.7496
G01 X29.5272 Y84.7004
G01 X29.5800 Y84.6510
G01 X29.6328 Y84.6008
G01 X29.6884 Y84.5469
G01 X29.7312 Y84.5047
G01 X42.3836 Y71.8590
G01 X42.4071 Y71.9189
G01 X42.4331 Y71.9840
G01 X42.4633 Y72.0573
G01 X42.4891 Y72.1184
G01 X42.5183 Y72.1858
G01 X42.5491 Y72.2553
G01 X42.5819 Y72.3272
G01 X42.6111 Y72.3900
G01 X42.5568 Y72.5077
G01 X42.5043 Y72.6263
G01 X42.4779 Y72.6879
G01 X42.4493 Y72.7566
G01 X42.4254 Y72.8152
G01 X42.4024 Y72.8729
G01 X42.3580 Y72.9882
G01 X42.3143 Y73.1070
G01 X42.2754 Y73.2158
G01 X42.2532 Y73.2791
G01 X42.2280 Y73.3529
G01 X42.2027 Y73.4296
G01 X42.1663 Y73.5447
G01 X42.1317 Y73.6600
G01 X42.1128 Y73.7258
G01 X42.0954 Y73.7884
G01 X42.0636 Y73.9081
G01 X42.0200 Y74.0817
G01 X42.0059 Y74.1400
G01 X41.9892 Y74.2115
G01 X41.9736 Y74.2809
G01 X41.9582 Y74.3526
G01 X41.9454 Y74.4146
G01 X41.9322 Y74.4813
G01 X41.9195 Y74.5487
G01 X41.9088 Y74.6080
G01 X41.8978 Y74.6719
G01 X41.8865 Y74.7406
G01 X41.8754 Y74.8125
G01 X41.8570 Y74.9362
G01 X41.8410 Y75.0517
G01 X41.8254 Y75.1774
G01 X41.8127 Y75.2942
G01 X41.8064 Y75.3588
G01 X41.8004 Y75.4271
G01 X41.7907 Y75.5549
G01 X41.7830 Y75.6813
G01 X41.7738 Y75.8732
G01 X41.7713 Y75.9433
G01 X41.7693 Y76.0176
G01 X41.7674 Y76.1352
G01 X41.7672 Y76.2144
G01 X41.7675 Y76.2777
G01 X41.7684 Y76.3398
G01 X41.7700 Y76.4142
G01 X41.7743 Y76.5392
G01 X41.7818 Y76.6957
G01 X41.7893 Y76.8247
G01 X41.7986 Y76.9510
G01 X41.8087 Y77.0650
G01 X41.8148 Y77.1264
G01 X41.8222 Y77.1946
G01 X41.8365 Y77.3140
G01 X41.8510 Y77.4222
G01 X41.8771 Y77.5991
G01 X41.8947 Y77.7096
G01 X41.9150 Y77.8266
G01 X41.9362 Y77.9391
G01 X41.9585 Y78.0491
G01 X41.9847 Y78.1687
G01 X41.9989 Y78.2304
G01 X42.0139 Y78.2935
G01 X42.0541 Y78.4547
G01 X42.0806 Y78.5569
G01 X42.1073 Y78.6544
G01 X42.0983 Y78.7386
G01 X42.0893 Y78.8347
G01 X42.0817 Y78.9267
G01 X42.0746 Y79.0278
G01 X42.0694 Y79.1151
G01 X42.0648 Y79.2132
G01 X42.0615 Y79.3086
G01 X42.0594 Y79.4019
G01 X42.0584 Y79.4762
G01 X42.0581 Y79.5400
G01 X42.0581 Y81.2427
G01 X42.0586 Y81.3194
G01 X42.0597 Y81.3941
G01 X42.0613 Y81.4621
G01 X42.0631 Y81.5223
G01 X42.0662 Y81.5987
G01 X42.0700 Y81.6746
G01 X42.0742 Y81.7461
G01 X42.0784 Y81.8093
G01 X42.0844 Y81.8883
G01 X42.0897 Y81.9502
G01 X42.0956 Y82.0132
G01 X42.1031 Y82.0873
G01 X42.1113 Y82.1618
G01 X42.1206 Y82.2387
G01 X42.1283 Y82.2984
G01 X42.1388 Y82.3742
G01 X42.1483 Y82.4384
G01 X42.1618 Y82.5248
G01 X42.1741 Y82.5981
G01 X42.1899 Y82.6871
G01 X42.2077 Y82.7808
G01 X42.2255 Y82.8693
G01 X42.2437 Y82.9549
G01 X42.2628 Y83.0397
G01 X42.2841 Y83.1297
G01 X42.3066 Y83.2203
G01 X42.3279 Y83.3019
G01 X42.3524 Y83.3920
G01 X42.3727 Y83.4635
G01 X42.3966 Y83.5446
G01 X42.4239 Y83.6338
G01 X42.4520 Y83.7218
G01 X42.4814 Y83.8104
G01 X42.5126 Y83.9006
G01 X42.5408 Y83.9796
G01 X42.5712 Y84.0617
G01 X42.6034 Y84.1460
G01 X42.6356 Y84.2274
G01 X42.6624 Y84.2934
G01 X42.6954 Y84.3722
G01 X42.7332 Y84.4598
G01 X42.7699 Y84.5423
G01 X42.8024 Y84.6133
G01 X42.8422 Y84.6978
G01 X42.8804 Y84.7765
G01 X42.9242 Y84.8643
G01 X42.9642 Y84.9422
G01 X42.9989 Y85.0079
G01 X43.0431 Y85.0900
G01 X42.9943 Y85.1806
G01 X42.9500 Y85.2651
G01 X42.9028 Y85.3582
G01 X42.8607 Y85.4439
G01 X42.8137 Y85.5426
G01 X42.7737 Y85.6293
G01 X42.7325 Y85.7218
G01 X42.6947 Y85.8094
G01 X42.6557 Y85.9030
G01 X42.6201 Y85.9915
G01 X42.5834 Y86.0859
G01 X42.5489 Y86.1783
G01 X42.5146 Y86.2736
G01 X42.4834 Y86.3638
G01 X42.4514 Y86.4599
G01 X42.4201 Y86.5584
G01 X42.3915 Y86.6524
G01 X42.3640 Y86.7470
G01 X42.3369 Y86.8446
G01 X42.3089 Y86.9508
G01 X42.2836 Y87.0521
G01 X42.2617 Y87.1450
G01 X42.2397 Y87.2439
G01 X42.2200 Y87.3373
G01 X42.2004 Y87.4367
G01 X42.1831 Y87.5305
G01 X42.1659 Y87.6304
G01 X42.1501 Y87.7294
G01 X42.1354 Y87.8296
G01 X42.1224 Y87.9273
G01 X42.1102 Y88.0279
G01 X42.0988 Y88.1338
G01 X42.0943 Y88.1795
G01 X42.0928 Y88.1953
G01 X42.0926 Y88.1984
G01 X42.0912 Y88.2126
G01 X42.0905 Y88.2205
G01 X42.0829 Y88.3109
G01 X42.0758 Y88.4088
G01 X42.0708 Y88.4898
G01 X42.0661 Y88.5831
G01 X42.0625 Y88.6754
G01 X42.0600 Y88.7686
G01 X42.0586 Y88.8541
G01 X42.0581 Y88.9400
G01 X42.0582 Y90.6649
G01 X42.0589 Y90.7498
G01 X42.0602 Y90.8211
G01 X42.0625 Y90.9033
G01 X42.0659 Y90.9908
G01 X42.0711 Y91.0951
G01 X42.0771 Y91.1904
G01 X42.0847 Y91.2914
G01 X42.0930 Y91.3865
G01 X42.1031 Y91.4873
G01 X42.1137 Y91.5821
G01 X42.1263 Y91.6827
G01 X42.1399 Y91.7820
G01 X42.1550 Y91.8822
G01 X42.1703 Y91.9764
G01 X42.1879 Y92.0762
G01 X42.2061 Y92.1730
G01 X42.2255 Y92.2693
G01 X42.2461 Y92.3656
G01 X42.2685 Y92.4644
G01 X42.2932 Y92.5670
G01 X24.6030 Y92.5670
G01 X24.6030 Y87.2149
G01 X25.6349 Y88.0325
G01 X25.7633 Y87.9970
G01 X25.8883 Y87.9604
G01 X26.0063 Y87.9241
G01 X26.0791 Y87.9008
G01 X26.1393 Y87.8810
G01 X26.2427 Y87.8460
G01 X26.3347 Y87.8137
G01 X26.5526 Y87.7356
G01 X26.6357 Y87.7049
G01 X26.7038 Y87.6791
G01 X26.8133 Y87.6362
G01 X26.8808 Y87.6090
G01 X26.9394 Y87.5849
G01 X27.0477 Y87.5390
G01 X27.1468 Y87.4955
G01 X27.2428 Y87.4520
G01 X27.3275 Y87.4126
G01 X27.5366 Y87.3136
G01 X27.6604 Y87.2531
G01 X27.7672 Y87.1992
G01 X27.8776 Y87.1414
G01 X27.9861 Y87.0829
G01 X28.0498 Y87.0476
G01 X28.1049 Y87.0164
G01 X28.1995 Y86.9619
G01 X28.2799 Y86.9144
G01 X28.4783 Y86.7954
G01 X28.5494 Y86.7519
G01 X28.6036 Y86.7181
G01 X28.6966 Y86.6589
G01 X28.7902 Y86.5977
G01 X28.8848 Y86.5341
G01 X28.9811 Y86.4676
G01 X29.0638 Y86.4091
G01 X29.1496 Y86.3468
G01 X29.3392 Y86.2064
G01 X29.4050 Y86.1569
G01 X29.4713 Y86.1062
G01 X29.5317 Y86.0592
G01 X29.5859 Y86.0163
G01 X29.6484 Y85.9659
G01 X29.7047 Y85.9199
G01 X29.7605 Y85.8733
G01 X29.8190 Y85.8238
G01 X29.8838 Y85.7680
G01 X29.9463 Y85.7131
G01 X30.0003 Y85.6648
G01 X30.1603 Y85.5198
G01 X30.2105 Y85.4739
G01 X30.2715 Y85.4172
G01 X30.3313 Y85.3606
G01 X30.3773 Y85.3163
G01 X30.4311 Y85.2638
G01 X40.8168 Y74.9251
G01 X40.8033 Y75.0338
G01 X40.7916 Y75.1375
G01 X40.7810 Y75.2420
G01 X40.7722 Y75.3403
G01 X40.7636 Y75.4501
G01 X40.7581 Y75.5322
G01 X40.7526 Y75.6270
G01 X40.7457 Y75.7644
G01 X40.7420 Y75.8531
G01 X40.7387 Y75.9522
G01 X40.7366 Y76.0478
G01 X40.7355 Y76.1368
G01 X40.7354 Y76.2375
G01 X40.7363 Y76.3330
G01 X40.7384 Y76.4374
G01 X40.7410 Y76.5197
G01 X40.7456 Y76.6334
G01 X40.7551 Y76.8197
G01 X40.7629 Y76.9395
G01 X40.7727 Y77.0663
G01 X40.7792 Y77.1388
G01 X40.7857 Y77.2056
G01 X40.7992 Y77.3314
G01 X40.8063 Y77.3911
G01 X40.8166 Y77.4728
G01 X40.8338 Y77.5982
G01 X40.8587 Y77.7657
G01 X40.8806 Y77.9017
G01 X40.9042 Y78.0358
G01 X40.9166 Y78.1015
G01 X40.9317 Y78.1786
G01 X40.9445 Y78.2412
G01 X40.9591 Y78.3099
G01 X40.9894 Y78.4452
G01 X41.0189 Y78.5683
G01 X41.0618 Y78.7393
G01 X41.0545 Y78.8265
G01 X41.0481 Y78.9118
G01 X41.0426 Y78.9976
G01 X41.0385 Y79.0703
G01 X41.0342 Y79.1620
G01 X41.0312 Y79.2415
G01 X41.0287 Y79.3333
G01 X41.0272 Y79.4100
G01 X41.0262 Y79.5400
G01 X41.0263 Y81.2737
G01 X41.0275 Y81.3895
G01 X41.0301 Y81.5034
G01 X41.0342 Y81.6171
G01 X41.0396 Y81.7310
G01 X41.0474 Y81.8579
G01 X41.0559 Y81.9715
G01 X41.0657 Y82.0830
G01 X41.0766 Y82.1926
G01 X41.0864 Y82.2812
G01 X41.0979 Y82.3761
G01 X41.1103 Y82.4701
G01 X41.1224 Y82.5552
G01 X41.1362 Y82.6461
G01 X41.1521 Y82.7435
G01 X41.1683 Y82.8369
G01 X41.1874 Y82.9396
G01 X41.2076 Y83.0421
G01 X41.2259 Y83.1300
G01 X41.2434 Y83.2103
G01 X41.2659 Y83.3085
G01 X41.2882 Y83.4014
G01 X41.3138 Y83.5027
G01 X41.3365 Y83.5888
G01 X41.3608 Y83.6774
G01 X41.3878 Y83.7722
G01 X41.4112 Y83.8511
G01 X41.4393 Y83.9425
G01 X41.4710 Y84.0419
G01 X41.4991 Y84.1265
G01 X41.5311 Y84.2200
G01 X41.5649 Y84.3154
G01 X41.5977 Y84.4044
G01 X41.6268 Y84.4814
G01 X41.6648 Y84.5787
G01 X41.6983 Y84.6620
G01 X41.7346 Y84.7496
G01 X41.7719 Y84.8369
G01 X41.8104 Y84.9245
G01 X41.8442 Y84.9993
G01 X41.8862 Y85.0900
G01 X41.8523 Y85.1630
G01 X41.8131 Y85.2496
G01 X41.7760 Y85.3336
G01 X41.7431 Y85.4103
G01 X41.7078 Y85.4950
G01 X41.6768 Y85.5711
G01 X41.6452 Y85.6511
G01 X41.6091 Y85.7451
G01 X41.5780 Y85.8286
G01 X41.5469 Y85.9150
G01 X41.5228 Y85.9837
G01 X41.4940 Y86.0687
G01 X41.4672 Y86.1498
G01 X41.4384 Y86.2403
G01 X41.4104 Y86.3317
G01 X41.3881 Y86.4069
G01 X41.3634 Y86.4932
G01 X41.3367 Y86.5903
G01 X41.3154 Y86.6710
G01 X41.2928 Y86.7600
G01 X41.2743 Y86.8362
G01 X41.2538 Y86.9236
G01 X41.2352 Y87.0069
G01 X41.2154 Y87.0998
G01 X41.1972 Y87.1898
G01 X41.1827 Y87.2650
G01 X41.1662 Y87.3552
G01 X41.1510 Y87.4430
G01 X41.1358 Y87.5367
G01 X41.1220 Y87.6275
G01 X41.1104 Y87.7090
G01 X41.0987 Y87.7979
G01 X41.0829 Y87.9294
G01 X41.0747 Y88.0054
G01 X41.0680 Y88.0722
G01 X41.0654 Y88.0999
G01 X41.0650 Y88.1036
G01 X41.0636 Y88.1188
G01 X41.0624 Y88.1320
G01 X41.0564 Y88.2020
G01 X41.0462 Y88.3402
G01 X41.0390 Y88.4614
G01 X41.0354 Y88.5335
G01 X41.0328 Y88.5973
G01 X41.0303 Y88.6700
G01 X41.0285 Y88.7428
G01 X41.0265 Y88.8724
G01 X41.0262 Y88.9400
G01 X41.0263 Y90.6427
G01 X41.0266 Y90.7118
G01 X41.0275 Y90.7895
G01 X41.0298 Y90.8907
G01 X41.0329 Y90.9855
G01 X41.0364 Y91.0677
G01 X41.0414 Y91.1632
G01 X41.0474 Y91.2579
G01 X41.0544 Y91.3526
G01 X41.0619 Y91.4420
G01 X41.0707 Y91.5351
G01 X25.6349 Y91.5351
G01 X25.6349 Y88.0325
G01 X26.6667 Y88.7908
G01 X26.9276 Y88.6972
G01 X27.0214 Y88.6623
G01 X27.1160 Y88.6260
G01 X27.2180 Y88.5857
G01 X27.3045 Y88.5505
G01 X27.4020 Y88.5097
G01 X27.5029 Y88.4662
G01 X27.6145 Y88.4166
G01 X27.7109 Y88.3725
G01 X27.9444 Y88.2623
G01 X28.0190 Y88.2266
G01 X28.1162 Y88.1789
G01 X28.2109 Y88.1312
G01 X28.3084 Y88.0809
G01 X28.4019 Y88.0312
G01 X28.4837 Y87.9868
G01 X28.5799 Y87.9333
G01 X28.6735 Y87.8799
G01 X28.7747 Y87.8207
G01 X28.9786 Y87.6986
G01 X29.0479 Y87.6567
G01 X29.1493 Y87.5938
G01 X29.2507 Y87.5294
G01 X29.3344 Y87.4748
G01 X29.4308 Y87.4106
G01 X29.5187 Y87.3506
G01 X29.6090 Y87.2876
G01 X29.6805 Y87.2365
G01 X29.7601 Y87.1787
G01 X29.9840 Y87.0126
G01 X30.0568 Y86.9576
G01 X30.1220 Y86.9074
G01 X30.1890 Y86.8550
G01 X30.2637 Y86.7954
G01 X30.3242 Y86.7464
G01 X30.4023 Y86.6818
G01 X30.4704 Y86.6244
G01 X30.5389 Y86.5656
G01 X30.6044 Y86.5085
G01 X30.6779 Y86.4432
G01 X30.9008 Y86.2409
G01 X30.9596 Y86.1865
G01 X31.0148 Y86.1346
G01 X31.0729 Y86.0790
G01 X31.1403 Y86.0136
G01 X31.1966 Y85.9580
G01 X39.7714 Y77.4254
G01 X39.7808 Y77.5059
G01 X39.7907 Y77.5860
G01 X39.8020 Y77.6708
G01 X39.8133 Y77.7510
G01 X39.8346 Y77.8947
G01 X39.8467 Y77.9730
G01 X39.8624 Y78.0692
G01 X39.8786 Y78.1628
G01 X39.8957 Y78.2567
G01 X39.9094 Y78.3278
G01 X39.9271 Y78.4166
G01 X39.9443 Y78.4993
G01 X39.9618 Y78.5797
G01 X39.9796 Y78.6584
G01 X40.0004 Y78.7468
G01 X40.0197 Y78.8264
G01 X40.0150 Y78.8970
G01 X40.0102 Y78.9760
G01 X40.0058 Y79.0618
G01 X40.0026 Y79.1342
G01 X39.9999 Y79.2078
G01 X39.9978 Y79.2800
G01 X39.9959 Y79.3660
G01 X39.9948 Y79.4487
G01 X39.9944 Y79.5400
G01 X39.9944 Y81.2433
G01 X39.9947 Y81.3209
G01 X39.9956 Y81.3927
G01 X39.9986 Y81.5292
G01 X40.0034 Y81.6652
G01 X40.0107 Y81.8125
G01 X40.0149 Y81.8827
G01 X40.0197 Y81.9538
G01 X40.0253 Y82.0278
G01 X40.0308 Y82.0953
G01 X40.0379 Y82.1751
G01 X40.0451 Y82.2490
G01 X40.0521 Y82.3165
G01 X40.0602 Y82.3897
G01 X40.0768 Y82.5264
G01 X40.0886 Y82.6146
G01 X40.0995 Y82.6916
G01 X40.1114 Y82.7714
G01 X40.1253 Y82.8593
G01 X40.1381 Y82.9359
G01 X40.1528 Y83.0197
G01 X40.1681 Y83.1029
G01 X40.1827 Y83.1793
G01 X40.1986 Y83.2584
G01 X40.2168 Y83.3455
G01 X40.2333 Y83.4215
G01 X40.2520 Y83.5044
G01 X40.2714 Y83.5868
G01 X40.2898 Y83.6624
G01 X40.3106 Y83.7448
G01 X40.3336 Y83.8330
G01 X40.3551 Y83.9124
G01 X40.3794 Y83.9993
G01 X40.4014 Y84.0755
G01 X40.4236 Y84.1501
G01 X40.4501 Y84.2364
G01 X40.4739 Y84.3120
G01 X40.4980 Y84.3861
G01 X40.5265 Y84.4718
G01 X40.5522 Y84.5467
G01 X40.5781 Y84.6202
G01 X40.6087 Y84.7051
G01 X40.6397 Y84.7887
G01 X40.6654 Y84.8562
G01 X40.6983 Y84.9406
G01 X40.7296 Y85.0192
G01 X40.7586 Y85.0900
G01 X40.7297 Y85.1605
G01 X40.6991 Y85.2373
G01 X40.6744 Y85.3003
G01 X40.6421 Y85.3849
G01 X40.6160 Y85.4549
G01 X40.5894 Y85.5281
G01 X40.5592 Y85.6132
G01 X40.5348 Y85.6840
G01 X40.5120 Y85.7515
G01 X40.4854 Y85.8322
G01 X40.4597 Y85.9129
G01 X40.4366 Y85.9871
G01 X40.4133 Y86.0644
G01 X40.3895 Y86.1454
G01 X40.3697 Y86.2151
G01 X40.3485 Y86.2917
G01 X40.3309 Y86.3574
G01 X40.3096 Y86.4391
G01 X40.2899 Y86.5173
G01 X40.2719 Y86.5910
G01 X40.2512 Y86.6795
G01 X40.2348 Y86.7519
G01 X40.2182 Y86.8278
G01 X40.2019 Y86.9053
G01 X40.1841 Y86.9940
G01 X40.1693 Y87.0703
G01 X40.1550 Y87.1482
G01 X40.1402 Y87.2318
G01 X40.1280 Y87.3043
G01 X40.1156 Y87.3815
G01 X40.1054 Y87.4484
G01 X40.0930 Y87.5336
G01 X40.0755 Y87.6642
G01 X40.0597 Y87.7943
G01 X40.0457 Y87.9242
G01 X40.0390 Y87.9935
G01 X40.0379 Y88.0045
G01 X40.0375 Y88.0088
G01 X40.0356 Y88.0296
G01 X40.0328 Y88.0613
G01 X40.0258 Y88.1454
G01 X40.0206 Y88.2138
G01 X40.0123 Y88.3399
G01 X40.0051 Y88.4773
G01 X39.9999 Y88.6078
G01 X39.9979 Y88.6758
G01 X39.9959 Y88.7660
G01 X39.9944 Y88.9120
G01 X39.9944 Y90.5033
G01 X26.6667 Y90.5033
G01 X26.6667 Y88.7908
G01 X27.7772 Y89.4714
G01 X27.8589 Y89.4366
G01 X27.9383 Y89.4020
G01 X28.0192 Y89.3661
G01 X28.1044 Y89.3273
G01 X28.1962 Y89.2846
G01 X28.3882 Y89.1939
G01 X28.5178 Y89.1314
G01 X28.5914 Y89.0950
G01 X28.6689 Y89.0560
G01 X28.7299 Y89.0247
G01 X28.8029 Y88.9867
G01 X28.8853 Y88.9429
G01 X28.9521 Y88.9068
G01 X29.0275 Y88.8653
G01 X29.0937 Y88.8282
G01 X29.1836 Y88.7769
G01 X29.2732 Y88.7247
G01 X29.3400 Y88.6851
G01 X29.5223 Y88.5758
G01 X29.5967 Y88.5305
G01 X29.6626 Y88.4899
G01 X29.7264 Y88.4498
G01 X29.8052 Y88.3996
G01 X29.8789 Y88.3518
G01 X29.9512 Y88.3040
G01 X30.0328 Y88.2492
G01 X30.1052 Y88.1996
G01 X30.1764 Y88.1501
G01 X30.2565 Y88.0933
G01 X30.3259 Y88.0433
G01 X30.3962 Y87.9918
G01 X30.6078 Y87.8346
G01 X30.6867 Y87.7749
G01 X30.7594 Y87.7189
G01 X30.8425 Y87.6538
G01 X30.9236 Y87.5889
G01 X31.0095 Y87.5188
G01 X31.0894 Y87.4523
G01 X31.1658 Y87.3876
G01 X31.2393 Y87.3241
G01 X31.3196 Y87.2536
G01 X31.3906 Y87.1900
G01 X31.5524 Y87.0434
G01 X31.6226 Y86.9790
G01 X31.7100 Y86.8974
G01 X31.8016 Y86.8099
G01 X31.9024 Y86.7113
G01 X38.9625 Y79.7218
G01 X38.9625 Y81.2660
G01 X38.9640 Y81.4195
G01 X38.9653 Y81.4881
G01 X38.9676 Y81.5763
G01 X38.9723 Y81.7047
G01 X38.9790 Y81.8439
G01 X38.9870 Y81.9771
G01 X38.9971 Y82.1160
G01 X39.0084 Y82.2490
G01 X39.0220 Y82.3876
G01 X39.0365 Y82.5202
G01 X39.0525 Y82.6513
G01 X39.0624 Y82.7261
G01 X39.0744 Y82.8128
G01 X39.0969 Y82.9630
G01 X39.1088 Y83.0372
G01 X39.1211 Y83.1104
G01 X39.1351 Y83.1904
G01 X39.1485 Y83.2646
G01 X39.1648 Y83.3507
G01 X39.1806 Y83.4304
G01 X39.1957 Y83.5045
G01 X39.2125 Y83.5837
G01 X39.2272 Y83.6507
G01 X39.2467 Y83.7367
G01 X39.2664 Y83.8209
G01 X39.2828 Y83.8886
G01 X39.3200 Y84.0356
G01 X39.3406 Y84.1139
G01 X39.3605 Y84.1871
G01 X39.3822 Y84.2651
G01 X39.4064 Y84.3491
G01 X39.4279 Y84.4220
G01 X39.4514 Y84.4995
G01 X39.4733 Y84.5703
G01 X39.4984 Y84.6491
G01 X39.5195 Y84.7139
G01 X39.5491 Y84.8025
G01 X39.5968 Y84.9406
G01 X39.6241 Y85.0169
G01 X39.6508 Y85.0900
G01 X39.6020 Y85.2248
G01 X39.5581 Y85.3508
G01 X39.5140 Y85.4829
G01 X39.4732 Y85.6100
G01 X39.4309 Y85.7480
G01 X39.3933 Y85.8761
G01 X39.3557 Y86.0102
G01 X39.3213 Y86.1391
G01 X39.2845 Y86.2846
G01 X39.2534 Y86.4144
G01 X39.2226 Y86.5502
G01 X39.1946 Y86.6807
G01 X39.1672 Y86.8173
G01 X39.1425 Y86.9484
G01 X39.1184 Y87.0856
G01 X39.0969 Y87.2173
G01 X39.0762 Y87.3551
G01 X39.0579 Y87.4873
G01 X39.0406 Y87.6255
G01 X39.0267 Y87.7473
G01 X39.0127 Y87.8859
G01 X39.0116 Y87.8967
G01 X39.0111 Y87.9019
G01 X39.0100 Y87.9141
G01 X39.0068 Y87.9490
G01 X39.0012 Y88.0138
G01 X38.9905 Y88.1527
G01 X38.9823 Y88.2785
G01 X38.9752 Y88.4107
G01 X38.9706 Y88.5166
G01 X38.9667 Y88.6374
G01 X38.9640 Y88.7608
G01 X38.9630 Y88.8394
G01 X38.9625 Y88.9208
G01 X38.9625 Y89.4714
G01 X27.7772 Y89.4714
G01 X31.5122 Y88.4395
G01 X31.6217 Y88.3512
G01 X31.6853 Y88.2989
G01 X31.7434 Y88.2505
G01 X31.8548 Y88.1560
G01 X31.9171 Y88.1021
G01 X31.9797 Y88.0473
G01 X32.0871 Y87.9514
G01 X32.2468 Y87.8066
G01 X32.3095 Y87.7493
G01 X32.4231 Y87.6432
G01 X32.4912 Y87.5783
G01 X32.5456 Y87.5258
G01 X32.6284 Y87.4445
G01 X37.9656 Y82.1607
G01 X37.9730 Y82.2531
G01 X37.9809 Y82.3434
G01 X37.9908 Y82.4469
G01 X37.9996 Y82.5324
G01 X38.0100 Y82.6258
G01 X38.0199 Y82.7089
G01 X38.0331 Y82.8143
G01 X38.0460 Y82.9098
G01 X38.0584 Y82.9963
G01 X38.0726 Y83.0912
G01 X38.0874 Y83.1849
G01 X38.1021 Y83.2732
G01 X38.1182 Y83.3659
G01 X38.1341 Y83.4536
G01 X38.1529 Y83.5528
G01 X38.1716 Y83.6472
G01 X38.1909 Y83.7407
G01 X38.2118 Y83.8378
G01 X38.2330 Y83.9330
G01 X38.2526 Y84.0179
G01 X38.2750 Y84.1113
G01 X38.2992 Y84.2090
G01 X38.3200 Y84.2903
G01 X38.3439 Y84.3811
G01 X38.3659 Y84.4619
G01 X38.3945 Y84.5642
G01 X38.4196 Y84.6513
G01 X38.4444 Y84.7348
G01 X38.4725 Y84.8270
G01 X38.5021 Y84.9212
G01 X38.5282 Y85.0026
G01 X38.5571 Y85.0900
G01 X38.5235 Y85.1919
G01 X38.4912 Y85.2932
G01 X38.4612 Y85.3899
G01 X38.4282 Y85.4994
G01 X38.4013 Y85.5919
G01 X38.3739 Y85.6889
G01 X38.3436 Y85.8000
G01 X38.3162 Y85.9045
G01 X38.2886 Y86.0132
G01 X38.2646 Y86.1116
G01 X38.2398 Y86.2172
G01 X38.2148 Y86.3284
G01 X38.1911 Y86.4387
G01 X38.1726 Y86.5280
G01 X38.1516 Y86.6341
G01 X38.1304 Y86.7466
G01 X38.1125 Y86.8463
G01 X38.0924 Y86.9650
G01 X38.0753 Y87.0717
G01 X38.0597 Y87.1745
G01 X38.0451 Y87.2769
G01 X38.0323 Y87.3722
G01 X38.0180 Y87.4861
G01 X38.0063 Y87.5867
G01 X37.9949 Y87.6924
G01 X37.9904 Y87.7372
G01 X37.9868 Y87.7743
G01 X37.9854 Y87.7881
G01 X37.9843 Y87.7999
G01 X37.9742 Y87.9122
G01 X37.9669 Y88.0031
G01 X37.9590 Y88.1110
G01 X37.9517 Y88.2253
G01 X37.9462 Y88.3264
G01 X37.9410 Y88.4395
G01 X31.5122 Y88.4395
G01 X34.1340 Y87.4076
G01 X37.2631 Y84.3170
G01 X37.2855 Y84.4088
G01 X37.3110 Y84.5099
G01 X37.3377 Y84.6126
G01 X37.3621 Y84.7032
G01 X37.3908 Y84.8071
G01 X37.4159 Y84.8952
G01 X37.4460 Y84.9976
G01 X37.4738 Y85.0900
G01 X37.4324 Y85.2283
G01 X37.3903 Y85.3748
G01 X37.3491 Y85.5248
G01 X37.3109 Y85.6704
G01 X37.2767 Y85.8069
G01 X37.2419 Y85.9526
G01 X37.2071 Y86.1066
G01 X37.1777 Y86.2432
G01 X37.1468 Y86.3957
G01 X37.1187 Y86.5429
G01 X37.0949 Y86.6751
G01 X37.0700 Y86.8230
G01 X37.0483 Y86.9606
G01 X37.0255 Y87.1172
G01 X37.0065 Y87.2590
G01 X36.9882 Y87.4076
G01 X34.1340 Y87.4076
G01 X49.2812 Y88.9400
G01 X49.2812 Y90.6400
G01 X49.2822 Y90.6789
G01 X49.2834 Y90.6984
G01 X49.2872 Y90.7372
G01 X49.2929 Y90.7757
G01 X49.3005 Y90.8139
G01 X49.3100 Y90.8517
G01 X49.3213 Y90.8890
G01 X49.3344 Y90.9257
G01 X49.3493 Y90.9617
G01 X49.3660 Y90.9969
G01 X49.3750 Y91.0142
G01 X49.3942 Y91.0481
G01 X49.4150 Y91.0810
G01 X49.4375 Y91.1128
G01 X49.4492 Y91.1283
G01 X49.4740 Y91.1585
G01 X49.5001 Y91.1873
G01 X49.5137 Y91.2013
G01 X49.5419 Y91.2281
G01 X49.5565 Y91.2410
G01 X49.5867 Y91.2658
G01 X49.6180 Y91.2890
G01 X49.6503 Y91.3106
G01 X49.6838 Y91.3306
G01 X49.7181 Y91.3490
G01 X49.7533 Y91.3657
G01 X49.7712 Y91.3733
G01 X49.7893 Y91.3806
G01 X49.8260 Y91.3937
G01 X49.8633 Y91.4050
G01 X49.9011 Y91.4145
G01 X49.9393 Y91.4221
G01 X49.9585 Y91.4252
G01 X49.9972 Y91.4299
G01 X50.0361 Y91.4328
G01 X50.0750 Y91.4338
G01 X51.5250 Y91.4338
G01 X51.5639 Y91.4328
G01 X51.6028 Y91.4299
G01 X51.6222 Y91.4278
G01 X51.6607 Y91.4221
G01 X51.6989 Y91.4145
G01 X51.7367 Y91.4050
G01 X51.7554 Y91.3996
G01 X51.7924 Y91.3874
G01 X51.8288 Y91.3733
G01 X51.8644 Y91.3575
G01 X51.8819 Y91.3490
G01 X51.9109 Y91.3336
G01 X51.9109 Y94.1409
G01 X51.8577 Y94.2127
G01 X51.8352 Y94.2446
G01 X51.8144 Y94.2775
G01 X51.7631 Y94.3630
G01 X51.7439 Y94.3969
G01 X51.7350 Y94.4142
G01 X51.6838 Y94.5218
G01 X51.6680 Y94.5574
G01 X51.6608 Y94.5755
G01 X51.6141 Y94.7061
G01 X51.6028 Y94.7434
G01 X51.5736 Y94.8589
G01 X51.5691 Y94.8779
G01 X51.5615 Y94.9161
G01 X51.5411 Y95.0533
G01 X51.5390 Y95.0726
G01 X51.5361 Y95.1115
G01 X51.5305 Y95.2305
G01 X51.5305 Y95.2695
G01 X51.5312 Y95.2889
G01 X51.5361 Y95.3885
G01 X51.5390 Y95.4274
G01 X51.5437 Y95.4661
G01 X51.5615 Y95.5839
G01 X51.5691 Y95.6221
G01 X51.5978 Y95.7378
G01 X51.6082 Y95.7753
G01 X51.6204 Y95.8123
G01 X51.6540 Y95.9062
G01 X51.6680 Y95.9426
G01 X51.6838 Y95.9782
G01 X51.7350 Y96.0858
G01 X51.7533 Y96.1202
G01 X51.8144 Y96.2225
G01 X51.8352 Y96.2554
G01 X51.8463 Y96.2715
G01 X51.9171 Y96.3674
G01 X51.9410 Y96.3981
G01 X51.9665 Y96.4276
G01 X52.0334 Y96.5015
G01 X52.0603 Y96.5297
G01 X52.0743 Y96.5433
G01 X52.1624 Y96.6235
G01 X52.1919 Y96.6490
G01 X52.2226 Y96.6729
G01 X52.3185 Y96.7437
G01 X52.3346 Y96.7548
G01 X52.3675 Y96.7756
G01 X52.4530 Y96.8269
G01 X52.4869 Y96.8461
G01 X52.5217 Y96.8636
G01 X52.6295 Y96.9143
G01 X52.6655 Y96.9292
G01 X52.7777 Y96.9696
G01 X52.8147 Y96.9818
G01 X52.8334 Y96.9872
G01 X52.9489 Y97.0164
G01 X52.9869 Y97.0250
G01 X53.0253 Y97.0316
G01 X53.1239 Y97.0463
G01 X53.1626 Y97.0510
G01 X53.2015 Y97.0539
G01 X53.3011 Y97.0588
G01 X53.3400 Y97.0598
G01 X53.3789 Y97.0588
G01 X53.4785 Y97.0539
G01 X53.5174 Y97.0510
G01 X53.5561 Y97.0463
G01 X53.6547 Y97.0316
G01 X53.6931 Y97.0250
G01 X53.7311 Y97.0164
G01 X53.8278 Y96.9922
G01 X53.8653 Y96.9818
G01 X53.9023 Y96.9696
G01 X53.9962 Y96.9360
G01 X54.0326 Y96.9220
G01 X54.0682 Y96.9062
G01 X54.1583 Y96.8636
G01 X54.1931 Y96.8461
G01 X54.2270 Y96.8269
G01 X54.3125 Y96.7756
G01 X54.3454 Y96.7548
G01 X54.3773 Y96.7323
G01 X54.4574 Y96.6729
G01 X54.4881 Y96.6490
G01 X54.5176 Y96.6235
G01 X54.5915 Y96.5566
G01 X54.6197 Y96.5297
G01 X54.6466 Y96.5015
G01 X54.7135 Y96.4276
G01 X54.7390 Y96.3981
G01 X54.7629 Y96.3674
G01 X54.8223 Y96.2873
G01 X54.8448 Y96.2554
G01 X54.8656 Y96.2225
G01 X54.9169 Y96.1370
G01 X54.9361 Y96.1031
G01 X54.9536 Y96.0683
G01 X54.9962 Y95.9782
G01 X55.0120 Y95.9426
G01 X55.0260 Y95.9062
G01 X55.0659 Y95.7939
G01 X55.0772 Y95.7566
G01 X55.0822 Y95.7378
G01 X55.1064 Y95.6411
G01 X55.1150 Y95.6031
G01 X55.1216 Y95.5647
G01 X55.1389 Y95.4467
G01 X55.1427 Y95.4080
G01 X55.1439 Y95.3885
G01 X55.1488 Y95.2889
G01 X55.1498 Y95.2500
G01 X55.1488 Y95.2111
G01 X55.1439 Y95.1115
G01 X55.1410 Y95.0726
G01 X55.1389 Y95.0533
G01 X55.1185 Y94.9161
G01 X55.1150 Y94.8969
G01 X55.1064 Y94.8589
G01 X55.0822 Y94.7622
G01 X55.0718 Y94.7247
G01 X55.0596 Y94.6877
G01 X55.0260 Y94.5938
G01 X55.0192 Y94.5755
G01 X55.0043 Y94.5395
G01 X54.9450 Y94.4142
G01 X54.9267 Y94.3798
G01 X54.9169 Y94.3630
G01 X54.8656 Y94.2775
G01 X54.8448 Y94.2446
G01 X54.8223 Y94.2127
G01 X54.7691 Y94.1409
G01 X54.7691 Y91.3336
G01 X54.7981 Y91.3490
G01 X54.8333 Y91.3657
G01 X54.8693 Y91.3806
G01 X54.9060 Y91.3937
G01 X54.9433 Y91.4050
G01 X54.9811 Y91.4145
G01 X55.0193 Y91.4221
G01 X55.0578 Y91.4278
G01 X55.0966 Y91.4316
G01 X55.1355 Y91.4335
G01 X55.1550 Y91.4338
G01 X55.5929 Y91.4338
G01 X55.6211 Y91.4478
G01 X55.6775 Y91.4745
G01 X55.6952 Y91.4826
G01 X55.7312 Y91.4975
G01 X55.8266 Y91.5316
G01 X55.8452 Y91.5375
G01 X55.8827 Y91.5479
G01 X55.9432 Y91.5631
G01 X55.9812 Y91.5716
G01 X56.0196 Y91.5783
G01 X56.0813 Y91.5874
G01 X56.1199 Y91.5922
G01 X56.1393 Y91.5939
G01 X56.2405 Y91.5988
G01 X71.8281 Y91.5991
G01 X71.8113 Y91.6153
G01 X71.7844 Y91.6435
G01 X71.7347 Y91.6984
G01 X71.7093 Y91.7279
G01 X71.6853 Y91.7586
G01 X71.6412 Y91.8181
G01 X71.6188 Y91.8499
G01 X71.5979 Y91.8828
G01 X71.5599 Y91.9463
G01 X71.5407 Y91.9802
G01 X71.5232 Y92.0150
G01 X71.4915 Y92.0819
G01 X71.4757 Y92.1176
G01 X71.4617 Y92.1539
G01 X71.4368 Y92.2236
G01 X71.4245 Y92.2606
G01 X71.4141 Y92.2982
G01 X71.3962 Y92.3700
G01 X71.3876 Y92.4080
G01 X71.3810 Y92.4464
G01 X71.3701 Y92.5196
G01 X71.3653 Y92.5583
G01 X71.3625 Y92.5971
G01 X71.3588 Y92.6711
G01 X71.3579 Y92.7100
G01 X71.3588 Y92.7489
G01 X71.3625 Y92.8229
G01 X71.3653 Y92.8617
G01 X71.3701 Y92.9004
G01 X71.3810 Y92.9736
G01 X71.3876 Y93.0120
G01 X71.3962 Y93.0500
G01 X71.4141 Y93.1218
G01 X71.4245 Y93.1594
G01 X71.4368 Y93.1964
G01 X71.4617 Y93.2661
G01 X71.4757 Y93.3024
G01 X71.4915 Y93.3381
G01 X71.5232 Y93.4050
G01 X71.5407 Y93.4398
G01 X71.5599 Y93.4737
G01 X71.5979 Y93.5372
G01 X71.6188 Y93.5701
G01 X71.6412 Y93.6019
G01 X71.6853 Y93.6614
G01 X71.7093 Y93.6921
G01 X71.7347 Y93.7216
G01 X71.7844 Y93.7765
G01 X71.8113 Y93.8047
G01 X71.8281 Y93.8209
G01 X62.0691 Y93.8209
G01 X61.9973 Y93.7677
G01 X61.9654 Y93.7452
G01 X61.9325 Y93.7244
G01 X61.8470 Y93.6731
G01 X61.8131 Y93.6539
G01 X61.7958 Y93.6450
G01 X61.6882 Y93.5938
G01 X61.6526 Y93.5780
G01 X61.6345 Y93.5708
G01 X61.5039 Y93.5241
G01 X61.4666 Y93.5128
G01 X61.3511 Y93.4836
G01 X61.3321 Y93.4791
G01 X61.2939 Y93.4715
G01 X61.1567 Y93.4511
G01 X61.1374 Y93.4490
G01 X61.0985 Y93.4461
G01 X60.9795 Y93.4405
G01 X60.9600 Y93.4402
G01 X60.9211 Y93.4412
G01 X60.8020 Y93.4473
G01 X60.7633 Y93.4511
G01 X60.6453 Y93.4684
G01 X60.6069 Y93.4750
G01 X60.5879 Y93.4791
G01 X60.4722 Y93.5078
G01 X60.4347 Y93.5182
G01 X60.3977 Y93.5304
G01 X60.3038 Y93.5640
G01 X60.2674 Y93.5780
G01 X60.2318 Y93.5938
G01 X60.1417 Y93.6364
G01 X60.1069 Y93.6539
G01 X60.0730 Y93.6731
G01 X59.9875 Y93.7244
G01 X59.9546 Y93.7452
G01 X59.9227 Y93.7677
G01 X59.8426 Y93.8271
G01 X59.8119 Y93.8510
G01 X59.7824 Y93.8765
G01 X59.7085 Y93.9434
G01 X59.6803 Y93.9703
G01 X59.6534 Y93.9985
G01 X59.5865 Y94.0724
G01 X59.5610 Y94.1019
G01 X59.5371 Y94.1326
G01 X59.4663 Y94.2285
G01 X59.4446 Y94.2609
G01 X59.4344 Y94.2775
G01 X59.3831 Y94.3630
G01 X59.3639 Y94.3969
G01 X59.3464 Y94.4317
G01 X59.3038 Y94.5218
G01 X59.2880 Y94.5574
G01 X59.2808 Y94.5755
G01 X59.2404 Y94.6877
G01 X59.2341 Y94.7061
G01 X59.2228 Y94.7434
G01 X59.1891 Y94.8779
G01 X59.1815 Y94.9161
G01 X59.1784 Y94.9353
G01 X59.1611 Y95.0533
G01 X59.1590 Y95.0726
G01 X59.1561 Y95.1115
G01 X59.1512 Y95.2111
G01 X59.1502 Y95.2500
G01 X59.1512 Y95.2889
G01 X59.1561 Y95.3885
G01 X59.1590 Y95.4274
G01 X59.1637 Y95.4661
G01 X59.1784 Y95.5647
G01 X59.1850 Y95.6031
G01 X59.1936 Y95.6411
G01 X59.2178 Y95.7378
G01 X59.2228 Y95.7566
G01 X59.2341 Y95.7939
G01 X59.2740 Y95.9062
G01 X59.2880 Y95.9426
G01 X59.3038 Y95.9782
G01 X59.3464 Y96.0683
G01 X59.3550 Y96.0858
G01 X59.3733 Y96.1202
G01 X59.4344 Y96.2225
G01 X59.4552 Y96.2554
G01 X59.4777 Y96.2873
G01 X59.5371 Y96.3674
G01 X59.5610 Y96.3981
G01 X59.5865 Y96.4276
G01 X59.6534 Y96.5015
G01 X59.6803 Y96.5297
G01 X59.6943 Y96.5433
G01 X59.7824 Y96.6235
G01 X59.8119 Y96.6490
G01 X59.8426 Y96.6729
G01 X59.9227 Y96.7323
G01 X59.9546 Y96.7548
G01 X59.9875 Y96.7756
G01 X60.0730 Y96.8269
G01 X60.1069 Y96.8461
G01 X60.1242 Y96.8550
G01 X60.2318 Y96.9062
G01 X60.2674 Y96.9220
G01 X60.3038 Y96.9360
G01 X60.3977 Y96.9696
G01 X60.4347 Y96.9818
G01 X60.4722 Y96.9922
G01 X60.5689 Y97.0164
G01 X60.6069 Y97.0250
G01 X60.6453 Y97.0316
G01 X60.7633 Y97.0489
G01 X60.8020 Y97.0527
G01 X60.9211 Y97.0588
G01 X60.9600 Y97.0598
G01 X60.9989 Y97.0588
G01 X61.0985 Y97.0539
G01 X61.1374 Y97.0510
G01 X61.1761 Y97.0463
G01 X61.2747 Y97.0316
G01 X61.3131 Y97.0250
G01 X61.3511 Y97.0164
G01 X61.4478 Y96.9922
G01 X61.4853 Y96.9818
G01 X61.5223 Y96.9696
G01 X61.6162 Y96.9360
G01 X61.6526 Y96.9220
G01 X61.6882 Y96.9062
G01 X61.7958 Y96.8550
G01 X61.8131 Y96.8461
G01 X61.8470 Y96.8269
G01 X61.9491 Y96.7654
G01 X61.9815 Y96.7437
G01 X62.0691 Y96.6791
G01 X71.8281 Y96.6791
G01 X71.8113 Y96.6953
G01 X71.7844 Y96.7235
G01 X71.7347 Y96.7784
G01 X71.7093 Y96.8079
G01 X71.6853 Y96.8386
G01 X71.6412 Y96.8981
G01 X71.6188 Y96.9299
G01 X71.5979 Y96.9628
G01 X71.5599 Y97.0263
G01 X71.5407 Y97.0602
G01 X71.5232 Y97.0950
G01 X71.4915 Y97.1619
G01 X71.4757 Y97.1976
G01 X71.4617 Y97.2339
G01 X71.4368 Y97.3036
G01 X71.4245 Y97.3406
G01 X71.4141 Y97.3782
G01 X71.3962 Y97.4500
G01 X71.3876 Y97.4880
G01 X71.3810 Y97.5264
G01 X71.3701 Y97.5996
G01 X71.3653 Y97.6383
G01 X71.3625 Y97.6771
G01 X71.3588 Y97.7511
G01 X71.3579 Y97.7900
G01 X71.3588 Y97.8289
G01 X71.3625 Y97.9029
G01 X71.3653 Y97.9417
G01 X71.3701 Y97.9804
G01 X71.3810 Y98.0536
G01 X71.3876 Y98.0920
G01 X71.3962 Y98.1300
G01 X71.4141 Y98.2018
G01 X71.4245 Y98.2394
G01 X71.4368 Y98.2764
G01 X71.4617 Y98.3461
G01 X71.4757 Y98.3824
G01 X71.4915 Y98.4181
G01 X71.5232 Y98.4850
G01 X71.5407 Y98.5198
G01 X71.5599 Y98.5537
G01 X71.5979 Y98.6172
G01 X71.6188 Y98.6501
G01 X71.6412 Y98.6819
G01 X71.6853 Y98.7414
G01 X71.7093 Y98.7721
G01 X71.7347 Y98.8016
G01 X71.7844 Y98.8565
G01 X71.8113 Y98.8847
G01 X71.8395 Y98.9116
G01 X71.8944 Y98.9613
G01 X71.9239 Y98.9867
G01 X71.9546 Y99.0107
G01 X72.0141 Y99.0548
G01 X72.0459 Y99.0772
G01 X72.0622 Y99.0878
G01 X72.1423 Y99.1361
G01 X72.1762 Y99.1553
G01 X72.2110 Y99.1728
G01 X72.2779 Y99.2045
G01 X72.3136 Y99.2203
G01 X72.3499 Y99.2343
G01 X72.4196 Y99.2592
G01 X72.4566 Y99.2715
G01 X72.4942 Y99.2819
G01 X72.5849 Y99.3043
G01 X72.6231 Y99.3119
G01 X72.7156 Y99.3259
G01 X72.7543 Y99.3307
G01 X72.7931 Y99.3335
G01 X72.8671 Y99.3372
G01 X72.9060 Y99.3381
G01 X74.4140 Y99.3381
G01 X74.4529 Y99.3372
G01 X74.5269 Y99.3335
G01 X74.5657 Y99.3307
G01 X74.6044 Y99.3259
G01 X74.6969 Y99.3119
G01 X74.7351 Y99.3043
G01 X74.8258 Y99.2819
G01 X74.8634 Y99.2715
G01 X74.9004 Y99.2592
G01 X74.9884 Y99.2275
G01 X75.0243 Y99.2126
G01 X75.1090 Y99.1728
G01 X75.1265 Y99.1643
G01 X75.1608 Y99.1459
G01 X75.2412 Y99.0981
G01 X75.2741 Y99.0772
G01 X75.3059 Y99.0548
G01 X75.3654 Y99.0107
G01 X75.3809 Y98.9989
G01 X75.4110 Y98.9742
G01 X75.4805 Y98.9116
G01 X75.5087 Y98.8847
G01 X75.5356 Y98.8565
G01 X75.5982 Y98.7870
G01 X75.6107 Y98.7721
G01 X75.6347 Y98.7414
G01 X75.6788 Y98.6819
G01 X75.7012 Y98.6501
G01 X75.7221 Y98.6172
G01 X75.7699 Y98.5368
G01 X75.7883 Y98.5025
G01 X75.8285 Y98.4181
G01 X75.8443 Y98.3824
G01 X75.8583 Y98.3461
G01 X75.8832 Y98.2764
G01 X75.8955 Y98.2394
G01 X75.9059 Y98.2018
G01 X75.9283 Y98.1111
G01 X75.9359 Y98.0729
G01 X75.9499 Y97.9804
G01 X75.9547 Y97.9417
G01 X75.9563 Y97.9223
G01 X75.9612 Y97.8289
G01 X75.9621 Y97.7900
G01 X75.9612 Y97.7511
G01 X75.9563 Y97.6577
G01 X75.9547 Y97.6383
G01 X75.9499 Y97.5996
G01 X75.9359 Y97.5071
G01 X75.9283 Y97.4689
G01 X75.9059 Y97.3782
G01 X75.8955 Y97.3406
G01 X75.8832 Y97.3036
G01 X75.8515 Y97.2156
G01 X75.8366 Y97.1797
G01 X75.8285 Y97.1619
G01 X75.7883 Y97.0775
G01 X75.7699 Y97.0432
G01 X75.7221 Y96.9628
G01 X75.7012 Y96.9299
G01 X75.6788 Y96.8981
G01 X75.6229 Y96.8231
G01 X75.5982 Y96.7930
G01 X75.5356 Y96.7235
G01 X75.5087 Y96.6953
G01 X75.4919 Y96.6791
G01 X83.9809 Y96.6791
G01 X84.0527 Y96.7323
G01 X84.0846 Y96.7548
G01 X84.1175 Y96.7756
G01 X84.2030 Y96.8269
G01 X84.2369 Y96.8461
G01 X84.2542 Y96.8550
G01 X84.3618 Y96.9062
G01 X84.3974 Y96.9220
G01 X84.4155 Y96.9292
G01 X84.5461 Y96.9759
G01 X84.5647 Y96.9818
G01 X84.6022 Y96.9922
G01 X84.7179 Y97.0209
G01 X84.7369 Y97.0250
G01 X84.7753 Y97.0316
G01 X84.8739 Y97.0463
G01 X84.9126 Y97.0510
G01 X84.9515 Y97.0539
G01 X85.0511 Y97.0588
G01 X85.0900 Y97.0598
G01 X85.1289 Y97.0588
G01 X85.2285 Y97.0539
G01 X85.2674 Y97.0510
G01 X85.3061 Y97.0463
G01 X85.4047 Y97.0316
G01 X85.4239 Y97.0285
G01 X85.4621 Y97.0209
G01 X85.5966 Y96.9872
G01 X85.6339 Y96.9759
G01 X85.6523 Y96.9696
G01 X85.7462 Y96.9360
G01 X85.7826 Y96.9220
G01 X85.8182 Y96.9062
G01 X85.9083 Y96.8636
G01 X85.9431 Y96.8461
G01 X85.9602 Y96.8367
G01 X86.0625 Y96.7756
G01 X86.0954 Y96.7548
G01 X86.1273 Y96.7323
G01 X86.2074 Y96.6729
G01 X86.2229 Y96.6611
G01 X86.2530 Y96.6364
G01 X86.3557 Y96.5433
G01 X86.3697 Y96.5297
G01 X86.3966 Y96.5015
G01 X86.4635 Y96.4276
G01 X86.4890 Y96.3981
G01 X86.5129 Y96.3674
G01 X86.5837 Y96.2715
G01 X86.6054 Y96.2391
G01 X86.6156 Y96.2225
G01 X86.6669 Y96.1370
G01 X86.6861 Y96.1031
G01 X86.7036 Y96.0683
G01 X86.7543 Y95.9605
G01 X86.7620 Y95.9426
G01 X86.7760 Y95.9062
G01 X86.8096 Y95.8123
G01 X86.8218 Y95.7753
G01 X86.8322 Y95.7378
G01 X86.8564 Y95.6411
G01 X86.8650 Y95.6031
G01 X86.8685 Y95.5839
G01 X86.8889 Y95.4467
G01 X86.8910 Y95.4274
G01 X86.8939 Y95.3885
G01 X86.8988 Y95.2889
G01 X86.8998 Y95.2500
G01 X86.8988 Y95.2111
G01 X86.8927 Y95.0920
G01 X86.8889 Y95.0533
G01 X86.8863 Y95.0339
G01 X86.8716 Y94.9353
G01 X86.8650 Y94.8969
G01 X86.8564 Y94.8589
G01 X86.8322 Y94.7622
G01 X86.8218 Y94.7247
G01 X86.8159 Y94.7061
G01 X86.7760 Y94.5938
G01 X86.7620 Y94.5574
G01 X86.7462 Y94.5218
G01 X86.6950 Y94.4142
G01 X86.6861 Y94.3969
G01 X86.6669 Y94.3630
G01 X86.6156 Y94.2775
G01 X86.5948 Y94.2446
G01 X86.5723 Y94.2127
G01 X86.5177 Y94.1391
G01 X87.4709 Y94.1391
G01 X87.4709 Y97.7900
G01 X87.4719 Y97.8289
G01 X87.4749 Y97.8912
G01 X87.4778 Y97.9301
G01 X87.4826 Y97.9687
G01 X87.4948 Y98.0496
G01 X87.4984 Y98.0688
G01 X87.5069 Y98.1068
G01 X87.5221 Y98.1673
G01 X87.5325 Y98.2048
G01 X87.5447 Y98.2418
G01 X87.5725 Y98.3188
G01 X87.5797 Y98.3369
G01 X87.5955 Y98.3725
G01 X87.6222 Y98.4289
G01 X87.6397 Y98.4637
G01 X87.6589 Y98.4976
G01 X87.7011 Y98.5676
G01 X87.7228 Y98.6000
G01 X87.7342 Y98.6158
G01 X87.7713 Y98.6659
G01 X87.7953 Y98.6966
G01 X87.8208 Y98.7261
G01 X87.8626 Y98.7723
G01 X87.8759 Y98.7866
G01 X87.9034 Y98.8141
G01 X87.9639 Y98.8692
G01 X87.9934 Y98.8947
G01 X88.0241 Y98.9187
G01 X88.0742 Y98.9558
G01 X88.0900 Y98.9672
G01 X88.1224 Y98.9889
G01 X88.2093 Y99.0409
G01 X88.2436 Y99.0593
G01 X88.2611 Y99.0678
G01 X88.3175 Y99.0945
G01 X88.3531 Y99.1103
G01 X88.3895 Y99.1243
G01 X88.4482 Y99.1453
G01 X88.4852 Y99.1575
G01 X88.5227 Y99.1679
G01 X88.5832 Y99.1831
G01 X88.6212 Y99.1916
G01 X88.6596 Y99.1983
G01 X88.7213 Y99.2074
G01 X88.7599 Y99.2122
G01 X88.7988 Y99.2151
G01 X88.8805 Y99.2188
G01 X95.2500 Y99.2191
G01 X95.2889 Y99.2181
G01 X95.3512 Y99.2151
G01 X95.3901 Y99.2122
G01 X95.4094 Y99.2100
G01 X95.4904 Y99.1983
G01 X95.5288 Y99.1916
G01 X95.5668 Y99.1831
G01 X95.6461 Y99.1630
G01 X95.6834 Y99.1516
G01 X95.7605 Y99.1243
G01 X95.7969 Y99.1103
G01 X95.8325 Y99.0945
G01 X95.8889 Y99.0678
G01 X95.9237 Y99.0503
G01 X95.9576 Y99.0311
G01 X96.0110 Y98.9991
G01 X96.0439 Y98.9782
G01 X96.0758 Y98.9558
G01 X96.1259 Y98.9187
G01 X96.1566 Y98.8947
G01 X96.1861 Y98.8692
G01 X96.2323 Y98.8274
G01 X96.2605 Y98.8005
G01 X96.2874 Y98.7723
G01 X96.3421 Y98.7115
G01 X96.3669 Y98.6814
G01 X96.4158 Y98.6158
G01 X96.4382 Y98.5839
G01 X96.4591 Y98.5510
G01 X96.5009 Y98.4807
G01 X96.5193 Y98.4464
G01 X96.5545 Y98.3725
G01 X96.5703 Y98.3369
G01 X96.5843 Y98.3005
G01 X96.6053 Y98.2418
G01 X96.6175 Y98.2048
G01 X96.6279 Y98.1673
G01 X96.6431 Y98.1068
G01 X96.6516 Y98.0688
G01 X96.6583 Y98.0304
G01 X96.6674 Y97.9687
G01 X96.6722 Y97.9301
G01 X96.6751 Y97.8912
G01 X96.6781 Y97.8289
G01 X96.6791 Y97.7900
G01 X96.6791 Y91.0064
G01 X96.6925 Y90.9794
G01 X96.7007 Y90.9617
G01 X96.7156 Y90.9257
G01 X96.7287 Y90.8890
G01 X96.7400 Y90.8517
G01 X96.7495 Y90.8139
G01 X96.7535 Y90.7949
G01 X96.7602 Y90.7565
G01 X96.7649 Y90.7178
G01 X96.7678 Y90.6789
G01 X96.7688 Y90.6400
G01 X96.7688 Y88.9400
G01 X96.7678 Y88.9011
G01 X96.7649 Y88.8622
G01 X96.7628 Y88.8428
G01 X96.7571 Y88.8043
G01 X96.7495 Y88.7661
G01 X96.7450 Y88.7471
G01 X96.7346 Y88.7096
G01 X96.7287 Y88.6910
G01 X96.7156 Y88.6543
G01 X96.7007 Y88.6183
G01 X96.6925 Y88.6006
G01 X96.6750 Y88.5658
G01 X96.6558 Y88.5319
G01 X96.6350 Y88.4990
G01 X96.6125 Y88.4672
G01 X96.5886 Y88.4365
G01 X96.5760 Y88.4215
G01 X96.5631 Y88.4069
G01 X96.5363 Y88.3787
G01 X96.5081 Y88.3519
G01 X96.4785 Y88.3264
G01 X96.4478 Y88.3025
G01 X96.4320 Y88.2910
G01 X96.4160 Y88.2800
G01 X96.3831 Y88.2592
G01 X96.3492 Y88.2400
G01 X96.3144 Y88.2225
G01 X96.2788 Y88.2067
G01 X96.2607 Y88.1994
G01 X96.2240 Y88.1863
G01 X96.1867 Y88.1750
G01 X96.1489 Y88.1655
G01 X96.1299 Y88.1615
G01 X96.0915 Y88.1548
G01 X96.0528 Y88.1501
G01 X96.0139 Y88.1472
G01 X95.9750 Y88.1462
G01 X94.5250 Y88.1462
G01 X94.4861 Y88.1472
G01 X94.4472 Y88.1501
G01 X94.4278 Y88.1522
G01 X94.3893 Y88.1579
G01 X94.3701 Y88.1615
G01 X94.3321 Y88.1700
G01 X94.2946 Y88.1804
G01 X94.2576 Y88.1926
G01 X94.2212 Y88.2067
G01 X94.2033 Y88.2143
G01 X94.1856 Y88.2225
G01 X94.1508 Y88.2400
G01 X94.1169 Y88.2592
G01 X94.0840 Y88.2800
G01 X94.0680 Y88.2910
G01 X94.0367 Y88.3142
G01 X94.0065 Y88.3390
G01 X93.9800 Y88.3630
G01 X93.9535 Y88.3390
G01 X93.9233 Y88.3142
G01 X93.8920 Y88.2910
G01 X93.8597 Y88.2694
G01 X93.8431 Y88.2592
G01 X93.8092 Y88.2400
G01 X93.7744 Y88.2225
G01 X93.7388 Y88.2067
G01 X93.7024 Y88.1926
G01 X93.6654 Y88.1804
G01 X93.6279 Y88.1700
G01 X93.6089 Y88.1655
G01 X93.5707 Y88.1579
G01 X93.5322 Y88.1522
G01 X93.4934 Y88.1484
G01 X93.4545 Y88.1465
G01 X91.9850 Y88.1462
G01 X91.9461 Y88.1472
G01 X91.9072 Y88.1501
G01 X91.8685 Y88.1548
G01 X91.8301 Y88.1615
G01 X91.8111 Y88.1655
G01 X91.7733 Y88.1750
G01 X91.7360 Y88.1863
G01 X91.7176 Y88.1926
G01 X91.6993 Y88.1994
G01 X91.6633 Y88.2143
G01 X91.6456 Y88.2225
G01 X91.6108 Y88.2400
G01 X91.5769 Y88.2592
G01 X91.5440 Y88.2800
G01 X91.5280 Y88.2910
G01 X91.4967 Y88.3142
G01 X91.4665 Y88.3390
G01 X91.4400 Y88.3630
G01 X91.4135 Y88.3390
G01 X91.3833 Y88.3142
G01 X91.3520 Y88.2910
G01 X91.3360 Y88.2800
G01 X91.3031 Y88.2592
G01 X91.2692 Y88.2400
G01 X91.2519 Y88.2310
G01 X91.2167 Y88.2143
G01 X91.1807 Y88.1994
G01 X91.1624 Y88.1926
G01 X91.1254 Y88.1804
G01 X91.0879 Y88.1700
G01 X91.0499 Y88.1615
G01 X91.0307 Y88.1579
G01 X90.9922 Y88.1522
G01 X90.9534 Y88.1484
G01 X90.9145 Y88.1465
G01 X90.8950 Y88.1462
G01 X89.4255 Y88.1465
G01 X89.3866 Y88.1484
G01 X89.3478 Y88.1522
G01 X89.3093 Y88.1579
G01 X89.2711 Y88.1655
G01 X89.2333 Y88.1750
G01 X89.1960 Y88.1863
G01 X89.1593 Y88.1994
G01 X89.1233 Y88.2143
G01 X89.0881 Y88.2310
G01 X89.0708 Y88.2400
G01 X89.0369 Y88.2592
G01 X89.0203 Y88.2694
G01 X88.9880 Y88.2910
G01 X88.9722 Y88.3025
G01 X88.9415 Y88.3264
G01 X88.9265 Y88.3390
G01 X88.8977 Y88.3651
G01 X88.8701 Y88.3927
G01 X88.8569 Y88.4069
G01 X88.8314 Y88.4365
G01 X88.8192 Y88.4517
G01 X88.7960 Y88.4830
G01 X88.7744 Y88.5153
G01 X88.7642 Y88.5319
G01 X88.7544 Y88.5488
G01 X88.7360 Y88.5831
G01 X88.7193 Y88.6183
G01 X88.7117 Y88.6362
G01 X88.6976 Y88.6726
G01 X88.6854 Y88.7096
G01 X88.6800 Y88.7283
G01 X88.6705 Y88.7661
G01 X88.6665 Y88.7851
G01 X88.6629 Y88.8043
G01 X88.6572 Y88.8428
G01 X88.6534 Y88.8816
G01 X88.6522 Y88.9011
G01 X88.6512 Y88.9400
G01 X88.6512 Y90.6400
G01 X88.6522 Y90.6789
G01 X88.6534 Y90.6984
G01 X88.6572 Y90.7372
G01 X88.6598 Y90.7565
G01 X88.6665 Y90.7949
G01 X88.6750 Y90.8329
G01 X88.6854 Y90.8704
G01 X88.6976 Y90.9074
G01 X88.7117 Y90.9438
G01 X88.7275 Y90.9794
G01 X88.7450 Y91.0142
G01 X88.7642 Y91.0481
G01 X88.7850 Y91.0810
G01 X88.8075 Y91.1128
G01 X88.8314 Y91.1435
G01 X88.8569 Y91.1731
G01 X88.8837 Y91.2013
G01 X88.9119 Y91.2281
G01 X88.9415 Y91.2536
G01 X88.9567 Y91.2658
G01 X88.9810 Y91.2840
G01 X88.9389 Y91.2819
G01 X88.9000 Y91.2809
G01 X75.0891 Y91.2809
G01 X75.0891 Y90.1700
G01 X75.0881 Y90.1311
G01 X75.0851 Y90.0688
G01 X75.0822 Y90.0299
G01 X75.0774 Y89.9913
G01 X75.0683 Y89.9296
G01 X75.0616 Y89.8912
G01 X75.0531 Y89.8532
G01 X75.0379 Y89.7927
G01 X75.0275 Y89.7552
G01 X75.0153 Y89.7182
G01 X74.9943 Y89.6595
G01 X74.9803 Y89.6231
G01 X74.9645 Y89.5875
G01 X74.9378 Y89.5311
G01 X74.9203 Y89.4963
G01 X74.9011 Y89.4624
G01 X74.8691 Y89.4090
G01 X74.8482 Y89.3761
G01 X74.8372 Y89.3600
G01 X74.7887 Y89.2941
G01 X74.7647 Y89.2634
G01 X74.7392 Y89.2339
G01 X74.6974 Y89.1877
G01 X74.6705 Y89.1595
G01 X74.6566 Y89.1459
G01 X74.5961 Y89.0908
G01 X74.5666 Y89.0653
G01 X74.5359 Y89.0413
G01 X74.4858 Y89.0042
G01 X74.4539 Y88.9818
G01 X74.4376 Y88.9711
G01 X74.3507 Y88.9191
G01 X74.3337 Y88.9097
G01 X74.2989 Y88.8922
G01 X74.2425 Y88.8655
G01 X74.2069 Y88.8497
G01 X74.1705 Y88.8357
G01 X74.0934 Y88.8084
G01 X74.0561 Y88.7970
G01 X74.0373 Y88.7921
G01 X73.9768 Y88.7769
G01 X73.9388 Y88.7684
G01 X73.9004 Y88.7617
G01 X73.8194 Y88.7500
G01 X73.8001 Y88.7478
G01 X73.7612 Y88.7449
G01 X73.6989 Y88.7419
G01 X73.6600 Y88.7409
G01 X57.3733 Y88.7409
G01 X57.3646 Y88.7096
G01 X57.3524 Y88.6726
G01 X57.3383 Y88.6362
G01 X57.3307 Y88.6183
G01 X57.3225 Y88.6006
G01 X57.3050 Y88.5658
G01 X57.2956 Y88.5488
G01 X57.2756 Y88.5153
G01 X57.2650 Y88.4990
G01 X57.2425 Y88.4672
G01 X57.2186 Y88.4365
G01 X57.1931 Y88.4069
G01 X57.1663 Y88.3787
G01 X57.1523 Y88.3651
G01 X57.1235 Y88.3390
G01 X57.1085 Y88.3264
G01 X57.0933 Y88.3142
G01 X57.0620 Y88.2910
G01 X57.0297 Y88.2694
G01 X57.0131 Y88.2592
G01 X56.9792 Y88.2400
G01 X56.9619 Y88.2310
G01 X56.9267 Y88.2143
G01 X56.8907 Y88.1994
G01 X56.8540 Y88.1863
G01 X56.8354 Y88.1804
G01 X56.8167 Y88.1750
G01 X56.7789 Y88.1655
G01 X56.7407 Y88.1579
G01 X56.7215 Y88.1548
G01 X56.7022 Y88.1522
G01 X56.6634 Y88.1484
G01 X56.6439 Y88.1472
G01 X56.6050 Y88.1462
G01 X55.1550 Y88.1462
G01 X55.1161 Y88.1472
G01 X55.0772 Y88.1501
G01 X55.0578 Y88.1522
G01 X55.0193 Y88.1579
G01 X54.9811 Y88.1655
G01 X54.9433 Y88.1750
G01 X54.9246 Y88.1804
G01 X54.8876 Y88.1926
G01 X54.8693 Y88.1994
G01 X54.8333 Y88.2143
G01 X54.7981 Y88.2310
G01 X54.7638 Y88.2494
G01 X54.7469 Y88.2592
G01 X54.7140 Y88.2800
G01 X54.6822 Y88.3025
G01 X54.6667 Y88.3142
G01 X54.6365 Y88.3390
G01 X54.6100 Y88.3630
G01 X54.5835 Y88.3390
G01 X54.5533 Y88.3142
G01 X54.5378 Y88.3025
G01 X54.5060 Y88.2800
G01 X54.4897 Y88.2694
G01 X54.4562 Y88.2494
G01 X54.4219 Y88.2310
G01 X54.3867 Y88.2143
G01 X54.3507 Y88.1994
G01 X54.3324 Y88.1926
G01 X54.3140 Y88.1863
G01 X54.2767 Y88.1750
G01 X54.2579 Y88.1700
G01 X54.2199 Y88.1615
G01 X54.1815 Y88.1548
G01 X54.1428 Y88.1501
G01 X54.1039 Y88.1472
G01 X54.0650 Y88.1462
G01 X52.6150 Y88.1462
G01 X52.5761 Y88.1472
G01 X52.5566 Y88.1484
G01 X52.5178 Y88.1522
G01 X52.4793 Y88.1579
G01 X52.4411 Y88.1655
G01 X52.4033 Y88.1750
G01 X52.3846 Y88.1804
G01 X52.3476 Y88.1926
G01 X52.3112 Y88.2067
G01 X52.2933 Y88.2143
G01 X52.2581 Y88.2310
G01 X52.2238 Y88.2494
G01 X52.1903 Y88.2694
G01 X52.1580 Y88.2910
G01 X52.1267 Y88.3142
G01 X52.0965 Y88.3390
G01 X52.0700 Y88.3630
G01 X52.0435 Y88.3390
G01 X52.0133 Y88.3142
G01 X51.9978 Y88.3025
G01 X51.9660 Y88.2800
G01 X51.9497 Y88.2694
G01 X51.9162 Y88.2494
G01 X51.8819 Y88.2310
G01 X51.8467 Y88.2143
G01 X51.8107 Y88.1994
G01 X51.7924 Y88.1926
G01 X51.7740 Y88.1863
G01 X51.7367 Y88.1750
G01 X51.7179 Y88.1700
G01 X51.6799 Y88.1615
G01 X51.6415 Y88.1548
G01 X51.6028 Y88.1501
G01 X51.5639 Y88.1472
G01 X51.5250 Y88.1462
G01 X50.0750 Y88.1462
G01 X50.0361 Y88.1472
G01 X49.9972 Y88.1501
G01 X49.9585 Y88.1548
G01 X49.9201 Y88.1615
G01 X49.8821 Y88.1700
G01 X49.8446 Y88.1804
G01 X49.8076 Y88.1926
G01 X49.7712 Y88.2067
G01 X49.7356 Y88.2225
G01 X49.7008 Y88.2400
G01 X49.6669 Y88.2592
G01 X49.6340 Y88.2800
G01 X49.6022 Y88.3025
G01 X49.5715 Y88.3264
G01 X49.5419 Y88.3519
G01 X49.5137 Y88.3787
G01 X49.4869 Y88.4069
G01 X49.4614 Y88.4365
G01 X49.4375 Y88.4672
G01 X49.4150 Y88.4990
G01 X49.3942 Y88.5319
G01 X49.3750 Y88.5658
G01 X49.3575 Y88.6006
G01 X49.3417 Y88.6362
G01 X49.3276 Y88.6726
G01 X49.3154 Y88.7096
G01 X49.3050 Y88.7471
G01 X49.2965 Y88.7851
G01 X49.2898 Y88.8235
G01 X49.2851 Y88.8622
G01 X49.2822 Y88.9011
G01 X49.2812 Y88.9400
G00 Z5.0000
G00 X49.2812 Y79.5400
G01 F190.00
G01 Z-0.4000
G01 F350.00
G01 X49.2822 Y79.5011
G01 X49.2851 Y79.4622
G01 X49.2872 Y79.4428
G01 X49.2898 Y79.4235
G01 X49.2965 Y79.3851
G01 X49.3050 Y79.3471
G01 X49.3100 Y79.3283
G01 X49.3213 Y79.2910
G01 X49.3344 Y79.2543
G01 X49.3493 Y79.2183
G01 X49.3575 Y79.2006
G01 X49.3709 Y79.1736
G01 X49.3709 Y77.3091
G01 X49.3177 Y77.2373
G01 X49.2952 Y77.2054
G01 X49.2744 Y77.1725
G01 X49.2231 Y77.0870
G01 X49.2133 Y77.0702
G01 X49.1950 Y77.0358
G01 X49.1438 Y76.9282
G01 X49.1357 Y76.9105
G01 X49.1208 Y76.8745
G01 X49.0741 Y76.7439
G01 X49.0628 Y76.7066
G01 X49.0578 Y76.6878
G01 X49.0291 Y76.5721
G01 X49.0250 Y76.5531
G01 X49.0184 Y76.5147
G01 X49.0037 Y76.4161
G01 X48.9990 Y76.3774
G01 X48.9961 Y76.3385
G01 X48.9912 Y76.2389
G01 X48.9902 Y76.2000
G01 X48.9912 Y76.1611
G01 X48.9961 Y76.0615
G01 X48.9990 Y76.0226
G01 X49.0037 Y75.9839
G01 X49.0184 Y75.8853
G01 X49.0215 Y75.8661
G01 X49.0291 Y75.8279
G01 X49.0578 Y75.7122
G01 X49.0682 Y75.6747
G01 X49.0804 Y75.6377
G01 X49.1140 Y75.5438
G01 X49.1280 Y75.5074
G01 X49.1357 Y75.4895
G01 X49.1864 Y75.3817
G01 X49.2039 Y75.3469
G01 X49.2231 Y75.3130
G01 X49.2744 Y75.2275
G01 X49.2952 Y75.1946
G01 X49.3177 Y75.1627
G01 X49.3771 Y75.0826
G01 X49.3889 Y75.0671
G01 X49.4136 Y75.0370
G01 X49.4934 Y74.9485
G01 X49.5203 Y74.9203
G01 X49.5485 Y74.8934
G01 X49.6224 Y74.8265
G01 X49.6519 Y74.8010
G01 X49.6826 Y74.7771
G01 X49.7627 Y74.7177
G01 X49.7946 Y74.6952
G01 X49.8109 Y74.6846
G01 X49.9130 Y74.6231
G01 X49.9469 Y74.6039
G01 X49.9817 Y74.5864
G01 X50.0718 Y74.5438
G01 X50.1074 Y74.5280
G01 X50.1438 Y74.5140
G01 X50.2377 Y74.4804
G01 X50.2747 Y74.4682
G01 X50.3122 Y74.4578
G01 X50.4279 Y74.4291
G01 X50.4661 Y74.4215
G01 X50.5839 Y74.4037
G01 X50.6226 Y74.3990
G01 X50.6615 Y74.3961
G01 X50.7611 Y74.3912
G01 X50.8000 Y74.3902
G01 X50.8389 Y74.3912
G01 X50.9385 Y74.3961
G01 X50.9774 Y74.3990
G01 X51.0161 Y74.4037
G01 X51.1147 Y74.4184
G01 X51.1531 Y74.4250
G01 X51.1721 Y74.4291
G01 X51.2878 Y74.4578
G01 X51.3253 Y74.4682
G01 X51.3623 Y74.4804
G01 X51.4562 Y74.5140
G01 X51.4926 Y74.5280
G01 X51.5282 Y74.5438
G01 X51.6183 Y74.5864
G01 X51.6531 Y74.6039
G01 X51.6870 Y74.6231
G01 X51.7725 Y74.6744
G01 X51.8054 Y74.6952
G01 X51.8373 Y74.7177
G01 X51.9174 Y74.7771
G01 X51.9481 Y74.8010
G01 X51.9776 Y74.8265
G01 X52.0515 Y74.8934
G01 X52.0797 Y74.9203
G01 X52.1066 Y74.9485
G01 X52.1735 Y75.0224
G01 X52.1990 Y75.0519
G01 X52.2111 Y75.0671
G01 X52.2823 Y75.1627
G01 X52.3048 Y75.1946
G01 X52.3256 Y75.2275
G01 X52.3867 Y75.3298
G01 X52.4050 Y75.3642
G01 X52.4562 Y75.4718
G01 X52.4643 Y75.4895
G01 X52.4792 Y75.5255
G01 X52.5259 Y75.6561
G01 X52.5372 Y75.6934
G01 X52.5422 Y75.7122
G01 X52.5664 Y75.8089
G01 X52.5750 Y75.8469
G01 X52.5816 Y75.8853
G01 X52.5963 Y75.9839
G01 X52.5989 Y76.0033
G01 X52.6027 Y76.0420
G01 X52.6095 Y76.1805
G01 X52.6095 Y76.2195
G01 X52.6088 Y76.2389
G01 X52.6027 Y76.3580
G01 X52.5989 Y76.3967
G01 X52.5816 Y76.5147
G01 X52.5750 Y76.5531
G01 X52.5664 Y76.5911
G01 X52.5422 Y76.6878
G01 X52.5318 Y76.7253
G01 X52.5196 Y76.7623
G01 X52.4792 Y76.8745
G01 X52.4643 Y76.9105
G01 X52.4136 Y77.0183
G01 X52.4050 Y77.0358
G01 X52.3867 Y77.0702
G01 X52.3256 Y77.1725
G01 X52.3048 Y77.2054
G01 X52.2823 Y77.2373
G01 X52.2291 Y77.3091
G01 X52.2291 Y79.0225
G01 X52.2428 Y79.0069
G01 X52.2560 Y78.9927
G01 X52.2836 Y78.9651
G01 X52.3124 Y78.9390
G01 X52.3426 Y78.9142
G01 X52.3739 Y78.8910
G01 X52.4062 Y78.8694
G01 X52.4397 Y78.8494
G01 X52.4740 Y78.8310
G01 X52.4915 Y78.8225
G01 X52.5271 Y78.8067
G01 X52.5452 Y78.7994
G01 X52.5819 Y78.7863
G01 X52.6192 Y78.7750
G01 X52.6570 Y78.7655
G01 X52.6952 Y78.7579
G01 X52.7337 Y78.7522
G01 X52.7531 Y78.7501
G01 X52.7920 Y78.7472
G01 X52.8309 Y78.7462
G01 X53.8491 Y78.7462
G01 X53.8880 Y78.7472
G01 X53.9269 Y78.7501
G01 X53.9463 Y78.7522
G01 X53.9848 Y78.7579
G01 X54.0230 Y78.7655
G01 X54.0608 Y78.7750
G01 X54.0795 Y78.7804
G01 X54.1165 Y78.7926
G01 X54.1529 Y78.8067
G01 X54.1708 Y78.8143
G01 X54.2060 Y78.8310
G01 X54.2403 Y78.8494
G01 X54.2738 Y78.8694
G01 X54.3061 Y78.8910
G01 X54.3219 Y78.9025
G01 X54.3526 Y78.9264
G01 X54.3822 Y78.9519
G01 X54.4104 Y78.9787
G01 X54.4372 Y79.0069
G01 X54.4509 Y79.0225
G01 X54.4512 Y78.7205
G01 X54.4561 Y78.6193
G01 X54.4600 Y78.5806
G01 X54.4748 Y78.4804
G01 X54.4824 Y78.4421
G01 X54.5070 Y78.3439
G01 X54.5125 Y78.3252
G01 X54.5247 Y78.2882
G01 X54.5457 Y78.2295
G01 X54.5597 Y78.1931
G01 X54.5755 Y78.1575
G01 X54.6022 Y78.1011
G01 X54.6197 Y78.0663
G01 X54.6389 Y78.0324
G01 X54.6709 Y77.9790
G01 X54.6918 Y77.9461
G01 X54.7142 Y77.9142
G01 X54.7513 Y77.8641
G01 X54.7753 Y77.8334
G01 X54.8008 Y77.8039
G01 X54.8426 Y77.7577
G01 X54.8695 Y77.7295
G01 X56.0125 Y76.5865
G01 X56.0407 Y76.5596
G01 X56.0869 Y76.5178
G01 X56.1164 Y76.4923
G01 X56.1471 Y76.4683
G01 X56.1972 Y76.4312
G01 X56.2291 Y76.4088
G01 X56.2454 Y76.3981
G01 X56.3154 Y76.3559
G01 X56.3493 Y76.3367
G01 X56.3841 Y76.3192
G01 X56.4405 Y76.2925
G01 X56.4761 Y76.2767
G01 X56.4942 Y76.2695
G01 X56.5712 Y76.2417
G01 X56.6082 Y76.2295
G01 X56.6457 Y76.2191
G01 X56.7062 Y76.2039
G01 X56.7251 Y76.1994
G01 X56.7634 Y76.1918
G01 X56.8443 Y76.1796
G01 X56.8829 Y76.1748
G01 X56.9218 Y76.1719
G01 X56.9841 Y76.1689
G01 X57.0230 Y76.1679
G01 X70.7821 Y76.1679
G01 X72.1192 Y74.8307
G01 X72.1324 Y74.7423
G01 X72.1390 Y74.7039
G01 X72.1476 Y74.6659
G01 X72.1718 Y74.5692
G01 X72.1822 Y74.5317
G01 X72.1944 Y74.4947
G01 X72.2280 Y74.4008
G01 X72.2420 Y74.3644
G01 X72.2578 Y74.3288
G01 X72.3090 Y74.2212
G01 X72.3273 Y74.1868
G01 X72.3884 Y74.0845
G01 X72.4092 Y74.0516
G01 X72.4317 Y74.0197
G01 X72.4911 Y73.9396
G01 X72.5150 Y73.9089
G01 X72.5405 Y73.8794
G01 X72.6074 Y73.8055
G01 X72.6343 Y73.7773
G01 X72.6625 Y73.7504
G01 X72.7364 Y73.6835
G01 X72.7659 Y73.6580
G01 X72.7966 Y73.6341
G01 X72.8767 Y73.5747
G01 X72.9086 Y73.5522
G01 X72.9415 Y73.5314
G01 X73.0270 Y73.4801
G01 X73.0609 Y73.4609
G01 X73.0957 Y73.4434
G01 X73.1858 Y73.4008
G01 X73.2035 Y73.3927
G01 X73.2395 Y73.3778
G01 X73.3517 Y73.3374
G01 X73.3887 Y73.3252
G01 X73.4262 Y73.3148
G01 X73.5419 Y73.2861
G01 X73.5801 Y73.2785
G01 X73.6979 Y73.2607
G01 X73.7173 Y73.2581
G01 X73.7560 Y73.2543
G01 X73.8751 Y73.2482
G01 X73.9140 Y73.2472
G01 X73.9529 Y73.2482
G01 X74.0525 Y73.2531
G01 X74.0914 Y73.2560
G01 X74.1301 Y73.2607
G01 X74.2287 Y73.2754
G01 X74.2671 Y73.2820
G01 X74.3051 Y73.2906
G01 X74.4018 Y73.3148
G01 X74.4393 Y73.3252
G01 X74.4763 Y73.3374
G01 X74.5702 Y73.3710
G01 X74.6066 Y73.3850
G01 X74.6422 Y73.4008
G01 X74.7323 Y73.4434
G01 X74.7671 Y73.4609
G01 X74.8010 Y73.4801
G01 X74.8865 Y73.5314
G01 X74.9194 Y73.5522
G01 X74.9513 Y73.5747
G01 X75.0314 Y73.6341
G01 X75.0469 Y73.6459
G01 X75.0770 Y73.6706
G01 X75.1797 Y73.7637
G01 X75.2073 Y73.7913
G01 X75.2875 Y73.8794
G01 X75.3004 Y73.8940
G01 X75.3251 Y73.9241
G01 X75.3963 Y74.0197
G01 X75.4188 Y74.0516
G01 X75.4396 Y74.0845
G01 X75.5007 Y74.1868
G01 X75.5190 Y74.2212
G01 X75.5702 Y74.3288
G01 X75.5783 Y74.3465
G01 X75.5932 Y74.3825
G01 X75.6336 Y74.4947
G01 X75.6458 Y74.5317
G01 X75.6562 Y74.5692
G01 X75.6804 Y74.6659
G01 X75.6890 Y74.7039
G01 X75.6925 Y74.7231
G01 X75.7129 Y74.8603
G01 X75.7150 Y74.8796
G01 X75.7179 Y74.9185
G01 X75.7228 Y75.0181
G01 X75.7238 Y75.0570
G01 X75.7228 Y75.0959
G01 X75.7179 Y75.1955
G01 X75.7150 Y75.2344
G01 X75.7129 Y75.2537
G01 X75.6956 Y75.3717
G01 X75.6890 Y75.4101
G01 X75.6804 Y75.4481
G01 X75.6562 Y75.5448
G01 X75.6458 Y75.5823
G01 X75.6336 Y75.6193
G01 X75.6000 Y75.7132
G01 X75.5860 Y75.7496
G01 X75.5702 Y75.7852
G01 X75.5190 Y75.8928
G01 X75.5101 Y75.9101
G01 X75.4909 Y75.9440
G01 X75.4396 Y76.0295
G01 X75.4188 Y76.0624
G01 X75.3963 Y76.0943
G01 X75.3369 Y76.1744
G01 X75.3251 Y76.1899
G01 X75.3004 Y76.2200
G01 X75.2206 Y76.3085
G01 X75.1937 Y76.3367
G01 X75.1655 Y76.3636
G01 X75.0770 Y76.4434
G01 X75.0469 Y76.4681
G01 X75.0314 Y76.4799
G01 X74.9355 Y76.5507
G01 X74.9031 Y76.5724
G01 X74.8010 Y76.6339
G01 X74.7671 Y76.6531
G01 X74.7498 Y76.6620
G01 X74.6422 Y76.7132
G01 X74.6066 Y76.7290
G01 X74.5702 Y76.7430
G01 X74.4763 Y76.7766
G01 X74.4393 Y76.7888
G01 X74.4018 Y76.7992
G01 X74.3051 Y76.8234
G01 X74.2671 Y76.8320
G01 X74.2287 Y76.8386
G01 X74.1403 Y76.8518
G01 X72.3845 Y78.6075
G01 X72.3563 Y78.6344
G01 X72.3101 Y78.6762
G01 X72.2955 Y78.6891
G01 X72.2654 Y78.7139
G01 X72.1840 Y78.7742
G01 X72.1679 Y78.7852
G01 X72.1350 Y78.8061
G01 X72.0816 Y78.8381
G01 X72.0477 Y78.8573
G01 X72.0129 Y78.8748
G01 X71.9565 Y78.9015
G01 X71.9209 Y78.9173
G01 X71.8845 Y78.9313
G01 X71.8258 Y78.9523
G01 X71.7888 Y78.9645
G01 X71.7701 Y78.9700
G01 X71.6908 Y78.9901
G01 X71.6528 Y78.9986
G01 X71.6144 Y79.0053
G01 X71.5527 Y79.0144
G01 X71.5141 Y79.0192
G01 X71.4947 Y79.0209
G01 X71.4129 Y79.0251
G01 X71.3740 Y79.0261
G01 X57.6149 Y79.0261
G01 X57.3565 Y79.2845
G01 X57.3646 Y79.3096
G01 X57.3750 Y79.3471
G01 X57.3795 Y79.3661
G01 X57.3871 Y79.4043
G01 X57.3928 Y79.4428
G01 X57.3966 Y79.4816
G01 X57.3978 Y79.5011
G01 X57.3988 Y79.5400
G01 X57.3985 Y81.2595
G01 X57.3966 Y81.2984
G01 X57.3928 Y81.3372
G01 X57.3871 Y81.3757
G01 X57.3795 Y81.4139
G01 X57.3750 Y81.4329
G01 X57.3700 Y81.4517
G01 X57.3587 Y81.4890
G01 X57.3456 Y81.5257
G01 X57.3307 Y81.5617
G01 X57.3140 Y81.5969
G01 X57.3050 Y81.6142
G01 X57.2956 Y81.6312
G01 X57.2756 Y81.6647
G01 X57.2540 Y81.6970
G01 X57.2425 Y81.7128
G01 X57.2186 Y81.7435
G01 X57.1931 Y81.7731
G01 X57.1799 Y81.7873
G01 X57.1523 Y81.8149
G01 X57.1235 Y81.8410
G01 X57.0933 Y81.8658
G01 X57.0620 Y81.8890
G01 X57.0460 Y81.9000
G01 X57.0131 Y81.9208
G01 X56.9792 Y81.9400
G01 X56.9444 Y81.9575
G01 X56.9267 Y81.9657
G01 X56.8907 Y81.9806
G01 X56.8724 Y81.9874
G01 X56.8354 Y81.9996
G01 X56.7979 Y82.0100
G01 X56.7599 Y82.0185
G01 X56.7407 Y82.0221
G01 X56.7022 Y82.0278
G01 X56.6634 Y82.0316
G01 X56.6245 Y82.0335
G01 X55.1550 Y82.0338
G01 X55.1161 Y82.0328
G01 X55.0966 Y82.0316
G01 X55.0578 Y82.0278
G01 X55.0193 Y82.0221
G01 X54.9811 Y82.0145
G01 X54.9433 Y82.0050
G01 X54.9060 Y81.9937
G01 X54.8693 Y81.9806
G01 X54.8512 Y81.9733
G01 X54.8156 Y81.9575
G01 X54.7808 Y81.9400
G01 X54.7469 Y81.9208
G01 X54.7303 Y81.9106
G01 X54.6980 Y81.8890
G01 X54.6667 Y81.8658
G01 X54.6365 Y81.8410
G01 X54.6077 Y81.8149
G01 X54.5801 Y81.7873
G01 X54.5540 Y81.7585
G01 X54.5292 Y81.7283
G01 X54.5175 Y81.7128
G01 X54.5020 Y81.6912
G01 X54.4866 Y81.7128
G01 X54.4749 Y81.7283
G01 X54.4501 Y81.7585
G01 X54.4240 Y81.7873
G01 X54.4104 Y81.8013
G01 X54.3822 Y81.8281
G01 X54.3526 Y81.8536
G01 X54.3219 Y81.8775
G01 X54.2901 Y81.9000
G01 X54.2738 Y81.9106
G01 X54.2403 Y81.9306
G01 X54.2060 Y81.9490
G01 X54.1708 Y81.9657
G01 X54.1348 Y81.9806
G01 X54.1165 Y81.9874
G01 X54.0795 Y81.9996
G01 X54.0420 Y82.0100
G01 X54.0230 Y82.0145
G01 X53.9848 Y82.0221
G01 X53.9463 Y82.0278
G01 X53.9269 Y82.0299
G01 X53.8880 Y82.0328
G01 X53.8491 Y82.0338
G01 X52.8309 Y82.0338
G01 X52.7920 Y82.0328
G01 X52.7531 Y82.0299
G01 X52.7144 Y82.0252
G01 X52.6760 Y82.0185
G01 X52.6380 Y82.0100
G01 X52.6005 Y81.9996
G01 X52.5635 Y81.9874
G01 X52.5271 Y81.9733
G01 X52.4915 Y81.9575
G01 X52.4567 Y81.9400
G01 X52.4228 Y81.9208
G01 X52.3899 Y81.9000
G01 X52.3581 Y81.8775
G01 X52.3274 Y81.8536
G01 X52.2978 Y81.8281
G01 X52.2696 Y81.8013
G01 X52.2428 Y81.7731
G01 X52.2173 Y81.7435
G01 X52.1934 Y81.7128
G01 X52.1779 Y81.6912
G01 X52.1625 Y81.7128
G01 X52.1508 Y81.7283
G01 X52.1260 Y81.7585
G01 X52.0999 Y81.7873
G01 X52.0723 Y81.8149
G01 X52.0435 Y81.8410
G01 X52.0133 Y81.8658
G01 X51.9820 Y81.8890
G01 X51.9660 Y81.9000
G01 X51.9331 Y81.9208
G01 X51.8992 Y81.9400
G01 X51.8644 Y81.9575
G01 X51.8288 Y81.9733
G01 X51.7924 Y81.9874
G01 X51.7554 Y81.9996
G01 X51.7367 Y82.0050
G01 X51.6989 Y82.0145
G01 X51.6607 Y82.0221
G01 X51.6222 Y82.0278
G01 X51.5834 Y82.0316
G01 X51.5445 Y82.0335
G01 X51.5250 Y82.0338
G01 X50.0555 Y82.0335
G01 X50.0166 Y82.0316
G01 X49.9778 Y82.0278
G01 X49.9393 Y82.0221
G01 X49.9201 Y82.0185
G01 X49.9011 Y82.0145
G01 X49.8633 Y82.0050
G01 X49.8260 Y81.9937
G01 X49.7893 Y81.9806
G01 X49.7712 Y81.9733
G01 X49.7356 Y81.9575
G01 X49.7008 Y81.9400
G01 X49.6669 Y81.9208
G01 X49.6503 Y81.9106
G01 X49.6180 Y81.8890
G01 X49.5867 Y81.8658
G01 X49.5715 Y81.8536
G01 X49.5565 Y81.8410
G01 X49.5277 Y81.8149
G01 X49.5001 Y81.7873
G01 X49.4869 Y81.7731
G01 X49.4614 Y81.7435
G01 X49.4375 Y81.7128
G01 X49.4150 Y81.6810
G01 X49.4044 Y81.6647
G01 X49.3844 Y81.6312
G01 X49.3660 Y81.5969
G01 X49.3575 Y81.5794
G01 X49.3417 Y81.5438
G01 X49.3276 Y81.5074
G01 X49.3213 Y81.4890
G01 X49.3100 Y81.4517
G01 X49.3050 Y81.4329
G01 X49.2965 Y81.3949
G01 X49.2898 Y81.3565
G01 X49.2851 Y81.3178
G01 X49.2822 Y81.2789
G01 X49.2812 Y81.2400
G01 X49.2812 Y79.5400
G01 X47.3059 Y78.8350
G01 X47.3069 Y77.8713
G01 X47.2675 Y77.7876
G01 X47.2389 Y77.7236
G01 X47.2118 Y77.6589
G01 X47.1863 Y77.5935
G01 X47.1709 Y77.5515
G01 X47.1373 Y77.4576
G01 X47.1185 Y77.4033
G01 X47.1008 Y77.3486
G01 X47.0897 Y77.3123
G01 X47.0705 Y77.2448
G01 X47.0559 Y77.1892
G01 X47.0317 Y77.0925
G01 X47.0212 Y77.0490
G01 X47.0060 Y76.9805
G01 X46.9926 Y76.9117
G01 X46.9839 Y76.8618
G01 X46.9779 Y76.8238
G01 X46.9623 Y76.7189
G01 X46.9561 Y76.6745
G01 X46.9478 Y76.6049
G01 X46.9440 Y76.5671
G01 X46.9401 Y76.5224
G01 X46.9352 Y76.4461
G01 X46.9289 Y76.3149
G01 X46.9269 Y76.2448
G01 X46.9267 Y76.1747
G01 X46.9277 Y76.1172
G01 X46.9289 Y76.0851
G01 X46.9352 Y75.9539
G01 X46.9401 Y75.8776
G01 X46.9465 Y75.8077
G01 X46.9514 Y75.7632
G01 X46.9561 Y75.7255
G01 X46.9623 Y75.6811
G01 X46.9779 Y75.5762
G01 X46.9903 Y75.5008
G01 X47.0035 Y75.4319
G01 X47.0128 Y75.3881
G01 X47.0212 Y75.3510
G01 X47.0317 Y75.3075
G01 X47.0559 Y75.2108
G01 X47.0705 Y75.1552
G01 X47.0897 Y75.0877
G01 X47.1106 Y75.0208
G01 X47.1352 Y74.9484
G01 X47.1796 Y74.8247
G01 X47.1908 Y74.7946
G01 X47.2118 Y74.7411
G01 X47.2389 Y74.6764
G01 X47.2702 Y74.6067
G01 X47.3290 Y74.4822
G01 X47.3631 Y74.4137
G01 X47.3960 Y74.3518
G01 X47.4240 Y74.3016
G01 X47.4401 Y74.2738
G01 X47.5141 Y74.1502
G01 X47.5547 Y74.0855
G01 X47.5935 Y74.0270
G01 X47.6337 Y73.9696
G01 X47.6601 Y73.9333
G01 X47.7195 Y73.8532
G01 X47.7465 Y73.8175
G01 X47.7698 Y73.7875
G01 X47.7978 Y73.7525
G01 X47.8345 Y73.7083
G01 X47.8592 Y73.6795
G01 X47.8974 Y73.6365
G01 X47.9686 Y73.5579
G01 X48.0034 Y73.5204
G01 X48.0521 Y73.4700
G01 X48.1021 Y73.4208
G01 X48.1486 Y73.3771
G01 X48.2412 Y73.2931
G01 X48.2987 Y73.2427
G01 X48.3525 Y73.1978
G01 X48.4075 Y73.1542
G01 X48.4532 Y73.1195
G01 X48.5486 Y73.0488
G01 X48.6110 Y73.0045
G01 X48.6586 Y72.9723
G01 X48.6855 Y72.9547
G01 X48.7283 Y72.9276
G01 X48.7611 Y72.9075
G01 X48.8575 Y72.8498
G01 X48.9016 Y72.8240
G01 X48.9629 Y72.7899
G01 X49.0250 Y72.7573
G01 X49.0936 Y72.7235
G01 X49.1895 Y72.6782
G01 X49.2301 Y72.6594
G01 X49.2943 Y72.6312
G01 X49.3294 Y72.6166
G01 X49.3710 Y72.5999
G01 X49.4426 Y72.5730
G01 X49.5424 Y72.5373
G01 X49.5847 Y72.5226
G01 X49.6514 Y72.5008
G01 X49.7186 Y72.4807
G01 X49.7674 Y72.4672
G01 X49.8046 Y72.4574
G01 X49.9075 Y72.4317
G01 X49.9510 Y72.4212
G01 X50.0195 Y72.4060
G01 X50.0568 Y72.3985
G01 X50.1027 Y72.3900
G01 X50.0319 Y72.3765
G01 X49.9634 Y72.3617
G01 X49.9075 Y72.3483
G01 X49.7924 Y72.3194
G01 X49.7308 Y72.3028
G01 X49.6877 Y72.2903
G01 X49.6328 Y72.2733
G01 X49.5663 Y72.2511
G01 X49.4485 Y72.2091
G01 X49.4065 Y72.1937
G01 X49.3592 Y72.1754
G01 X49.2943 Y72.1488
G01 X49.2648 Y72.1361
G01 X49.2124 Y72.1125
G01 X49.0993 Y72.0592
G01 X49.0476 Y72.0340
G01 X48.9965 Y72.0079
G01 X48.9518 Y71.9840
G01 X48.8906 Y71.9497
G01 X48.8520 Y71.9270
G01 X48.7665 Y71.8757
G01 X48.7283 Y71.8524
G01 X48.6691 Y71.8146
G01 X48.6270 Y71.7865
G01 X48.5799 Y71.7537
G01 X48.5384 Y71.7237
G01 X48.4482 Y71.6568
G01 X48.4075 Y71.6258
G01 X48.3624 Y71.5902
