(G-CODE GENERATED BY FLATCAM v8.994 - www.flatcam.org - Version Date: 2020/11/7)

(Name: profile.gbr_1_cutout_cnc)
(Type: G-code from Geometry)
(Units: MM)

(Created on Wednesday, 09 March 2022 at 15:00)

(This preprocessor is the default preprocessor used by FlatCAM.)
(It is made to work with MACH3 compatible motion controllers.)

(TOOL DIAMETER: 1.5875 mm)
(Feedrate_XY: 400.0 mm/min)
(Feedrate_Z: 190.0 mm/min)
(Feedrate rapids 400.0 mm/min)

(Z_Cut: -1.65 mm)
(Z_Move: 5.0 mm)
(Z Start: None mm)
(Z End: 15.0 mm)
(X,Y End: None mm)
(Steps per circle: 64)
(Preprocessor Geometry: default)

(X range:   -0.8005 ...  118.9134  mm)
(Y range:   -0.8005 ...  165.9004  mm)

(Spindle Speed: 22250.0 RPM)
G21
G90
G94

G01 F400.00

M5
G00 Z15.0000
G00 X0.0000 Y0.0000
T1
M6    
(MSG, Change to Tool Dia = 1.5875)
M0
G00 Z15.0000

M03 S22250.0
G01 F400.00
G00 X57.2627 Y-0.7953
G01 F190.00
G01 Z-1.6500
G01 F400.00
G01 X47.0991 Y-0.7942
G01 X47.0778 Y-0.7967
G01 X47.0390 Y-0.7996
G01 X47.0000 Y-0.8005
G01 X46.9610 Y-0.7996
G01 X46.9222 Y-0.7967
G01 X46.6088 Y-0.7657
G01 X46.6089 Y-0.7649
G01 X46.5936 Y-0.7640
G01 X46.5016 Y-0.7476
G01 X46.1965 Y-0.6743
G01 X46.1967 Y-0.6734
G01 X46.1513 Y-0.6621
G01 X46.0780 Y-0.6358
G01 X45.7881 Y-0.5157
G01 X45.7883 Y-0.5151
G01 X45.7407 Y-0.4943
G01 X45.6770 Y-0.4592
G01 X45.4094 Y-0.2952
G01 X45.3576 Y-0.2605
G01 X45.3087 Y-0.2219
G01 X45.0700 Y-0.0180
G01 X45.0242 Y0.0242
G01 X44.9820 Y0.0700
G01 X44.7781 Y0.3087
G01 X44.7395 Y0.3576
G01 X44.7048 Y0.4094
G01 X44.5408 Y0.6770
G01 X44.5104 Y0.7315
G01 X44.4843 Y0.7881
G01 X44.3642 Y1.0781
G01 X44.3426 Y1.1365
G01 X44.3257 Y1.1964
G01 X44.2524 Y1.5016
G01 X44.2402 Y1.5628
G01 X44.2329 Y1.6248
G01 X44.2159 Y1.8410
G01 X44.2126 Y1.8556
G01 X44.2076 Y1.8863
G01 X44.2033 Y1.9222
G01 X44.2004 Y1.9610
G01 X44.1995 Y2.0000
G01 X44.2058 Y9.5014
G01 X44.2033 Y9.5222
G01 X44.2008 Y9.5539
G01 X44.1867 Y9.7961
G01 X44.1445 Y9.9718
G01 X44.0722 Y10.1463
G01 X43.9735 Y10.3073
G01 X43.8509 Y10.4509
G01 X43.7073 Y10.5735
G01 X43.5463 Y10.6722
G01 X43.3718 Y10.7445
G01 X43.1882 Y10.7886
G01 X43.0373 Y10.8005
G01 X43.0000 Y10.7996
G01 X2.0983 Y10.8058
G01 X2.0778 Y10.8034
G01 X2.0390 Y10.8005
G01 X2.0000 Y10.7996
G01 X1.9610 Y10.8005
G01 X1.9222 Y10.8034
G01 X1.6091 Y10.8343
G01 X1.6092 Y10.8350
G01 X1.5936 Y10.8360
G01 X1.5016 Y10.8524
G01 X1.1965 Y10.9257
G01 X1.1967 Y10.9266
G01 X1.1513 Y10.9379
G01 X1.0780 Y10.9642
G01 X0.7881 Y11.0843
G01 X0.7883 Y11.0849
G01 X0.7407 Y11.1057
G01 X0.6770 Y11.1408
G01 X0.4094 Y11.3048
G01 X0.3576 Y11.3395
G01 X0.3087 Y11.3781
G01 X0.0700 Y11.5820
G01 X0.0242 Y11.6242
G01 X-0.0180 Y11.6700
G01 X-0.2219 Y11.9087
G01 X-0.2605 Y11.9576
G01 X-0.2952 Y12.0094
G01 X-0.4592 Y12.2770
G01 X-0.4896 Y12.3315
G01 X-0.5157 Y12.3881
G01 X-0.6358 Y12.6781
G01 X-0.6574 Y12.7365
G01 X-0.6743 Y12.7964
G01 X-0.7476 Y13.1016
G01 X-0.7598 Y13.1628
G01 X-0.7671 Y13.2248
G01 X-0.7841 Y13.4410
G01 X-0.7874 Y13.4556
G01 X-0.7924 Y13.4863
G01 X-0.7967 Y13.5222
G01 X-0.7996 Y13.5610
G01 X-0.8005 Y13.6000
G01 X-0.7975 Y80.7562
G00 Z5.0000
G00 X-0.7973 Y84.3437
G01 F190.00
G01 Z-1.6500
G01 F400.00
G01 X-0.7942 Y152.9008
G01 X-0.7967 Y152.9222
G01 X-0.7996 Y152.9610
G01 X-0.8005 Y153.0043
G01 X-0.7996 Y153.0390
G01 X-0.7967 Y153.0778
G01 X-0.7657 Y153.3912
G01 X-0.7649 Y153.3911
G01 X-0.7640 Y153.4064
G01 X-0.7476 Y153.4984
G01 X-0.6743 Y153.8035
G01 X-0.6734 Y153.8033
G01 X-0.6621 Y153.8487
G01 X-0.6358 Y153.9220
G01 X-0.5157 Y154.2119
G01 X-0.5151 Y154.2117
G01 X-0.4943 Y154.2593
G01 X-0.4592 Y154.3230
G01 X-0.2952 Y154.5906
G01 X-0.2605 Y154.6424
G01 X-0.2219 Y154.6913
G01 X-0.0180 Y154.9300
G01 X0.0242 Y154.9758
G01 X0.0700 Y155.0180
G01 X0.3087 Y155.2219
G01 X0.3576 Y155.2605
G01 X0.4094 Y155.2952
G01 X0.6770 Y155.4592
G01 X0.7315 Y155.4896
G01 X0.7881 Y155.5157
G01 X1.0781 Y155.6358
G01 X1.1365 Y155.6574
G01 X1.1964 Y155.6743
G01 X1.5016 Y155.7476
G01 X1.5628 Y155.7598
G01 X1.6248 Y155.7671
G01 X1.8420 Y155.7842
G01 X1.8523 Y155.7867
G01 X1.8935 Y155.7933
G01 X1.9222 Y155.7966
G01 X1.9610 Y155.7995
G01 X2.0000 Y155.8004
G01 X8.9015 Y155.7942
G01 X8.9222 Y155.7966
G01 X8.9536 Y155.7991
G01 X9.1960 Y155.8133
G01 X9.3718 Y155.8555
G01 X9.5463 Y155.9278
G01 X9.7073 Y156.0265
G01 X9.8509 Y156.1491
G01 X9.9735 Y156.2927
G01 X10.0722 Y156.4537
G01 X10.1445 Y156.6282
G01 X10.1886 Y156.8118
G01 X10.2005 Y156.9627
G01 X10.1996 Y157.0008
G01 X10.2058 Y163.0017
G01 X10.2034 Y163.0223
G01 X10.2005 Y163.0611
G01 X10.1996 Y163.1001
G01 X10.2005 Y163.1391
G01 X10.2034 Y163.1778
G01 X10.2342 Y163.4909
G01 X10.2523 Y163.5986
G01 X10.3257 Y163.9041
G01 X10.3266 Y163.9039
G01 X10.3379 Y163.9493
G01 X10.3642 Y164.0226
G01 X10.4844 Y164.3127
G01 X10.4850 Y164.3125
G01 X10.5059 Y164.3603
G01 X10.5411 Y164.4240
G01 X10.7053 Y164.6917
G01 X10.7061 Y164.6912
G01 X10.7297 Y164.7292
G01 X10.7786 Y164.7926
G01 X10.9827 Y165.0313
G01 X11.0250 Y165.0771
G01 X11.0708 Y165.1194
G01 X11.3098 Y165.3233
G01 X11.3589 Y165.3619
G01 X11.4109 Y165.3966
G01 X11.6789 Y165.5605
G01 X11.7333 Y165.5909
G01 X11.7900 Y165.6169
G01 X12.0803 Y165.7368
G01 X12.1388 Y165.7584
G01 X12.1989 Y165.7752
G01 X12.5045 Y165.8482
G01 X12.5657 Y165.8603
G01 X12.6278 Y165.8676
G01 X12.8448 Y165.8844
G01 X12.8544 Y165.8867
G01 X12.8956 Y165.8933
G01 X12.9243 Y165.8966
G01 X12.9631 Y165.8995
G01 X13.0021 Y165.9004
G01 X57.2627 Y165.8974
G00 Z5.0000
G00 X60.8502 Y165.8972
G01 F190.00
G01 Z-1.6500
G01 F400.00
G01 X105.0164 Y165.8942
G01 X105.0213 Y165.8950
G01 X105.0490 Y165.8977
G01 X105.1032 Y165.9004
G01 X105.1146 Y165.9004
G01 X105.1753 Y165.8982
G01 X105.2123 Y165.8945
G01 X105.5318 Y165.8551
G01 X105.6387 Y165.8344
G01 X105.9492 Y165.7518
G01 X105.9489 Y165.7508
G01 X105.9896 Y165.7399
G01 X106.0668 Y165.7104
G01 X106.3606 Y165.5802
G01 X106.4165 Y165.5527
G01 X106.4701 Y165.5210
G01 X106.7399 Y165.3465
G01 X106.7908 Y165.3107
G01 X106.8387 Y165.2709
G01 X107.0780 Y165.0563
G01 X107.1227 Y165.0130
G01 X107.1638 Y164.9663
G01 X107.3666 Y164.7170
G01 X107.4041 Y164.6671
G01 X107.4375 Y164.6144
G01 X107.5988 Y164.3364
G01 X107.6279 Y164.2813
G01 X107.6526 Y164.2241
G01 X107.7684 Y163.9243
G01 X107.7885 Y163.8655
G01 X107.8040 Y163.8053
G01 X107.8716 Y163.4911
G01 X107.8823 Y163.4296
G01 X107.8882 Y163.3676
G01 X107.9002 Y163.1472
G01 X107.9014 Y163.1411
G01 X107.9100 Y163.0766
G01 X107.9134 Y163.0022
G01 X107.9071 Y157.0992
G01 X107.9096 Y157.0778
G01 X107.9121 Y157.0459
G01 X107.9261 Y156.8038
G01 X107.9683 Y156.6282
G01 X108.0406 Y156.4537
G01 X108.1393 Y156.2927
G01 X108.2619 Y156.1491
G01 X108.4055 Y156.0265
G01 X108.5665 Y155.9278
G01 X108.7410 Y155.8555
G01 X108.9246 Y155.8114
G01 X109.0755 Y155.7995
G01 X109.1128 Y155.8004
G01 X116.0143 Y155.7942
G01 X116.0350 Y155.7966
G01 X116.0738 Y155.7995
G01 X116.1128 Y155.8004
G01 X116.1518 Y155.7995
G01 X116.1906 Y155.7966
G01 X116.5037 Y155.7657
G01 X116.5036 Y155.7650
G01 X116.5192 Y155.7640
G01 X116.6112 Y155.7476
G01 X116.9163 Y155.6743
G01 X116.9161 Y155.6734
G01 X116.9615 Y155.6621
G01 X117.0348 Y155.6358
G01 X117.3247 Y155.5157
G01 X117.3245 Y155.5151
G01 X117.3721 Y155.4943
G01 X117.4358 Y155.4592
G01 X117.7034 Y155.2952
G01 X117.7552 Y155.2605
G01 X117.8041 Y155.2219
G01 X118.0428 Y155.0180
G01 X118.0886 Y154.9758
G01 X118.1308 Y154.9300
G01 X118.3347 Y154.6913
G01 X118.3733 Y154.6424
G01 X118.4080 Y154.5906
G01 X118.5720 Y154.3230
G01 X118.6024 Y154.2685
G01 X118.6285 Y154.2119
G01 X118.7486 Y153.9219
G01 X118.7702 Y153.8635
G01 X118.7871 Y153.8036
G01 X118.8604 Y153.4984
G01 X118.8726 Y153.4372
G01 X118.8799 Y153.3752
G01 X118.8968 Y153.1597
G01 X118.9003 Y153.1444
G01 X118.9053 Y153.1137
G01 X118.9096 Y153.0778
G01 X118.9125 Y153.0390
G01 X118.9134 Y153.0000
G01 X118.9102 Y84.3437
G00 Z5.0000
G00 X118.9101 Y80.7562
G01 F190.00
G01 Z-1.6500
G01 F400.00
G01 X118.9070 Y13.6980
G01 X118.9096 Y13.6758
G01 X118.9125 Y13.6370
G01 X118.9134 Y13.5980
G01 X118.9125 Y13.5590
G01 X118.9096 Y13.5202
G01 X118.8785 Y13.2066
G01 X118.8777 Y13.2067
G01 X118.8768 Y13.1916
G01 X118.8604 Y13.0996
G01 X118.7871 Y12.7945
G01 X118.7862 Y12.7947
G01 X118.7749 Y12.7493
G01 X118.7486 Y12.6760
G01 X118.6285 Y12.3861
G01 X118.6279 Y12.3863
G01 X118.6071 Y12.3387
G01 X118.5720 Y12.2750
G01 X118.4080 Y12.0074
G01 X118.3733 Y11.9556
G01 X118.3347 Y11.9067
G01 X118.1308 Y11.6680
G01 X118.0886 Y11.6222
G01 X118.0428 Y11.5800
G01 X117.8041 Y11.3761
G01 X117.7552 Y11.3375
G01 X117.7034 Y11.3028
G01 X117.4358 Y11.1388
G01 X117.3813 Y11.1084
G01 X117.3247 Y11.0823
G01 X117.0347 Y10.9622
G01 X116.9763 Y10.9406
G01 X116.9164 Y10.9237
G01 X116.6112 Y10.8504
G01 X116.5500 Y10.8382
G01 X116.4880 Y10.8309
G01 X116.2711 Y10.8138
G01 X116.2572 Y10.8107
G01 X116.2251 Y10.8055
G01 X116.1906 Y10.8014
G01 X116.1518 Y10.7985
G01 X116.1116 Y10.7976
G01 X111.9287 Y10.8037
G01 X111.9092 Y10.8014
G01 X111.8751 Y10.7988
G01 X111.3312 Y10.7687
G01 X110.8475 Y10.6725
G01 X110.3766 Y10.5127
G01 X109.9306 Y10.2928
G01 X109.5171 Y10.0165
G01 X109.1433 Y9.6887
G01 X108.8155 Y9.3149
G01 X108.5392 Y8.9014
G01 X108.3193 Y8.4554
G01 X108.1595 Y7.9845
G01 X108.0624 Y7.4967
G01 X108.0330 Y7.0487
G01 X108.0337 Y7.0396
G01 X108.0346 Y6.9995
G01 X108.0283 Y2.0990
G01 X108.0308 Y2.0778
G01 X108.0337 Y2.0390
G01 X108.0346 Y2.0000
G01 X108.0337 Y1.9610
G01 X108.0308 Y1.9222
G01 X107.9997 Y1.6086
G01 X107.9989 Y1.6087
G01 X107.9980 Y1.5936
G01 X107.9816 Y1.5016
G01 X107.9083 Y1.1965
G01 X107.9074 Y1.1967
G01 X107.8961 Y1.1513
G01 X107.8698 Y1.0780
G01 X107.7497 Y0.7881
G01 X107.7491 Y0.7883
G01 X107.7283 Y0.7407
G01 X107.6932 Y0.6770
G01 X107.5292 Y0.4094
G01 X107.4945 Y0.3576
G01 X107.4559 Y0.3087
G01 X107.2520 Y0.0700
G01 X107.2098 Y0.0242
G01 X107.1640 Y-0.0180
G01 X106.9253 Y-0.2219
G01 X106.8764 Y-0.2605
G01 X106.8246 Y-0.2952
G01 X106.5570 Y-0.4592
G01 X106.5025 Y-0.4896
G01 X106.4459 Y-0.5157
G01 X106.1559 Y-0.6358
G01 X106.0975 Y-0.6574
G01 X106.0376 Y-0.6743
G01 X105.7324 Y-0.7476
G01 X105.6712 Y-0.7598
G01 X105.6092 Y-0.7671
G01 X105.3930 Y-0.7841
G01 X105.3784 Y-0.7874
G01 X105.3477 Y-0.7924
G01 X105.3118 Y-0.7967
G01 X105.2730 Y-0.7996
G01 X105.2340 Y-0.8005
G01 X60.8502 Y-0.7957
G00 Z5.0000
G01 F400.00

M5
G00 Z15.0000
G00 X0.0000 Y0.0000
T9999
M6    
(MSG, Change to Tool Dia = 1.5875)
M0
G00 Z15.0000

M03 S22250.0
G01 F400.00
G00 X57.2627 Y-0.7953
G01 F190.00
G01 Z-1.0000
G01 F400.00
G01 X60.8502 Y-0.7957
G00 Z5.0000
G00 X-0.7975 Y80.7562
G01 F190.00
G01 Z-1.0000
G01 F400.00
G01 X-0.7973 Y84.3437
G00 Z5.0000
G00 X57.2627 Y165.8974
G01 F190.00
G01 Z-1.0000
G01 F400.00
G01 X60.8502 Y165.8972
G00 Z5.0000
G00 X118.9102 Y84.3437
G01 F190.00
G01 Z-1.0000
G01 F400.00
G01 X118.9101 Y80.7562
G00 Z5.0000
M05
G00 Z5.0000
G00 Z15.00


