(G-CODE GENERATED BY FLATCAM v8.994 - www.flatcam.org - Version Date: 2020/11/7)

(Name: Excellon Drill.xln_mill_cnc)
(Type: G-code from Geometry)
(Units: MM)

(Created on Wednesday, 09 March 2022 at 14:11)

(This preprocessor is the default preprocessor used by FlatCAM.)
(It is made to work with MACH3 compatible motion controllers.)

(TOOL DIAMETER: 1.5875 mm)
(Feedrate_XY: 120.0 mm/min)
(Feedrate_Z: 60.0 mm/min)
(Feedrate rapids 1500.0 mm/min)

(Z_Cut: -1.65 mm)
(DepthPerCut: 0.5 mm <=>4 passes)
(Z_Move: 5.0 mm)
(Z Start: None mm)
(Z End: 30.0 mm)
(X,Y End: None mm)
(Steps per circle: 64)
(Preprocessor Geometry: default)

(X range:   12.3507 ...   56.2293  mm)
(Y range:   96.1707 ...  142.5893  mm)

(Spindle Speed: 0.0 RPM)
G21
G90
G94

G01 F120.00

M5
G00 Z15.0000
G00 X0.0000 Y0.0000
T1
M6    
(MSG, Change to Tool Dia = 1.5875)
M0
G00 Z15.0000

M03
G01 F120.00
G00 X15.5892 Y96.5200
G01 F60.00
G01 Z-0.5000
G01 F120.00
G01 X15.5876 Y96.4858
G01 X15.5825 Y96.4519
G01 X15.5742 Y96.4186
G01 X15.5627 Y96.3863
G01 X15.5480 Y96.3554
G01 X15.5304 Y96.3260
G01 X15.5100 Y96.2984
G01 X15.4870 Y96.2730
G01 X15.4616 Y96.2500
G01 X15.4340 Y96.2296
G01 X15.4046 Y96.2120
G01 X15.3737 Y96.1973
G01 X15.3414 Y96.1858
G01 X15.3081 Y96.1775
G01 X15.2742 Y96.1724
G01 X15.2400 Y96.1707
G01 X15.2058 Y96.1724
G01 X15.1719 Y96.1775
G01 X15.1386 Y96.1858
G01 X15.1063 Y96.1973
G01 X15.0754 Y96.2120
G01 X15.0460 Y96.2296
G01 X15.0184 Y96.2500
G01 X14.9930 Y96.2730
G01 X14.9700 Y96.2984
G01 X14.9496 Y96.3260
G01 X14.9320 Y96.3554
G01 X14.9173 Y96.3863
G01 X14.9058 Y96.4186
G01 X14.8975 Y96.4519
G01 X14.8924 Y96.4858
G01 X14.8908 Y96.5200
G01 X14.8924 Y96.5542
G01 X14.8975 Y96.5881
G01 X14.9058 Y96.6214
G01 X14.9173 Y96.6537
G01 X14.9320 Y96.6846
G01 X14.9496 Y96.7140
G01 X14.9700 Y96.7416
G01 X14.9930 Y96.7670
G01 X15.0184 Y96.7900
G01 X15.0460 Y96.8104
G01 X15.0754 Y96.8280
G01 X15.1063 Y96.8427
G01 X15.1386 Y96.8542
G01 X15.1719 Y96.8625
G01 X15.2058 Y96.8676
G01 X15.2400 Y96.8692
G01 X15.2742 Y96.8676
G01 X15.3081 Y96.8625
G01 X15.3414 Y96.8542
G01 X15.3737 Y96.8427
G01 X15.4046 Y96.8280
G01 X15.4340 Y96.8104
G01 X15.4616 Y96.7900
G01 X15.4870 Y96.7670
G01 X15.5100 Y96.7416
G01 X15.5304 Y96.7140
G01 X15.5480 Y96.6846
G01 X15.5627 Y96.6537
G01 X15.5742 Y96.6214
G01 X15.5825 Y96.5881
G01 X15.5876 Y96.5542
G01 X15.5892 Y96.5200
G00 X15.5892 Y96.5200
G01 F60.00
G01 Z-1.0000
G01 F120.00
G01 X15.5876 Y96.4858
G01 X15.5825 Y96.4519
G01 X15.5742 Y96.4186
G01 X15.5627 Y96.3863
G01 X15.5480 Y96.3554
G01 X15.5304 Y96.3260
G01 X15.5100 Y96.2984
G01 X15.4870 Y96.2730
G01 X15.4616 Y96.2500
G01 X15.4340 Y96.2296
G01 X15.4046 Y96.2120
G01 X15.3737 Y96.1973
G01 X15.3414 Y96.1858
G01 X15.3081 Y96.1775
G01 X15.2742 Y96.1724
G01 X15.2400 Y96.1707
G01 X15.2058 Y96.1724
G01 X15.1719 Y96.1775
G01 X15.1386 Y96.1858
G01 X15.1063 Y96.1973
G01 X15.0754 Y96.2120
G01 X15.0460 Y96.2296
G01 X15.0184 Y96.2500
G01 X14.9930 Y96.2730
G01 X14.9700 Y96.2984
G01 X14.9496 Y96.3260
G01 X14.9320 Y96.3554
G01 X14.9173 Y96.3863
G01 X14.9058 Y96.4186
G01 X14.8975 Y96.4519
G01 X14.8924 Y96.4858
G01 X14.8908 Y96.5200
G01 X14.8924 Y96.5542
G01 X14.8975 Y96.5881
G01 X14.9058 Y96.6214
G01 X14.9173 Y96.6537
G01 X14.9320 Y96.6846
G01 X14.9496 Y96.7140
G01 X14.9700 Y96.7416
G01 X14.9930 Y96.7670
G01 X15.0184 Y96.7900
G01 X15.0460 Y96.8104
G01 X15.0754 Y96.8280
G01 X15.1063 Y96.8427
G01 X15.1386 Y96.8542
G01 X15.1719 Y96.8625
G01 X15.2058 Y96.8676
G01 X15.2400 Y96.8692
G01 X15.2742 Y96.8676
G01 X15.3081 Y96.8625
G01 X15.3414 Y96.8542
G01 X15.3737 Y96.8427
G01 X15.4046 Y96.8280
G01 X15.4340 Y96.8104
G01 X15.4616 Y96.7900
G01 X15.4870 Y96.7670
G01 X15.5100 Y96.7416
G01 X15.5304 Y96.7140
G01 X15.5480 Y96.6846
G01 X15.5627 Y96.6537
G01 X15.5742 Y96.6214
G01 X15.5825 Y96.5881
G01 X15.5876 Y96.5542
G01 X15.5892 Y96.5200
G00 X15.5892 Y96.5200
G01 F60.00
G01 Z-1.5000
G01 F120.00
G01 X15.5876 Y96.4858
G01 X15.5825 Y96.4519
G01 X15.5742 Y96.4186
G01 X15.5627 Y96.3863
G01 X15.5480 Y96.3554
G01 X15.5304 Y96.3260
G01 X15.5100 Y96.2984
G01 X15.4870 Y96.2730
G01 X15.4616 Y96.2500
G01 X15.4340 Y96.2296
G01 X15.4046 Y96.2120
G01 X15.3737 Y96.1973
G01 X15.3414 Y96.1858
G01 X15.3081 Y96.1775
G01 X15.2742 Y96.1724
G01 X15.2400 Y96.1707
G01 X15.2058 Y96.1724
G01 X15.1719 Y96.1775
G01 X15.1386 Y96.1858
G01 X15.1063 Y96.1973
G01 X15.0754 Y96.2120
G01 X15.0460 Y96.2296
G01 X15.0184 Y96.2500
G01 X14.9930 Y96.2730
G01 X14.9700 Y96.2984
G01 X14.9496 Y96.3260
G01 X14.9320 Y96.3554
G01 X14.9173 Y96.3863
G01 X14.9058 Y96.4186
G01 X14.8975 Y96.4519
G01 X14.8924 Y96.4858
G01 X14.8908 Y96.5200
G01 X14.8924 Y96.5542
G01 X14.8975 Y96.5881
G01 X14.9058 Y96.6214
G01 X14.9173 Y96.6537
G01 X14.9320 Y96.6846
G01 X14.9496 Y96.7140
G01 X14.9700 Y96.7416
G01 X14.9930 Y96.7670
G01 X15.0184 Y96.7900
G01 X15.0460 Y96.8104
G01 X15.0754 Y96.8280
G01 X15.1063 Y96.8427
G01 X15.1386 Y96.8542
G01 X15.1719 Y96.8625
G01 X15.2058 Y96.8676
G01 X15.2400 Y96.8692
G01 X15.2742 Y96.8676
G01 X15.3081 Y96.8625
G01 X15.3414 Y96.8542
G01 X15.3737 Y96.8427
G01 X15.4046 Y96.8280
G01 X15.4340 Y96.8104
G01 X15.4616 Y96.7900
G01 X15.4870 Y96.7670
G01 X15.5100 Y96.7416
G01 X15.5304 Y96.7140
G01 X15.5480 Y96.6846
G01 X15.5627 Y96.6537
G01 X15.5742 Y96.6214
G01 X15.5825 Y96.5881
G01 X15.5876 Y96.5542
G01 X15.5892 Y96.5200
G00 X15.5892 Y96.5200
G01 F60.00
G01 Z-1.6500
G01 F120.00
G01 X15.5876 Y96.4858
G01 X15.5825 Y96.4519
G01 X15.5742 Y96.4186
G01 X15.5627 Y96.3863
G01 X15.5480 Y96.3554
G01 X15.5304 Y96.3260
G01 X15.5100 Y96.2984
G01 X15.4870 Y96.2730
G01 X15.4616 Y96.2500
G01 X15.4340 Y96.2296
G01 X15.4046 Y96.2120
G01 X15.3737 Y96.1973
G01 X15.3414 Y96.1858
G01 X15.3081 Y96.1775
G01 X15.2742 Y96.1724
G01 X15.2400 Y96.1707
G01 X15.2058 Y96.1724
G01 X15.1719 Y96.1775
G01 X15.1386 Y96.1858
G01 X15.1063 Y96.1973
G01 X15.0754 Y96.2120
G01 X15.0460 Y96.2296
G01 X15.0184 Y96.2500
G01 X14.9930 Y96.2730
G01 X14.9700 Y96.2984
G01 X14.9496 Y96.3260
G01 X14.9320 Y96.3554
G01 X14.9173 Y96.3863
G01 X14.9058 Y96.4186
G01 X14.8975 Y96.4519
G01 X14.8924 Y96.4858
G01 X14.8908 Y96.5200
G01 X14.8924 Y96.5542
G01 X14.8975 Y96.5881
G01 X14.9058 Y96.6214
G01 X14.9173 Y96.6537
G01 X14.9320 Y96.6846
G01 X14.9496 Y96.7140
G01 X14.9700 Y96.7416
G01 X14.9930 Y96.7670
G01 X15.0184 Y96.7900
G01 X15.0460 Y96.8104
G01 X15.0754 Y96.8280
G01 X15.1063 Y96.8427
G01 X15.1386 Y96.8542
G01 X15.1719 Y96.8625
G01 X15.2058 Y96.8676
G01 X15.2400 Y96.8692
G01 X15.2742 Y96.8676
G01 X15.3081 Y96.8625
G01 X15.3414 Y96.8542
G01 X15.3737 Y96.8427
G01 X15.4046 Y96.8280
G01 X15.4340 Y96.8104
G01 X15.4616 Y96.7900
G01 X15.4870 Y96.7670
G01 X15.5100 Y96.7416
G01 X15.5304 Y96.7140
G01 X15.5480 Y96.6846
G01 X15.5627 Y96.6537
G01 X15.5742 Y96.6214
G01 X15.5825 Y96.5881
G01 X15.5876 Y96.5542
G01 X15.5892 Y96.5200
G00 Z5.0000
G00 X15.5892 Y101.6000
G01 F60.00
G01 Z-0.5000
G01 F120.00
G01 X15.5876 Y101.5658
G01 X15.5825 Y101.5319
G01 X15.5742 Y101.4986
G01 X15.5627 Y101.4663
G01 X15.5480 Y101.4354
G01 X15.5304 Y101.4060
G01 X15.5100 Y101.3784
G01 X15.4870 Y101.3530
G01 X15.4616 Y101.3300
G01 X15.4340 Y101.3096
G01 X15.4046 Y101.2920
G01 X15.3737 Y101.2773
G01 X15.3414 Y101.2658
G01 X15.3081 Y101.2575
G01 X15.2742 Y101.2524
G01 X15.2400 Y101.2507
G01 X15.2058 Y101.2524
G01 X15.1719 Y101.2575
G01 X15.1386 Y101.2658
G01 X15.1063 Y101.2773
G01 X15.0754 Y101.2920
G01 X15.0460 Y101.3096
G01 X15.0184 Y101.3300
G01 X14.9930 Y101.3530
G01 X14.9700 Y101.3784
G01 X14.9496 Y101.4060
G01 X14.9320 Y101.4354
G01 X14.9173 Y101.4663
G01 X14.9058 Y101.4986
G01 X14.8975 Y101.5319
G01 X14.8924 Y101.5658
G01 X14.8908 Y101.6000
G01 X14.8924 Y101.6342
G01 X14.8975 Y101.6681
G01 X14.9058 Y101.7014
G01 X14.9173 Y101.7337
G01 X14.9320 Y101.7646
G01 X14.9496 Y101.7940
G01 X14.9700 Y101.8216
G01 X14.9930 Y101.8470
G01 X15.0184 Y101.8700
G01 X15.0460 Y101.8904
G01 X15.0754 Y101.9080
G01 X15.1063 Y101.9227
G01 X15.1386 Y101.9342
G01 X15.1719 Y101.9425
G01 X15.2058 Y101.9476
G01 X15.2400 Y101.9492
G01 X15.2742 Y101.9476
G01 X15.3081 Y101.9425
G01 X15.3414 Y101.9342
G01 X15.3737 Y101.9227
G01 X15.4046 Y101.9080
G01 X15.4340 Y101.8904
G01 X15.4616 Y101.8700
G01 X15.4870 Y101.8470
G01 X15.5100 Y101.8216
G01 X15.5304 Y101.7940
G01 X15.5480 Y101.7646
G01 X15.5627 Y101.7337
G01 X15.5742 Y101.7014
G01 X15.5825 Y101.6681
G01 X15.5876 Y101.6342
G01 X15.5892 Y101.6000
G00 X15.5892 Y101.6000
G01 F60.00
G01 Z-1.0000
G01 F120.00
G01 X15.5876 Y101.5658
G01 X15.5825 Y101.5319
G01 X15.5742 Y101.4986
G01 X15.5627 Y101.4663
G01 X15.5480 Y101.4354
G01 X15.5304 Y101.4060
G01 X15.5100 Y101.3784
G01 X15.4870 Y101.3530
G01 X15.4616 Y101.3300
G01 X15.4340 Y101.3096
G01 X15.4046 Y101.2920
G01 X15.3737 Y101.2773
G01 X15.3414 Y101.2658
G01 X15.3081 Y101.2575
G01 X15.2742 Y101.2524
G01 X15.2400 Y101.2507
G01 X15.2058 Y101.2524
G01 X15.1719 Y101.2575
G01 X15.1386 Y101.2658
G01 X15.1063 Y101.2773
G01 X15.0754 Y101.2920
G01 X15.0460 Y101.3096
G01 X15.0184 Y101.3300
G01 X14.9930 Y101.3530
G01 X14.9700 Y101.3784
G01 X14.9496 Y101.4060
G01 X14.9320 Y101.4354
G01 X14.9173 Y101.4663
G01 X14.9058 Y101.4986
G01 X14.8975 Y101.5319
G01 X14.8924 Y101.5658
G01 X14.8908 Y101.6000
G01 X14.8924 Y101.6342
G01 X14.8975 Y101.6681
G01 X14.9058 Y101.7014
G01 X14.9173 Y101.7337
G01 X14.9320 Y101.7646
G01 X14.9496 Y101.7940
G01 X14.9700 Y101.8216
G01 X14.9930 Y101.8470
G01 X15.0184 Y101.8700
G01 X15.0460 Y101.8904
G01 X15.0754 Y101.9080
G01 X15.1063 Y101.9227
G01 X15.1386 Y101.9342
G01 X15.1719 Y101.9425
G01 X15.2058 Y101.9476
G01 X15.2400 Y101.9492
G01 X15.2742 Y101.9476
G01 X15.3081 Y101.9425
G01 X15.3414 Y101.9342
G01 X15.3737 Y101.9227
G01 X15.4046 Y101.9080
G01 X15.4340 Y101.8904
G01 X15.4616 Y101.8700
G01 X15.4870 Y101.8470
G01 X15.5100 Y101.8216
G01 X15.5304 Y101.7940
G01 X15.5480 Y101.7646
G01 X15.5627 Y101.7337
G01 X15.5742 Y101.7014
G01 X15.5825 Y101.6681
G01 X15.5876 Y101.6342
G01 X15.5892 Y101.6000
G00 X15.5892 Y101.6000
G01 F60.00
G01 Z-1.5000
G01 F120.00
G01 X15.5876 Y101.5658
G01 X15.5825 Y101.5319
G01 X15.5742 Y101.4986
G01 X15.5627 Y101.4663
G01 X15.5480 Y101.4354
G01 X15.5304 Y101.4060
G01 X15.5100 Y101.3784
G01 X15.4870 Y101.3530
G01 X15.4616 Y101.3300
G01 X15.4340 Y101.3096
G01 X15.4046 Y101.2920
G01 X15.3737 Y101.2773
G01 X15.3414 Y101.2658
G01 X15.3081 Y101.2575
G01 X15.2742 Y101.2524
G01 X15.2400 Y101.2507
G01 X15.2058 Y101.2524
G01 X15.1719 Y101.2575
G01 X15.1386 Y101.2658
G01 X15.1063 Y101.2773
G01 X15.0754 Y101.2920
G01 X15.0460 Y101.3096
G01 X15.0184 Y101.3300
G01 X14.9930 Y101.3530
G01 X14.9700 Y101.3784
G01 X14.9496 Y101.4060
G01 X14.9320 Y101.4354
G01 X14.9173 Y101.4663
G01 X14.9058 Y101.4986
G01 X14.8975 Y101.5319
G01 X14.8924 Y101.5658
G01 X14.8908 Y101.6000
G01 X14.8924 Y101.6342
G01 X14.8975 Y101.6681
G01 X14.9058 Y101.7014
G01 X14.9173 Y101.7337
G01 X14.9320 Y101.7646
G01 X14.9496 Y101.7940
G01 X14.9700 Y101.8216
G01 X14.9930 Y101.8470
G01 X15.0184 Y101.8700
G01 X15.0460 Y101.8904
G01 X15.0754 Y101.9080
G01 X15.1063 Y101.9227
G01 X15.1386 Y101.9342
G01 X15.1719 Y101.9425
G01 X15.2058 Y101.9476
G01 X15.2400 Y101.9492
G01 X15.2742 Y101.9476
G01 X15.3081 Y101.9425
G01 X15.3414 Y101.9342
G01 X15.3737 Y101.9227
G01 X15.4046 Y101.9080
G01 X15.4340 Y101.8904
G01 X15.4616 Y101.8700
G01 X15.4870 Y101.8470
G01 X15.5100 Y101.8216
G01 X15.5304 Y101.7940
G01 X15.5480 Y101.7646
G01 X15.5627 Y101.7337
G01 X15.5742 Y101.7014
G01 X15.5825 Y101.6681
G01 X15.5876 Y101.6342
G01 X15.5892 Y101.6000
G00 X15.5892 Y101.6000
G01 F60.00
G01 Z-1.6500
G01 F120.00
G01 X15.5876 Y101.5658
G01 X15.5825 Y101.5319
G01 X15.5742 Y101.4986
G01 X15.5627 Y101.4663
G01 X15.5480 Y101.4354
G01 X15.5304 Y101.4060
G01 X15.5100 Y101.3784
G01 X15.4870 Y101.3530
G01 X15.4616 Y101.3300
G01 X15.4340 Y101.3096
G01 X15.4046 Y101.2920
G01 X15.3737 Y101.2773
G01 X15.3414 Y101.2658
G01 X15.3081 Y101.2575
G01 X15.2742 Y101.2524
G01 X15.2400 Y101.2507
G01 X15.2058 Y101.2524
G01 X15.1719 Y101.2575
G01 X15.1386 Y101.2658
G01 X15.1063 Y101.2773
G01 X15.0754 Y101.2920
G01 X15.0460 Y101.3096
G01 X15.0184 Y101.3300
G01 X14.9930 Y101.3530
G01 X14.9700 Y101.3784
G01 X14.9496 Y101.4060
G01 X14.9320 Y101.4354
G01 X14.9173 Y101.4663
G01 X14.9058 Y101.4986
G01 X14.8975 Y101.5319
G01 X14.8924 Y101.5658
G01 X14.8908 Y101.6000
G01 X14.8924 Y101.6342
G01 X14.8975 Y101.6681
G01 X14.9058 Y101.7014
G01 X14.9173 Y101.7337
G01 X14.9320 Y101.7646
G01 X14.9496 Y101.7940
G01 X14.9700 Y101.8216
G01 X14.9930 Y101.8470
G01 X15.0184 Y101.8700
G01 X15.0460 Y101.8904
G01 X15.0754 Y101.9080
G01 X15.1063 Y101.9227
G01 X15.1386 Y101.9342
G01 X15.1719 Y101.9425
G01 X15.2058 Y101.9476
G01 X15.2400 Y101.9492
G01 X15.2742 Y101.9476
G01 X15.3081 Y101.9425
G01 X15.3414 Y101.9342
G01 X15.3737 Y101.9227
G01 X15.4046 Y101.9080
G01 X15.4340 Y101.8904
G01 X15.4616 Y101.8700
G01 X15.4870 Y101.8470
G01 X15.5100 Y101.8216
G01 X15.5304 Y101.7940
G01 X15.5480 Y101.7646
G01 X15.5627 Y101.7337
G01 X15.5742 Y101.7014
G01 X15.5825 Y101.6681
G01 X15.5876 Y101.6342
G01 X15.5892 Y101.6000
G00 Z5.0000
G00 X40.9892 Y96.5200
G01 F60.00
G01 Z-0.5000
G01 F120.00
G01 X40.9876 Y96.4858
G01 X40.9825 Y96.4519
G01 X40.9742 Y96.4186
G01 X40.9627 Y96.3863
G01 X40.9480 Y96.3554
G01 X40.9304 Y96.3260
G01 X40.9100 Y96.2984
G01 X40.8870 Y96.2730
G01 X40.8616 Y96.2500
G01 X40.8340 Y96.2296
G01 X40.8046 Y96.2120
G01 X40.7737 Y96.1973
G01 X40.7414 Y96.1858
G01 X40.7081 Y96.1775
G01 X40.6742 Y96.1724
G01 X40.6400 Y96.1707
G01 X40.6058 Y96.1724
G01 X40.5719 Y96.1775
G01 X40.5386 Y96.1858
G01 X40.5063 Y96.1973
G01 X40.4754 Y96.2120
G01 X40.4460 Y96.2296
G01 X40.4184 Y96.2500
G01 X40.3930 Y96.2730
G01 X40.3700 Y96.2984
G01 X40.3496 Y96.3260
G01 X40.3320 Y96.3554
G01 X40.3173 Y96.3863
G01 X40.3058 Y96.4186
G01 X40.2975 Y96.4519
G01 X40.2924 Y96.4858
G01 X40.2908 Y96.5200
G01 X40.2924 Y96.5542
G01 X40.2975 Y96.5881
G01 X40.3058 Y96.6214
G01 X40.3173 Y96.6537
G01 X40.3320 Y96.6846
G01 X40.3496 Y96.7140
G01 X40.3700 Y96.7416
G01 X40.3930 Y96.7670
G01 X40.4184 Y96.7900
G01 X40.4460 Y96.8104
G01 X40.4754 Y96.8280
G01 X40.5063 Y96.8427
G01 X40.5386 Y96.8542
G01 X40.5719 Y96.8625
G01 X40.6058 Y96.8676
G01 X40.6400 Y96.8692
G01 X40.6742 Y96.8676
G01 X40.7081 Y96.8625
G01 X40.7414 Y96.8542
G01 X40.7737 Y96.8427
G01 X40.8046 Y96.8280
G01 X40.8340 Y96.8104
G01 X40.8616 Y96.7900
G01 X40.8870 Y96.7670
G01 X40.9100 Y96.7416
G01 X40.9304 Y96.7140
G01 X40.9480 Y96.6846
G01 X40.9627 Y96.6537
G01 X40.9742 Y96.6214
G01 X40.9825 Y96.5881
G01 X40.9876 Y96.5542
G01 X40.9892 Y96.5200
G00 X40.9892 Y96.5200
G01 F60.00
G01 Z-1.0000
G01 F120.00
G01 X40.9876 Y96.4858
G01 X40.9825 Y96.4519
G01 X40.9742 Y96.4186
G01 X40.9627 Y96.3863
G01 X40.9480 Y96.3554
G01 X40.9304 Y96.3260
G01 X40.9100 Y96.2984
G01 X40.8870 Y96.2730
G01 X40.8616 Y96.2500
G01 X40.8340 Y96.2296
G01 X40.8046 Y96.2120
G01 X40.7737 Y96.1973
G01 X40.7414 Y96.1858
G01 X40.7081 Y96.1775
G01 X40.6742 Y96.1724
G01 X40.6400 Y96.1707
G01 X40.6058 Y96.1724
G01 X40.5719 Y96.1775
G01 X40.5386 Y96.1858
G01 X40.5063 Y96.1973
G01 X40.4754 Y96.2120
G01 X40.4460 Y96.2296
G01 X40.4184 Y96.2500
G01 X40.3930 Y96.2730
G01 X40.3700 Y96.2984
G01 X40.3496 Y96.3260
G01 X40.3320 Y96.3554
G01 X40.3173 Y96.3863
G01 X40.3058 Y96.4186
G01 X40.2975 Y96.4519
G01 X40.2924 Y96.4858
G01 X40.2908 Y96.5200
G01 X40.2924 Y96.5542
G01 X40.2975 Y96.5881
G01 X40.3058 Y96.6214
G01 X40.3173 Y96.6537
G01 X40.3320 Y96.6846
G01 X40.3496 Y96.7140
G01 X40.3700 Y96.7416
G01 X40.3930 Y96.7670
G01 X40.4184 Y96.7900
G01 X40.4460 Y96.8104
G01 X40.4754 Y96.8280
G01 X40.5063 Y96.8427
G01 X40.5386 Y96.8542
G01 X40.5719 Y96.8625
G01 X40.6058 Y96.8676
G01 X40.6400 Y96.8692
G01 X40.6742 Y96.8676
G01 X40.7081 Y96.8625
G01 X40.7414 Y96.8542
G01 X40.7737 Y96.8427
G01 X40.8046 Y96.8280
G01 X40.8340 Y96.8104
G01 X40.8616 Y96.7900
G01 X40.8870 Y96.7670
G01 X40.9100 Y96.7416
G01 X40.9304 Y96.7140
G01 X40.9480 Y96.6846
G01 X40.9627 Y96.6537
G01 X40.9742 Y96.6214
G01 X40.9825 Y96.5881
G01 X40.9876 Y96.5542
G01 X40.9892 Y96.5200
G00 X40.9892 Y96.5200
G01 F60.00
G01 Z-1.5000
G01 F120.00
G01 X40.9876 Y96.4858
G01 X40.9825 Y96.4519
G01 X40.9742 Y96.4186
G01 X40.9627 Y96.3863
G01 X40.9480 Y96.3554
G01 X40.9304 Y96.3260
G01 X40.9100 Y96.2984
G01 X40.8870 Y96.2730
G01 X40.8616 Y96.2500
G01 X40.8340 Y96.2296
G01 X40.8046 Y96.2120
G01 X40.7737 Y96.1973
G01 X40.7414 Y96.1858
G01 X40.7081 Y96.1775
G01 X40.6742 Y96.1724
G01 X40.6400 Y96.1707
G01 X40.6058 Y96.1724
G01 X40.5719 Y96.1775
G01 X40.5386 Y96.1858
G01 X40.5063 Y96.1973
G01 X40.4754 Y96.2120
G01 X40.4460 Y96.2296
G01 X40.4184 Y96.2500
G01 X40.3930 Y96.2730
G01 X40.3700 Y96.2984
G01 X40.3496 Y96.3260
G01 X40.3320 Y96.3554
G01 X40.3173 Y96.3863
G01 X40.3058 Y96.4186
G01 X40.2975 Y96.4519
G01 X40.2924 Y96.4858
G01 X40.2908 Y96.5200
G01 X40.2924 Y96.5542
G01 X40.2975 Y96.5881
G01 X40.3058 Y96.6214
G01 X40.3173 Y96.6537
G01 X40.3320 Y96.6846
G01 X40.3496 Y96.7140
G01 X40.3700 Y96.7416
G01 X40.3930 Y96.7670
G01 X40.4184 Y96.7900
G01 X40.4460 Y96.8104
G01 X40.4754 Y96.8280
G01 X40.5063 Y96.8427
G01 X40.5386 Y96.8542
G01 X40.5719 Y96.8625
G01 X40.6058 Y96.8676
G01 X40.6400 Y96.8692
G01 X40.6742 Y96.8676
G01 X40.7081 Y96.8625
G01 X40.7414 Y96.8542
G01 X40.7737 Y96.8427
G01 X40.8046 Y96.8280
G01 X40.8340 Y96.8104
G01 X40.8616 Y96.7900
G01 X40.8870 Y96.7670
G01 X40.9100 Y96.7416
G01 X40.9304 Y96.7140
G01 X40.9480 Y96.6846
G01 X40.9627 Y96.6537
G01 X40.9742 Y96.6214
G01 X40.9825 Y96.5881
G01 X40.9876 Y96.5542
G01 X40.9892 Y96.5200
G00 X40.9892 Y96.5200
G01 F60.00
G01 Z-1.6500
G01 F120.00
G01 X40.9876 Y96.4858
G01 X40.9825 Y96.4519
G01 X40.9742 Y96.4186
G01 X40.9627 Y96.3863
G01 X40.9480 Y96.3554
G01 X40.9304 Y96.3260
G01 X40.9100 Y96.2984
G01 X40.8870 Y96.2730
G01 X40.8616 Y96.2500
G01 X40.8340 Y96.2296
G01 X40.8046 Y96.2120
G01 X40.7737 Y96.1973
G01 X40.7414 Y96.1858
G01 X40.7081 Y96.1775
G01 X40.6742 Y96.1724
G01 X40.6400 Y96.1707
G01 X40.6058 Y96.1724
G01 X40.5719 Y96.1775
G01 X40.5386 Y96.1858
G01 X40.5063 Y96.1973
G01 X40.4754 Y96.2120
G01 X40.4460 Y96.2296
G01 X40.4184 Y96.2500
G01 X40.3930 Y96.2730
G01 X40.3700 Y96.2984
G01 X40.3496 Y96.3260
G01 X40.3320 Y96.3554
G01 X40.3173 Y96.3863
G01 X40.3058 Y96.4186
G01 X40.2975 Y96.4519
G01 X40.2924 Y96.4858
G01 X40.2908 Y96.5200
G01 X40.2924 Y96.5542
G01 X40.2975 Y96.5881
G01 X40.3058 Y96.6214
G01 X40.3173 Y96.6537
G01 X40.3320 Y96.6846
G01 X40.3496 Y96.7140
G01 X40.3700 Y96.7416
G01 X40.3930 Y96.7670
G01 X40.4184 Y96.7900
G01 X40.4460 Y96.8104
G01 X40.4754 Y96.8280
G01 X40.5063 Y96.8427
G01 X40.5386 Y96.8542
G01 X40.5719 Y96.8625
G01 X40.6058 Y96.8676
G01 X40.6400 Y96.8692
G01 X40.6742 Y96.8676
G01 X40.7081 Y96.8625
G01 X40.7414 Y96.8542
G01 X40.7737 Y96.8427
G01 X40.8046 Y96.8280
G01 X40.8340 Y96.8104
G01 X40.8616 Y96.7900
G01 X40.8870 Y96.7670
G01 X40.9100 Y96.7416
G01 X40.9304 Y96.7140
G01 X40.9480 Y96.6846
G01 X40.9627 Y96.6537
G01 X40.9742 Y96.6214
G01 X40.9825 Y96.5881
G01 X40.9876 Y96.5542
G01 X40.9892 Y96.5200
G00 Z5.0000
G00 X56.2293 Y128.2700
G01 F60.00
G01 Z-0.5000
G01 F120.00
G01 X56.2276 Y128.2358
G01 X56.2225 Y128.2019
G01 X56.2142 Y128.1686
G01 X56.2027 Y128.1363
G01 X56.1880 Y128.1054
G01 X56.1704 Y128.0760
G01 X56.1500 Y128.0484
G01 X56.1270 Y128.0230
G01 X56.1016 Y128.0000
G01 X56.0740 Y127.9796
G01 X56.0446 Y127.9620
G01 X56.0137 Y127.9473
G01 X55.9814 Y127.9358
G01 X55.9481 Y127.9275
G01 X55.9142 Y127.9224
G01 X55.8800 Y127.9208
G01 X55.8458 Y127.9224
G01 X55.8119 Y127.9275
G01 X55.7786 Y127.9358
G01 X55.7463 Y127.9473
G01 X55.7154 Y127.9620
G01 X55.6860 Y127.9796
G01 X55.6584 Y128.0000
G01 X55.6330 Y128.0230
G01 X55.6100 Y128.0484
G01 X55.5896 Y128.0760
G01 X55.5720 Y128.1054
G01 X55.5573 Y128.1363
G01 X55.5458 Y128.1686
G01 X55.5375 Y128.2019
G01 X55.5324 Y128.2358
G01 X55.5308 Y128.2700
G01 X55.5324 Y128.3042
G01 X55.5375 Y128.3381
G01 X55.5458 Y128.3714
G01 X55.5573 Y128.4037
G01 X55.5720 Y128.4346
G01 X55.5896 Y128.4640
G01 X55.6100 Y128.4916
G01 X55.6330 Y128.5170
G01 X55.6584 Y128.5400
G01 X55.6860 Y128.5604
G01 X55.7154 Y128.5780
G01 X55.7463 Y128.5927
G01 X55.7786 Y128.6042
G01 X55.8119 Y128.6125
G01 X55.8458 Y128.6176
G01 X55.8800 Y128.6193
G01 X55.9142 Y128.6176
G01 X55.9481 Y128.6125
G01 X55.9814 Y128.6042
G01 X56.0137 Y128.5927
G01 X56.0446 Y128.5780
G01 X56.0740 Y128.5604
G01 X56.1016 Y128.5400
G01 X56.1270 Y128.5170
G01 X56.1500 Y128.4916
G01 X56.1704 Y128.4640
G01 X56.1880 Y128.4346
G01 X56.2027 Y128.4037
G01 X56.2142 Y128.3714
G01 X56.2225 Y128.3381
G01 X56.2276 Y128.3042
G01 X56.2293 Y128.2700
G00 X56.2293 Y128.2700
G01 F60.00
G01 Z-1.0000
G01 F120.00
G01 X56.2276 Y128.2358
G01 X56.2225 Y128.2019
G01 X56.2142 Y128.1686
G01 X56.2027 Y128.1363
G01 X56.1880 Y128.1054
G01 X56.1704 Y128.0760
G01 X56.1500 Y128.0484
G01 X56.1270 Y128.0230
G01 X56.1016 Y128.0000
G01 X56.0740 Y127.9796
G01 X56.0446 Y127.9620
G01 X56.0137 Y127.9473
G01 X55.9814 Y127.9358
G01 X55.9481 Y127.9275
G01 X55.9142 Y127.9224
G01 X55.8800 Y127.9208
G01 X55.8458 Y127.9224
G01 X55.8119 Y127.9275
G01 X55.7786 Y127.9358
G01 X55.7463 Y127.9473
G01 X55.7154 Y127.9620
G01 X55.6860 Y127.9796
G01 X55.6584 Y128.0000
G01 X55.6330 Y128.0230
G01 X55.6100 Y128.0484
G01 X55.5896 Y128.0760
G01 X55.5720 Y128.1054
G01 X55.5573 Y128.1363
G01 X55.5458 Y128.1686
G01 X55.5375 Y128.2019
G01 X55.5324 Y128.2358
G01 X55.5308 Y128.2700
G01 X55.5324 Y128.3042
G01 X55.5375 Y128.3381
G01 X55.5458 Y128.3714
G01 X55.5573 Y128.4037
G01 X55.5720 Y128.4346
G01 X55.5896 Y128.4640
G01 X55.6100 Y128.4916
G01 X55.6330 Y128.5170
G01 X55.6584 Y128.5400
G01 X55.6860 Y128.5604
G01 X55.7154 Y128.5780
G01 X55.7463 Y128.5927
G01 X55.7786 Y128.6042
G01 X55.8119 Y128.6125
G01 X55.8458 Y128.6176
G01 X55.8800 Y128.6193
G01 X55.9142 Y128.6176
G01 X55.9481 Y128.6125
G01 X55.9814 Y128.6042
G01 X56.0137 Y128.5927
G01 X56.0446 Y128.5780
G01 X56.0740 Y128.5604
G01 X56.1016 Y128.5400
G01 X56.1270 Y128.5170
G01 X56.1500 Y128.4916
G01 X56.1704 Y128.4640
G01 X56.1880 Y128.4346
G01 X56.2027 Y128.4037
G01 X56.2142 Y128.3714
G01 X56.2225 Y128.3381
G01 X56.2276 Y128.3042
G01 X56.2293 Y128.2700
G00 X56.2293 Y128.2700
G01 F60.00
G01 Z-1.5000
G01 F120.00
G01 X56.2276 Y128.2358
G01 X56.2225 Y128.2019
G01 X56.2142 Y128.1686
G01 X56.2027 Y128.1363
G01 X56.1880 Y128.1054
G01 X56.1704 Y128.0760
G01 X56.1500 Y128.0484
G01 X56.1270 Y128.0230
G01 X56.1016 Y128.0000
G01 X56.0740 Y127.9796
G01 X56.0446 Y127.9620
G01 X56.0137 Y127.9473
G01 X55.9814 Y127.9358
G01 X55.9481 Y127.9275
G01 X55.9142 Y127.9224
G01 X55.8800 Y127.9208
G01 X55.8458 Y127.9224
G01 X55.8119 Y127.9275
G01 X55.7786 Y127.9358
G01 X55.7463 Y127.9473
G01 X55.7154 Y127.9620
G01 X55.6860 Y127.9796
G01 X55.6584 Y128.0000
G01 X55.6330 Y128.0230
G01 X55.6100 Y128.0484
G01 X55.5896 Y128.0760
G01 X55.5720 Y128.1054
G01 X55.5573 Y128.1363
G01 X55.5458 Y128.1686
G01 X55.5375 Y128.2019
G01 X55.5324 Y128.2358
G01 X55.5308 Y128.2700
G01 X55.5324 Y128.3042
G01 X55.5375 Y128.3381
G01 X55.5458 Y128.3714
G01 X55.5573 Y128.4037
G01 X55.5720 Y128.4346
G01 X55.5896 Y128.4640
G01 X55.6100 Y128.4916
G01 X55.6330 Y128.5170
G01 X55.6584 Y128.5400
G01 X55.6860 Y128.5604
G01 X55.7154 Y128.5780
G01 X55.7463 Y128.5927
G01 X55.7786 Y128.6042
G01 X55.8119 Y128.6125
G01 X55.8458 Y128.6176
G01 X55.8800 Y128.6193
G01 X55.9142 Y128.6176
G01 X55.9481 Y128.6125
G01 X55.9814 Y128.6042
G01 X56.0137 Y128.5927
G01 X56.0446 Y128.5780
G01 X56.0740 Y128.5604
G01 X56.1016 Y128.5400
G01 X56.1270 Y128.5170
G01 X56.1500 Y128.4916
G01 X56.1704 Y128.4640
G01 X56.1880 Y128.4346
G01 X56.2027 Y128.4037
G01 X56.2142 Y128.3714
G01 X56.2225 Y128.3381
G01 X56.2276 Y128.3042
G01 X56.2293 Y128.2700
G00 X56.2293 Y128.2700
G01 F60.00
G01 Z-1.6500
G01 F120.00
G01 X56.2276 Y128.2358
G01 X56.2225 Y128.2019
G01 X56.2142 Y128.1686
G01 X56.2027 Y128.1363
G01 X56.1880 Y128.1054
G01 X56.1704 Y128.0760
G01 X56.1500 Y128.0484
G01 X56.1270 Y128.0230
G01 X56.1016 Y128.0000
G01 X56.0740 Y127.9796
G01 X56.0446 Y127.9620
G01 X56.0137 Y127.9473
G01 X55.9814 Y127.9358
G01 X55.9481 Y127.9275
G01 X55.9142 Y127.9224
G01 X55.8800 Y127.9208
G01 X55.8458 Y127.9224
G01 X55.8119 Y127.9275
G01 X55.7786 Y127.9358
G01 X55.7463 Y127.9473
G01 X55.7154 Y127.9620
G01 X55.6860 Y127.9796
G01 X55.6584 Y128.0000
G01 X55.6330 Y128.0230
G01 X55.6100 Y128.0484
G01 X55.5896 Y128.0760
G01 X55.5720 Y128.1054
G01 X55.5573 Y128.1363
G01 X55.5458 Y128.1686
G01 X55.5375 Y128.2019
G01 X55.5324 Y128.2358
G01 X55.5308 Y128.2700
G01 X55.5324 Y128.3042
G01 X55.5375 Y128.3381
G01 X55.5458 Y128.3714
G01 X55.5573 Y128.4037
G01 X55.5720 Y128.4346
G01 X55.5896 Y128.4640
G01 X55.6100 Y128.4916
G01 X55.6330 Y128.5170
G01 X55.6584 Y128.5400
G01 X55.6860 Y128.5604
G01 X55.7154 Y128.5780
G01 X55.7463 Y128.5927
G01 X55.7786 Y128.6042
G01 X55.8119 Y128.6125
G01 X55.8458 Y128.6176
G01 X55.8800 Y128.6193
G01 X55.9142 Y128.6176
G01 X55.9481 Y128.6125
G01 X55.9814 Y128.6042
G01 X56.0137 Y128.5927
G01 X56.0446 Y128.5780
G01 X56.0740 Y128.5604
G01 X56.1016 Y128.5400
G01 X56.1270 Y128.5170
G01 X56.1500 Y128.4916
G01 X56.1704 Y128.4640
G01 X56.1880 Y128.4346
G01 X56.2027 Y128.4037
G01 X56.2142 Y128.3714
G01 X56.2225 Y128.3381
G01 X56.2276 Y128.3042
G01 X56.2293 Y128.2700
G00 Z5.0000
G00 X34.6392 Y142.2400
G01 F60.00
G01 Z-0.5000
G01 F120.00
G01 X34.6376 Y142.2058
G01 X34.6325 Y142.1719
G01 X34.6242 Y142.1386
G01 X34.6127 Y142.1063
G01 X34.5980 Y142.0754
G01 X34.5804 Y142.0460
G01 X34.5600 Y142.0184
G01 X34.5370 Y141.9930
G01 X34.5116 Y141.9700
G01 X34.4840 Y141.9496
G01 X34.4546 Y141.9320
G01 X34.4237 Y141.9173
G01 X34.3914 Y141.9058
G01 X34.3581 Y141.8975
G01 X34.3242 Y141.8924
G01 X34.2900 Y141.8907
G01 X34.2558 Y141.8924
G01 X34.2219 Y141.8975
G01 X34.1886 Y141.9058
G01 X34.1563 Y141.9173
G01 X34.1254 Y141.9320
G01 X34.0960 Y141.9496
G01 X34.0684 Y141.9700
G01 X34.0430 Y141.9930
G01 X34.0200 Y142.0184
G01 X33.9996 Y142.0460
G01 X33.9820 Y142.0754
G01 X33.9673 Y142.1063
G01 X33.9558 Y142.1386
G01 X33.9475 Y142.1719
G01 X33.9424 Y142.2058
G01 X33.9408 Y142.2400
G01 X33.9424 Y142.2742
G01 X33.9475 Y142.3081
G01 X33.9558 Y142.3414
G01 X33.9673 Y142.3737
G01 X33.9820 Y142.4046
G01 X33.9996 Y142.4340
G01 X34.0200 Y142.4616
G01 X34.0430 Y142.4870
G01 X34.0684 Y142.5100
G01 X34.0960 Y142.5304
G01 X34.1254 Y142.5480
G01 X34.1563 Y142.5627
G01 X34.1886 Y142.5742
G01 X34.2219 Y142.5825
G01 X34.2558 Y142.5876
G01 X34.2900 Y142.5893
G01 X34.3242 Y142.5876
G01 X34.3581 Y142.5825
G01 X34.3914 Y142.5742
G01 X34.4237 Y142.5627
G01 X34.4546 Y142.5480
G01 X34.4840 Y142.5304
G01 X34.5116 Y142.5100
G01 X34.5370 Y142.4870
G01 X34.5600 Y142.4616
G01 X34.5804 Y142.4340
G01 X34.5980 Y142.4046
G01 X34.6127 Y142.3737
G01 X34.6242 Y142.3414
G01 X34.6325 Y142.3081
G01 X34.6376 Y142.2742
G01 X34.6392 Y142.2400
G00 X34.6392 Y142.2400
G01 F60.00
G01 Z-1.0000
G01 F120.00
G01 X34.6376 Y142.2058
G01 X34.6325 Y142.1719
G01 X34.6242 Y142.1386
G01 X34.6127 Y142.1063
G01 X34.5980 Y142.0754
G01 X34.5804 Y142.0460
G01 X34.5600 Y142.0184
G01 X34.5370 Y141.9930
G01 X34.5116 Y141.9700
G01 X34.4840 Y141.9496
G01 X34.4546 Y141.9320
G01 X34.4237 Y141.9173
G01 X34.3914 Y141.9058
G01 X34.3581 Y141.8975
G01 X34.3242 Y141.8924
G01 X34.2900 Y141.8907
G01 X34.2558 Y141.8924
G01 X34.2219 Y141.8975
G01 X34.1886 Y141.9058
G01 X34.1563 Y141.9173
G01 X34.1254 Y141.9320
G01 X34.0960 Y141.9496
G01 X34.0684 Y141.9700
G01 X34.0430 Y141.9930
G01 X34.0200 Y142.0184
G01 X33.9996 Y142.0460
G01 X33.9820 Y142.0754
G01 X33.9673 Y142.1063
G01 X33.9558 Y142.1386
G01 X33.9475 Y142.1719
G01 X33.9424 Y142.2058
G01 X33.9408 Y142.2400
G01 X33.9424 Y142.2742
G01 X33.9475 Y142.3081
G01 X33.9558 Y142.3414
G01 X33.9673 Y142.3737
G01 X33.9820 Y142.4046
G01 X33.9996 Y142.4340
G01 X34.0200 Y142.4616
G01 X34.0430 Y142.4870
G01 X34.0684 Y142.5100
G01 X34.0960 Y142.5304
G01 X34.1254 Y142.5480
G01 X34.1563 Y142.5627
G01 X34.1886 Y142.5742
G01 X34.2219 Y142.5825
G01 X34.2558 Y142.5876
G01 X34.2900 Y142.5893
G01 X34.3242 Y142.5876
G01 X34.3581 Y142.5825
G01 X34.3914 Y142.5742
G01 X34.4237 Y142.5627
G01 X34.4546 Y142.5480
G01 X34.4840 Y142.5304
G01 X34.5116 Y142.5100
G01 X34.5370 Y142.4870
G01 X34.5600 Y142.4616
G01 X34.5804 Y142.4340
G01 X34.5980 Y142.4046
G01 X34.6127 Y142.3737
G01 X34.6242 Y142.3414
G01 X34.6325 Y142.3081
G01 X34.6376 Y142.2742
G01 X34.6392 Y142.2400
G00 X34.6392 Y142.2400
G01 F60.00
G01 Z-1.5000
G01 F120.00
G01 X34.6376 Y142.2058
G01 X34.6325 Y142.1719
G01 X34.6242 Y142.1386
G01 X34.6127 Y142.1063
G01 X34.5980 Y142.0754
G01 X34.5804 Y142.0460
G01 X34.5600 Y142.0184
G01 X34.5370 Y141.9930
G01 X34.5116 Y141.9700
G01 X34.4840 Y141.9496
G01 X34.4546 Y141.9320
G01 X34.4237 Y141.9173
G01 X34.3914 Y141.9058
G01 X34.3581 Y141.8975
G01 X34.3242 Y141.8924
G01 X34.2900 Y141.8907
G01 X34.2558 Y141.8924
G01 X34.2219 Y141.8975
G01 X34.1886 Y141.9058
G01 X34.1563 Y141.9173
G01 X34.1254 Y141.9320
G01 X34.0960 Y141.9496
G01 X34.0684 Y141.9700
G01 X34.0430 Y141.9930
G01 X34.0200 Y142.0184
G01 X33.9996 Y142.0460
G01 X33.9820 Y142.0754
G01 X33.9673 Y142.1063
G01 X33.9558 Y142.1386
G01 X33.9475 Y142.1719
G01 X33.9424 Y142.2058
G01 X33.9408 Y142.2400
G01 X33.9424 Y142.2742
G01 X33.9475 Y142.3081
G01 X33.9558 Y142.3414
G01 X33.9673 Y142.3737
G01 X33.9820 Y142.4046
G01 X33.9996 Y142.4340
G01 X34.0200 Y142.4616
G01 X34.0430 Y142.4870
G01 X34.0684 Y142.5100
G01 X34.0960 Y142.5304
G01 X34.1254 Y142.5480
G01 X34.1563 Y142.5627
G01 X34.1886 Y142.5742
G01 X34.2219 Y142.5825
G01 X34.2558 Y142.5876
G01 X34.2900 Y142.5893
G01 X34.3242 Y142.5876
G01 X34.3581 Y142.5825
G01 X34.3914 Y142.5742
G01 X34.4237 Y142.5627
G01 X34.4546 Y142.5480
G01 X34.4840 Y142.5304
G01 X34.5116 Y142.5100
G01 X34.5370 Y142.4870
G01 X34.5600 Y142.4616
G01 X34.5804 Y142.4340
G01 X34.5980 Y142.4046
G01 X34.6127 Y142.3737
G01 X34.6242 Y142.3414
G01 X34.6325 Y142.3081
G01 X34.6376 Y142.2742
G01 X34.6392 Y142.2400
G00 X34.6392 Y142.2400
G01 F60.00
G01 Z-1.6500
G01 F120.00
G01 X34.6376 Y142.2058
G01 X34.6325 Y142.1719
G01 X34.6242 Y142.1386
G01 X34.6127 Y142.1063
G01 X34.5980 Y142.0754
G01 X34.5804 Y142.0460
G01 X34.5600 Y142.0184
G01 X34.5370 Y141.9930
G01 X34.5116 Y141.9700
G01 X34.4840 Y141.9496
G01 X34.4546 Y141.9320
G01 X34.4237 Y141.9173
G01 X34.3914 Y141.9058
G01 X34.3581 Y141.8975
G01 X34.3242 Y141.8924
G01 X34.2900 Y141.8907
G01 X34.2558 Y141.8924
G01 X34.2219 Y141.8975
G01 X34.1886 Y141.9058
G01 X34.1563 Y141.9173
G01 X34.1254 Y141.9320
G01 X34.0960 Y141.9496
G01 X34.0684 Y141.9700
G01 X34.0430 Y141.9930
G01 X34.0200 Y142.0184
G01 X33.9996 Y142.0460
G01 X33.9820 Y142.0754
G01 X33.9673 Y142.1063
G01 X33.9558 Y142.1386
G01 X33.9475 Y142.1719
G01 X33.9424 Y142.2058
G01 X33.9408 Y142.2400
G01 X33.9424 Y142.2742
G01 X33.9475 Y142.3081
G01 X33.9558 Y142.3414
G01 X33.9673 Y142.3737
G01 X33.9820 Y142.4046
G01 X33.9996 Y142.4340
G01 X34.0200 Y142.4616
G01 X34.0430 Y142.4870
G01 X34.0684 Y142.5100
G01 X34.0960 Y142.5304
G01 X34.1254 Y142.5480
G01 X34.1563 Y142.5627
G01 X34.1886 Y142.5742
G01 X34.2219 Y142.5825
G01 X34.2558 Y142.5876
G01 X34.2900 Y142.5893
G01 X34.3242 Y142.5876
G01 X34.3581 Y142.5825
G01 X34.3914 Y142.5742
G01 X34.4237 Y142.5627
G01 X34.4546 Y142.5480
G01 X34.4840 Y142.5304
G01 X34.5116 Y142.5100
G01 X34.5370 Y142.4870
G01 X34.5600 Y142.4616
G01 X34.5804 Y142.4340
G01 X34.5980 Y142.4046
G01 X34.6127 Y142.3737
G01 X34.6242 Y142.3414
G01 X34.6325 Y142.3081
G01 X34.6376 Y142.2742
G01 X34.6392 Y142.2400
G00 Z5.0000
G00 X13.0492 Y128.2700
G01 F60.00
G01 Z-0.5000
G01 F120.00
G01 X13.0476 Y128.2358
G01 X13.0425 Y128.2019
G01 X13.0342 Y128.1686
G01 X13.0227 Y128.1363
G01 X13.0080 Y128.1054
G01 X12.9904 Y128.0760
G01 X12.9700 Y128.0484
G01 X12.9470 Y128.0230
G01 X12.9216 Y128.0000
G01 X12.8940 Y127.9796
G01 X12.8646 Y127.9620
G01 X12.8337 Y127.9473
G01 X12.8014 Y127.9358
G01 X12.7681 Y127.9275
G01 X12.7342 Y127.9224
G01 X12.7000 Y127.9208
G01 X12.6658 Y127.9224
G01 X12.6319 Y127.9275
G01 X12.5986 Y127.9358
G01 X12.5663 Y127.9473
G01 X12.5354 Y127.9620
G01 X12.5060 Y127.9796
G01 X12.4784 Y128.0000
G01 X12.4530 Y128.0230
G01 X12.4300 Y128.0484
G01 X12.4096 Y128.0760
G01 X12.3920 Y128.1054
G01 X12.3773 Y128.1363
G01 X12.3658 Y128.1686
G01 X12.3575 Y128.2019
G01 X12.3524 Y128.2358
G01 X12.3507 Y128.2700
G01 X12.3524 Y128.3042
G01 X12.3575 Y128.3381
G01 X12.3658 Y128.3714
G01 X12.3773 Y128.4037
G01 X12.3920 Y128.4346
G01 X12.4096 Y128.4640
G01 X12.4300 Y128.4916
G01 X12.4530 Y128.5170
G01 X12.4784 Y128.5400
G01 X12.5060 Y128.5604
G01 X12.5354 Y128.5780
G01 X12.5663 Y128.5927
G01 X12.5986 Y128.6042
G01 X12.6319 Y128.6125
G01 X12.6658 Y128.6176
G01 X12.7000 Y128.6193
G01 X12.7342 Y128.6176
G01 X12.7681 Y128.6125
G01 X12.8014 Y128.6042
G01 X12.8337 Y128.5927
G01 X12.8646 Y128.5780
G01 X12.8940 Y128.5604
G01 X12.9216 Y128.5400
G01 X12.9470 Y128.5170
G01 X12.9700 Y128.4916
G01 X12.9904 Y128.4640
G01 X13.0080 Y128.4346
G01 X13.0227 Y128.4037
G01 X13.0342 Y128.3714
G01 X13.0425 Y128.3381
G01 X13.0476 Y128.3042
G01 X13.0492 Y128.2700
G00 X13.0492 Y128.2700
G01 F60.00
G01 Z-1.0000
G01 F120.00
G01 X13.0476 Y128.2358
G01 X13.0425 Y128.2019
G01 X13.0342 Y128.1686
G01 X13.0227 Y128.1363
G01 X13.0080 Y128.1054
G01 X12.9904 Y128.0760
G01 X12.9700 Y128.0484
G01 X12.9470 Y128.0230
G01 X12.9216 Y128.0000
G01 X12.8940 Y127.9796
G01 X12.8646 Y127.9620
G01 X12.8337 Y127.9473
G01 X12.8014 Y127.9358
G01 X12.7681 Y127.9275
G01 X12.7342 Y127.9224
G01 X12.7000 Y127.9208
G01 X12.6658 Y127.9224
G01 X12.6319 Y127.9275
G01 X12.5986 Y127.9358
G01 X12.5663 Y127.9473
G01 X12.5354 Y127.9620
G01 X12.5060 Y127.9796
G01 X12.4784 Y128.0000
G01 X12.4530 Y128.0230
G01 X12.4300 Y128.0484
G01 X12.4096 Y128.0760
G01 X12.3920 Y128.1054
G01 X12.3773 Y128.1363
G01 X12.3658 Y128.1686
G01 X12.3575 Y128.2019
G01 X12.3524 Y128.2358
G01 X12.3507 Y128.2700
G01 X12.3524 Y128.3042
G01 X12.3575 Y128.3381
G01 X12.3658 Y128.3714
G01 X12.3773 Y128.4037
G01 X12.3920 Y128.4346
G01 X12.4096 Y128.4640
G01 X12.4300 Y128.4916
G01 X12.4530 Y128.5170
G01 X12.4784 Y128.5400
G01 X12.5060 Y128.5604
G01 X12.5354 Y128.5780
G01 X12.5663 Y128.5927
G01 X12.5986 Y128.6042
G01 X12.6319 Y128.6125
G01 X12.6658 Y128.6176
G01 X12.7000 Y128.6193
G01 X12.7342 Y128.6176
G01 X12.7681 Y128.6125
G01 X12.8014 Y128.6042
G01 X12.8337 Y128.5927
G01 X12.8646 Y128.5780
G01 X12.8940 Y128.5604
G01 X12.9216 Y128.5400
G01 X12.9470 Y128.5170
G01 X12.9700 Y128.4916
G01 X12.9904 Y128.4640
G01 X13.0080 Y128.4346
G01 X13.0227 Y128.4037
G01 X13.0342 Y128.3714
G01 X13.0425 Y128.3381
G01 X13.0476 Y128.3042
G01 X13.0492 Y128.2700
G00 X13.0492 Y128.2700
G01 F60.00
G01 Z-1.5000
G01 F120.00
G01 X13.0476 Y128.2358
G01 X13.0425 Y128.2019
G01 X13.0342 Y128.1686
G01 X13.0227 Y128.1363
G01 X13.0080 Y128.1054
G01 X12.9904 Y128.0760
G01 X12.9700 Y128.0484
G01 X12.9470 Y128.0230
G01 X12.9216 Y128.0000
G01 X12.8940 Y127.9796
G01 X12.8646 Y127.9620
G01 X12.8337 Y127.9473
G01 X12.8014 Y127.9358
G01 X12.7681 Y127.9275
G01 X12.7342 Y127.9224
G01 X12.7000 Y127.9208
G01 X12.6658 Y127.9224
G01 X12.6319 Y127.9275
G01 X12.5986 Y127.9358
G01 X12.5663 Y127.9473
G01 X12.5354 Y127.9620
G01 X12.5060 Y127.9796
G01 X12.4784 Y128.0000
G01 X12.4530 Y128.0230
G01 X12.4300 Y128.0484
G01 X12.4096 Y128.0760
G01 X12.3920 Y128.1054
G01 X12.3773 Y128.1363
G01 X12.3658 Y128.1686
G01 X12.3575 Y128.2019
G01 X12.3524 Y128.2358
G01 X12.3507 Y128.2700
G01 X12.3524 Y128.3042
G01 X12.3575 Y128.3381
G01 X12.3658 Y128.3714
G01 X12.3773 Y128.4037
G01 X12.3920 Y128.4346
G01 X12.4096 Y128.4640
G01 X12.4300 Y128.4916
G01 X12.4530 Y128.5170
G01 X12.4784 Y128.5400
G01 X12.5060 Y128.5604
G01 X12.5354 Y128.5780
G01 X12.5663 Y128.5927
G01 X12.5986 Y128.6042
G01 X12.6319 Y128.6125
G01 X12.6658 Y128.6176
G01 X12.7000 Y128.6193
G01 X12.7342 Y128.6176
G01 X12.7681 Y128.6125
G01 X12.8014 Y128.6042
G01 X12.8337 Y128.5927
G01 X12.8646 Y128.5780
G01 X12.8940 Y128.5604
G01 X12.9216 Y128.5400
G01 X12.9470 Y128.5170
G01 X12.9700 Y128.4916
G01 X12.9904 Y128.4640
G01 X13.0080 Y128.4346
G01 X13.0227 Y128.4037
G01 X13.0342 Y128.3714
G01 X13.0425 Y128.3381
G01 X13.0476 Y128.3042
G01 X13.0492 Y128.2700
G00 X13.0492 Y128.2700
G01 F60.00
G01 Z-1.6500
G01 F120.00
G01 X13.0476 Y128.2358
G01 X13.0425 Y128.2019
G01 X13.0342 Y128.1686
G01 X13.0227 Y128.1363
G01 X13.0080 Y128.1054
G01 X12.9904 Y128.0760
G01 X12.9700 Y128.0484
G01 X12.9470 Y128.0230
G01 X12.9216 Y128.0000
G01 X12.8940 Y127.9796
G01 X12.8646 Y127.9620
G01 X12.8337 Y127.9473
G01 X12.8014 Y127.9358
G01 X12.7681 Y127.9275
G01 X12.7342 Y127.9224
G01 X12.7000 Y127.9208
G01 X12.6658 Y127.9224
G01 X12.6319 Y127.9275
G01 X12.5986 Y127.9358
G01 X12.5663 Y127.9473
G01 X12.5354 Y127.9620
G01 X12.5060 Y127.9796
G01 X12.4784 Y128.0000
G01 X12.4530 Y128.0230
G01 X12.4300 Y128.0484
G01 X12.4096 Y128.0760
G01 X12.3920 Y128.1054
G01 X12.3773 Y128.1363
G01 X12.3658 Y128.1686
G01 X12.3575 Y128.2019
G01 X12.3524 Y128.2358
G01 X12.3507 Y128.2700
G01 X12.3524 Y128.3042
G01 X12.3575 Y128.3381
G01 X12.3658 Y128.3714
G01 X12.3773 Y128.4037
G01 X12.3920 Y128.4346
G01 X12.4096 Y128.4640
G01 X12.4300 Y128.4916
G01 X12.4530 Y128.5170
G01 X12.4784 Y128.5400
G01 X12.5060 Y128.5604
G01 X12.5354 Y128.5780
G01 X12.5663 Y128.5927
G01 X12.5986 Y128.6042
G01 X12.6319 Y128.6125
G01 X12.6658 Y128.6176
G01 X12.7000 Y128.6193
G01 X12.7342 Y128.6176
G01 X12.7681 Y128.6125
G01 X12.8014 Y128.6042
G01 X12.8337 Y128.5927
G01 X12.8646 Y128.5780
G01 X12.8940 Y128.5604
G01 X12.9216 Y128.5400
G01 X12.9470 Y128.5170
G01 X12.9700 Y128.4916
G01 X12.9904 Y128.4640
G01 X13.0080 Y128.4346
G01 X13.0227 Y128.4037
G01 X13.0342 Y128.3714
G01 X13.0425 Y128.3381
G01 X13.0476 Y128.3042
G01 X13.0492 Y128.2700
G00 Z5.0000
M05
G00 Z5.0000
G00 Z30.00


