(G-CODE GENERATED BY FLATCAM v8.994 - www.flatcam.org - Version Date: 2020/11/7)

(Name: copper_top.gbr_1_noncopper_mt_paint_cnc)
(Type: G-code from Geometry)
(Units: MM)

(Created on Wednesday, 09 March 2022 at 14:27)

(This preprocessor is the default preprocessor used by FlatCAM.)
(It is made to work with MACH3 compatible motion controllers.)

(TOOL DIAMETER: 1.5875 mm)
(Feedrate_XY: 400.0 mm/min)
(Feedrate_Z: 190.0 mm/min)
(Feedrate rapids 400.0 mm/min)

(Z_Cut: -0.22 mm)
(Z_Move: 5.0 mm)
(Z Start: None mm)
(Z End: 30.0 mm)
(X,Y End: None mm)
(Steps per circle: 64)
(Preprocessor Geometry: default)

(X range:    4.1755 ...  115.2041  mm)
(Y range:    7.9859 ...  162.1941  mm)

(Spindle Speed: 22250.0 RPM)
G21
G90
G94

G01 F400.00

M5
G00 Z15.0000
G00 X0.0000 Y0.0000
T2
M6    
(MSG, Change to Tool Dia = 1.5875)
M0
G00 Z15.0000

M03 S22250.0
G01 F400.00
G00 X10.9224 Y15.7952
G01 F190.00
G01 Z-0.2200
G01 F400.00
G01 X11.9848 Y14.7327
G01 X10.9224 Y14.7327
G01 X10.9224 Y15.7952
G01 X9.5730 Y19.0529
G01 X15.2425 Y13.3834
G01 X9.5730 Y13.3834
G01 X9.5730 Y19.0529
G01 X8.2236 Y22.3105
G01 X16.5371 Y13.9971
G01 X16.5783 Y13.9563
G01 X16.6232 Y13.9130
G01 X16.6679 Y13.8708
G01 X16.7140 Y13.8283
G01 X16.7628 Y13.7846
G01 X16.8159 Y13.7383
G01 X16.8902 Y13.6749
G01 X16.9593 Y13.6177
G01 X17.0202 Y13.5691
G01 X17.0706 Y13.5301
G01 X17.1238 Y13.4900
G01 X17.1893 Y13.4420
G01 X17.2459 Y13.4018
G01 X17.2985 Y13.3656
G01 X17.3489 Y13.3317
G01 X17.3981 Y13.2993
G01 X17.4621 Y13.2579
G01 X17.5221 Y13.2203
G01 X17.5800 Y13.1852
G01 X17.6447 Y13.1472
G01 X17.7080 Y13.1112
G01 X17.7896 Y13.0666
G01 X17.8480 Y13.0358
G01 X17.9121 Y13.0033
G01 X18.0013 Y12.9593
G01 X18.0638 Y12.9295
G01 X18.1215 Y12.9029
G01 X18.1847 Y12.8748
G01 X18.2645 Y12.8409
G01 X18.3357 Y12.8118
G01 X18.4042 Y12.7851
G01 X18.4676 Y12.7614
G01 X18.5369 Y12.7366
G01 X18.6264 Y12.7059
G01 X18.6994 Y12.6818
G01 X18.7669 Y12.6607
G01 X18.8407 Y12.6388
G01 X18.9181 Y12.6172
G01 X19.0040 Y12.5947
G01 X19.0889 Y12.5740
G01 X19.1770 Y12.5543
G01 X19.2813 Y12.5325
G01 X19.3687 Y12.5157
G01 X19.4620 Y12.4995
G01 X19.5559 Y12.4851
G01 X19.6392 Y12.4738
G01 X19.7375 Y12.4622
G01 X19.8301 Y12.4532
G01 X19.9391 Y12.4442
G01 X20.0190 Y12.4389
G01 X20.1110 Y12.4343
G01 X20.1873 Y12.4319
G01 X20.2814 Y12.4304
G01 X43.5040 Y12.4302
G01 X43.9002 Y12.0340
G01 X8.2236 Y12.0340
G01 X8.2236 Y22.3105
G01 X6.8742 Y25.5682
G01 X17.4912 Y14.9512
G01 X17.5501 Y14.8937
G01 X17.5863 Y14.8594
G01 X17.6209 Y14.8276
G01 X17.6579 Y14.7943
G01 X17.6933 Y14.7634
G01 X17.7423 Y14.7214
G01 X17.7821 Y14.6880
G01 X17.8248 Y14.6532
G01 X17.8656 Y14.6210
G01 X17.9024 Y14.5928
G01 X17.9419 Y14.5632
G01 X17.9794 Y14.5358
G01 X18.0219 Y14.5057
G01 X18.0530 Y14.4843
G01 X18.0963 Y14.4552
G01 X18.1568 Y14.4155
G01 X18.1996 Y14.3880
G01 X18.2599 Y14.3509
G01 X18.2916 Y14.3320
G01 X18.3335 Y14.3077
G01 X18.3833 Y14.2797
G01 X18.4306 Y14.2540
G01 X18.4652 Y14.2357
G01 X18.5133 Y14.2113
G01 X18.5770 Y14.1799
G01 X18.6237 Y14.1573
G01 X18.6578 Y14.1414
G01 X18.7051 Y14.1201
G01 X18.7475 Y14.1016
G01 X18.7933 Y14.0824
G01 X18.8389 Y14.0638
G01 X18.8904 Y14.0438
G01 X18.9279 Y14.0298
G01 X18.9799 Y14.0112
G01 X19.0421 Y13.9898
G01 X19.1151 Y13.9655
G01 X19.1919 Y13.9420
G01 X19.2692 Y13.9201
G01 X19.3475 Y13.8997
G01 X19.3939 Y13.8885
G01 X19.4276 Y13.8808
G01 X19.5438 Y13.8561
G01 X19.6144 Y13.8425
G01 X19.6822 Y13.8308
G01 X19.7595 Y13.8191
G01 X19.8251 Y13.8104
G01 X19.8786 Y13.8041
G01 X19.9176 Y13.8002
G01 X20.0244 Y13.7910
G01 X20.0776 Y13.7872
G01 X20.1163 Y13.7849
G01 X20.1697 Y13.7824
G01 X20.2084 Y13.7812
G01 X20.2919 Y13.7797
G01 X44.0629 Y13.7796
G01 X47.1579 Y10.6846
G01 X6.8742 Y10.6846
G01 X6.8742 Y25.5682
G00 Z5.0000
G00 X7.5886 Y55.8990
G01 F190.00
G01 Z-0.2200
G01 F400.00
G01 X7.5883 Y29.2100
G01 X7.5892 Y29.1645
G01 X7.5902 Y29.1444
G01 X7.5955 Y29.0755
G01 X7.5975 Y29.0563
G01 X7.6019 Y29.0228
G01 X7.6051 Y29.0021
G01 X7.6088 Y28.9814
G01 X7.6223 Y28.9156
G01 X7.6269 Y28.8957
G01 X7.6320 Y28.8759
G01 X7.6416 Y28.8416
G01 X7.6479 Y28.8214
G01 X7.6588 Y28.7903
G01 X7.6687 Y28.7604
G01 X7.6826 Y28.7237
G01 X7.6966 Y28.6902
G01 X7.7056 Y28.6704
G01 X7.7358 Y28.6086
G01 X7.7543 Y28.5741
G01 X7.7716 Y28.5442
G01 X7.7821 Y28.5271
G01 X7.8200 Y28.4691
G01 X7.8317 Y28.4521
G01 X7.8439 Y28.4354
G01 X7.8652 Y28.4076
G01 X7.8781 Y28.3916
G01 X7.8979 Y28.3687
G01 X7.9194 Y28.3430
G01 X7.9333 Y28.3273
G01 X7.9476 Y28.3120
G01 X7.9695 Y28.2895
G01 X19.3995 Y16.8595
G01 X19.4210 Y16.8386
G01 X19.4482 Y16.8137
G01 X19.4995 Y16.7697
G01 X19.5154 Y16.7568
G01 X19.5432 Y16.7356
G01 X19.5597 Y16.7235
G01 X19.5764 Y16.7118
G01 X19.6317 Y16.6755
G01 X19.6486 Y16.6649
G01 X19.6784 Y16.6474
G01 X19.6969 Y16.6371
G01 X19.7156 Y16.6274
G01 X19.7749 Y16.5982
G01 X19.7934 Y16.5896
G01 X19.8254 Y16.5759
G01 X19.8455 Y16.5679
G01 X19.8658 Y16.5603
G01 X19.8966 Y16.5500
G01 X19.9281 Y16.5389
G01 X19.9497 Y16.5321
G01 X19.9856 Y16.5221
G01 X20.0219 Y16.5132
G01 X20.0858 Y16.4998
G01 X20.1057 Y16.4961
G01 X20.1401 Y16.4909
G01 X20.1610 Y16.4881
G01 X20.1821 Y16.4859
G01 X20.2482 Y16.4805
G01 X20.2691 Y16.4793
G01 X20.2901 Y16.4787
G01 X20.3200 Y16.4783
G01 X45.1808 Y16.4783
G01 X49.8795 Y11.7795
G01 X49.9145 Y11.7460
G01 X49.9282 Y11.7337
G01 X49.9795 Y11.6897
G01 X49.9954 Y11.6768
G01 X50.0115 Y11.6644
G01 X50.0397 Y11.6435
G01 X50.0564 Y11.6318
G01 X50.1117 Y11.5955
G01 X50.1286 Y11.5849
G01 X50.1584 Y11.5674
G01 X50.1769 Y11.5571
G01 X50.1956 Y11.5474
G01 X50.2549 Y11.5182
G01 X50.2734 Y11.5096
G01 X50.2920 Y11.5015
G01 X50.3255 Y11.4879
G01 X50.3458 Y11.4803
G01 X50.3766 Y11.4700
G01 X50.4081 Y11.4589
G01 X50.4297 Y11.4521
G01 X50.4515 Y11.4459
G01 X50.4837 Y11.4374
G01 X50.5019 Y11.4332
G01 X50.5658 Y11.4198
G01 X50.5857 Y11.4161
G01 X50.6201 Y11.4109
G01 X50.6410 Y11.4081
G01 X50.6621 Y11.4059
G01 X50.7282 Y11.4005
G01 X50.7491 Y11.3993
G01 X50.7701 Y11.3987
G01 X50.8000 Y11.3983
G01 X96.5200 Y11.3983
G01 X96.5685 Y11.3993
G01 X96.5871 Y11.4003
G01 X96.6545 Y11.4055
G01 X96.6737 Y11.4075
G01 X96.7072 Y11.4119
G01 X96.7279 Y11.4151
G01 X96.7486 Y11.4188
G01 X96.8144 Y11.4323
G01 X96.8343 Y11.4369
G01 X96.8541 Y11.4420
G01 X96.8884 Y11.4516
G01 X96.9086 Y11.4579
G01 X96.9397 Y11.4688
G01 X96.9696 Y11.4787
G01 X97.0063 Y11.4926
G01 X97.0398 Y11.5066
G01 X97.0596 Y11.5156
G01 X97.1214 Y11.5458
G01 X97.1387 Y11.5549
G01 X97.1686 Y11.5715
G01 X97.1858 Y11.5816
G01 X97.2029 Y11.5921
G01 X97.2609 Y11.6300
G01 X97.2779 Y11.6417
G01 X97.3062 Y11.6626
G01 X97.3224 Y11.6752
G01 X97.3384 Y11.6881
G01 X97.3613 Y11.7079
G01 X97.3870 Y11.7294
G01 X97.4027 Y11.7433
G01 X97.4405 Y11.7795
G01 X100.8990 Y15.2380
G01 X100.9325 Y15.2730
G01 X100.9448 Y15.2867
G01 X100.9888 Y15.3380
G01 X101.0017 Y15.3539
G01 X101.0141 Y15.3700
G01 X101.0350 Y15.3982
G01 X101.0467 Y15.4149
G01 X101.0830 Y15.4702
G01 X101.0936 Y15.4871
G01 X101.1111 Y15.5169
G01 X101.1214 Y15.5354
G01 X101.1311 Y15.5541
G01 X101.1603 Y15.6134
G01 X101.1689 Y15.6319
G01 X101.1826 Y15.6639
G01 X101.1906 Y15.6840
G01 X101.1982 Y15.7043
G01 X101.2085 Y15.7351
G01 X101.2190 Y15.7650
G01 X101.2254 Y15.7848
G01 X101.2351 Y15.8190
G01 X101.2406 Y15.8398
G01 X101.2455 Y15.8607
G01 X101.2519 Y15.8931
G01 X101.2587 Y15.9243
G01 X101.2624 Y15.9442
G01 X101.2655 Y15.9641
G01 X101.4574 Y16.5546
G01 X101.7944 Y17.0185
G01 X102.2584 Y17.3557
G01 X102.8490 Y17.5475
G01 X102.8831 Y17.5533
G01 X102.9489 Y17.5668
G01 X102.9688 Y17.5714
G01 X103.0026 Y17.5803
G01 X103.0229 Y17.5861
G01 X103.0431 Y17.5924
G01 X103.0742 Y17.6033
G01 X103.1041 Y17.6132
G01 X103.1225 Y17.6199
G01 X103.1543 Y17.6326
G01 X103.1743 Y17.6411
G01 X103.1941 Y17.6501
G01 X103.2559 Y17.6803
G01 X103.2732 Y17.6894
G01 X103.3031 Y17.7060
G01 X103.3203 Y17.7161
G01 X103.3374 Y17.7266
G01 X103.3954 Y17.7645
G01 X103.4124 Y17.7762
G01 X103.4407 Y17.7971
G01 X103.4569 Y17.8097
G01 X103.4729 Y17.8226
G01 X103.4958 Y17.8424
G01 X103.5215 Y17.8639
G01 X103.5372 Y17.8778
G01 X103.5750 Y17.9140
G01 X111.4105 Y25.7495
G01 X111.4314 Y25.7710
G01 X111.4563 Y25.7982
G01 X111.5003 Y25.8495
G01 X111.5132 Y25.8654
G01 X111.5344 Y25.8932
G01 X111.5465 Y25.9097
G01 X111.5582 Y25.9264
G01 X111.5945 Y25.9817
G01 X111.6051 Y25.9986
G01 X111.6226 Y26.0284
G01 X111.6329 Y26.0469
G01 X111.6426 Y26.0656
G01 X111.6718 Y26.1249
G01 X111.6804 Y26.1434
G01 X111.6941 Y26.1754
G01 X111.7021 Y26.1955
G01 X111.7097 Y26.2158
G01 X111.7200 Y26.2466
G01 X111.7305 Y26.2765
G01 X111.7369 Y26.2963
G01 X111.7427 Y26.3164
G01 X111.7521 Y26.3513
G01 X111.7570 Y26.3722
G01 X111.7634 Y26.4046
G01 X111.7702 Y26.4358
G01 X111.7739 Y26.4557
G01 X111.7791 Y26.4901
G01 X111.7819 Y26.5110
G01 X111.7841 Y26.5321
G01 X111.7895 Y26.5982
G01 X111.7907 Y26.6191
G01 X111.7917 Y26.6700
G01 X111.7917 Y146.0500
G01 X111.7908 Y146.0955
G01 X111.7898 Y146.1156
G01 X111.7845 Y146.1845
G01 X111.7825 Y146.2037
G01 X111.7781 Y146.2372
G01 X111.7749 Y146.2579
G01 X111.7712 Y146.2786
G01 X111.7577 Y146.3444
G01 X111.7531 Y146.3643
G01 X111.7442 Y146.3981
G01 X111.7384 Y146.4184
G01 X111.7321 Y146.4386
G01 X111.7212 Y146.4697
G01 X111.7113 Y146.4996
G01 X111.7046 Y146.5180
G01 X111.6919 Y146.5498
G01 X111.6834 Y146.5698
G01 X111.6744 Y146.5896
G01 X111.6442 Y146.6514
G01 X111.6351 Y146.6687
G01 X111.6185 Y146.6986
G01 X111.6084 Y146.7158
G01 X111.5979 Y146.7329
G01 X111.5600 Y146.7909
G01 X111.5483 Y146.8079
G01 X111.5361 Y146.8246
G01 X111.5148 Y146.8524
G01 X111.5019 Y146.8684
G01 X111.4821 Y146.8913
G01 X111.4606 Y146.9170
G01 X111.4467 Y146.9327
G01 X111.4234 Y146.9572
G01 X99.9805 Y158.4005
G01 X99.9590 Y158.4214
G01 X99.9318 Y158.4463
G01 X99.8805 Y158.4903
G01 X99.8646 Y158.5032
G01 X99.8368 Y158.5244
G01 X99.8203 Y158.5365
G01 X99.8036 Y158.5482
G01 X99.7483 Y158.5845
G01 X99.7314 Y158.5951
G01 X99.7016 Y158.6126
G01 X99.6831 Y158.6229
G01 X99.6644 Y158.6326
G01 X99.6051 Y158.6618
G01 X99.5866 Y158.6704
G01 X99.5546 Y158.6841
G01 X99.5345 Y158.6921
G01 X99.5142 Y158.6997
G01 X99.4834 Y158.7100
G01 X99.4535 Y158.7205
G01 X99.4337 Y158.7269
G01 X99.4136 Y158.7327
G01 X99.3787 Y158.7421
G01 X99.3578 Y158.7470
G01 X99.3254 Y158.7534
G01 X99.2942 Y158.7602
G01 X99.2743 Y158.7639
G01 X99.2543 Y158.7670
G01 X99.2190 Y158.7719
G01 X99.1979 Y158.7741
G01 X99.1318 Y158.7795
G01 X99.1109 Y158.7807
G01 X99.0899 Y158.7813
G01 X99.0600 Y158.7817
G01 X67.3100 Y158.7817
G01 X67.2645 Y158.7808
G01 X67.2444 Y158.7798
G01 X67.1755 Y158.7745
G01 X67.1563 Y158.7725
G01 X67.1228 Y158.7681
G01 X67.1021 Y158.7649
G01 X67.0814 Y158.7612
G01 X67.0156 Y158.7477
G01 X66.9957 Y158.7431
G01 X66.9759 Y158.7380
G01 X66.9416 Y158.7284
G01 X66.9214 Y158.7221
G01 X66.8903 Y158.7112
G01 X66.8604 Y158.7013
G01 X66.8237 Y158.6874
G01 X66.7902 Y158.6734
G01 X66.7704 Y158.6644
G01 X66.7086 Y158.6342
G01 X66.6913 Y158.6251
G01 X66.6614 Y158.6085
G01 X66.6442 Y158.5984
G01 X66.6271 Y158.5879
G01 X66.5691 Y158.5500
G01 X66.5521 Y158.5383
G01 X66.5238 Y158.5174
G01 X66.5076 Y158.5048
G01 X66.4916 Y158.4919
G01 X66.4687 Y158.4721
G01 X66.4430 Y158.4506
G01 X66.4273 Y158.4367
G01 X66.3895 Y158.4005
G01 X63.8495 Y155.8605
G01 X63.8286 Y155.8390
G01 X63.8037 Y155.8118
G01 X63.7597 Y155.7605
G01 X63.7468 Y155.7446
G01 X63.7256 Y155.7168
G01 X63.7135 Y155.7003
G01 X63.7018 Y155.6836
G01 X63.6655 Y155.6283
G01 X63.6549 Y155.6114
G01 X63.6374 Y155.5816
G01 X63.6271 Y155.5631
G01 X63.6174 Y155.5444
G01 X63.5882 Y155.4851
G01 X63.5796 Y155.4666
G01 X63.5659 Y155.4346
G01 X63.5579 Y155.4145
G01 X63.5503 Y155.3942
G01 X63.5400 Y155.3634
G01 X63.5289 Y155.3319
G01 X63.5221 Y155.3103
G01 X63.5159 Y155.2885
G01 X63.5074 Y155.2563
G01 X63.5032 Y155.2381
G01 X63.4898 Y155.1742
G01 X63.4861 Y155.1543
G01 X63.4809 Y155.1199
G01 X63.4781 Y155.0990
G01 X63.4759 Y155.0779
G01 X63.4705 Y155.0118
G01 X63.4693 Y154.9909
G01 X63.4683 Y154.9400
G01 X63.4683 Y64.0392
G01 X60.4208 Y60.9917
G01 X12.7000 Y60.9917
G01 X12.6545 Y60.9908
G01 X12.6344 Y60.9898
G01 X12.5655 Y60.9845
G01 X12.5463 Y60.9825
G01 X12.5128 Y60.9781
G01 X12.4921 Y60.9749
G01 X12.4714 Y60.9712
G01 X12.4056 Y60.9577
G01 X12.3857 Y60.9531
G01 X12.3659 Y60.9480
G01 X12.3316 Y60.9384
G01 X12.3114 Y60.9321
G01 X12.2803 Y60.9212
G01 X12.2504 Y60.9113
G01 X12.2320 Y60.9046
G01 X12.2002 Y60.8919
G01 X12.1802 Y60.8834
G01 X12.1604 Y60.8744
G01 X12.0986 Y60.8442
G01 X12.0813 Y60.8351
G01 X12.0514 Y60.8185
G01 X12.0342 Y60.8084
G01 X12.0171 Y60.7979
G01 X11.9591 Y60.7600
G01 X11.9421 Y60.7483
G01 X11.9254 Y60.7361
G01 X11.8976 Y60.7148
G01 X11.8816 Y60.7019
G01 X11.8587 Y60.6821
G01 X11.8330 Y60.6606
G01 X11.8173 Y60.6467
G01 X11.7795 Y60.6105
G01 X7.9587 Y56.7895
G01 X7.9360 Y56.7655
G01 X7.9237 Y56.7518
G01 X7.8797 Y56.7005
G01 X7.8668 Y56.6846
G01 X7.8456 Y56.6568
G01 X7.8335 Y56.6403
G01 X7.8218 Y56.6236
G01 X7.7855 Y56.5683
G01 X7.7749 Y56.5514
G01 X7.7574 Y56.5216
G01 X7.7471 Y56.5031
G01 X7.7374 Y56.4844
G01 X7.7082 Y56.4251
G01 X7.6996 Y56.4066
G01 X7.6859 Y56.3746
G01 X7.6779 Y56.3545
G01 X7.6703 Y56.3342
G01 X7.6600 Y56.3034
G01 X7.6489 Y56.2719
G01 X7.6421 Y56.2503
G01 X7.6359 Y56.2285
G01 X7.6274 Y56.1963
G01 X7.6232 Y56.1781
G01 X7.6098 Y56.1142
G01 X7.6061 Y56.0943
G01 X7.6009 Y56.0599
G01 X7.5981 Y56.0390
G01 X7.5959 Y56.0179
G01 X7.5898 Y55.9414
G01 X7.5890 Y55.9231
G01 X7.5886 Y55.8990
G01 X6.2394 Y55.9179
G01 X6.2390 Y55.8940
G01 X6.2390 Y29.2008
G01 X6.2397 Y29.1490
G01 X6.2416 Y29.0948
G01 X6.2448 Y29.0407
G01 X6.2502 Y28.9712
G01 X6.2551 Y28.9194
G01 X6.2588 Y28.8869
G01 X6.2654 Y28.8372
G01 X6.2711 Y28.7988
G01 X6.2806 Y28.7429
G01 X6.2874 Y28.7079
G01 X6.3000 Y28.6465
G01 X6.3119 Y28.5927
G01 X6.3202 Y28.5590
G01 X6.3335 Y28.5084
G01 X6.3441 Y28.4708
G01 X6.3608 Y28.4162
G01 X6.3900 Y28.3293
G01 X6.4078 Y28.2795
G01 X6.4196 Y28.2483
G01 X6.4385 Y28.2011
G01 X6.4540 Y28.1640
G01 X6.4689 Y28.1301
G01 X6.4938 Y28.0769
G01 X6.5232 Y28.0167
G01 X6.5472 Y27.9696
G01 X6.5629 Y27.9403
G01 X6.5876 Y27.8959
G01 X6.6062 Y27.8639
G01 X6.6237 Y27.8347
G01 X6.6525 Y27.7890
G01 X6.6902 Y27.7313
G01 X6.7097 Y27.7022
G01 X6.7418 Y27.6566
G01 X6.7540 Y27.6399
G01 X6.7962 Y27.5840
G01 X6.8309 Y27.5406
G01 X6.8878 Y27.4731
G01 X6.9111 Y27.4462
G01 X6.9490 Y27.4043
G01 X6.9782 Y27.3734
G01 X7.0043 Y27.3466
G01 X18.4547 Y15.8962
G01 X18.4969 Y15.8553
G01 X18.5335 Y15.8215
G01 X18.5708 Y15.7886
G01 X18.6209 Y15.7455
G01 X18.6633 Y15.7104
G01 X18.7066 Y15.6765
G01 X18.7460 Y15.6468
G01 X18.7908 Y15.6146
G01 X18.8364 Y15.5835
G01 X18.8871 Y15.5501
G01 X18.9325 Y15.5212
G01 X18.9786 Y15.4934
G01 X19.0216 Y15.4687
G01 X19.0717 Y15.4413
G01 X19.1225 Y15.4153
G01 X19.1760 Y15.3890
G01 X19.2256 Y15.3655
G01 X19.2571 Y15.3514
G01 X19.3051 Y15.3309
G01 X19.3422 Y15.3159
G01 X19.3766 Y15.3026
G01 X19.4315 Y15.2828
G01 X19.4851 Y15.2643
G01 X19.5216 Y15.2522
G01 X19.5800 Y15.2343
G01 X19.6498 Y15.2152
G01 X19.7170 Y15.1987
G01 X19.8064 Y15.1797
G01 X19.8600 Y15.1693
G01 X19.8939 Y15.1635
G01 X19.9453 Y15.1556
G01 X19.9841 Y15.1504
G01 X20.0198 Y15.1461
G01 X20.0767 Y15.1406
G01 X20.1363 Y15.1358
G01 X20.1718 Y15.1333
G01 X20.2283 Y15.1305
G01 X20.2756 Y15.1294
G01 X20.3060 Y15.1290
G01 X44.6219 Y15.1290
G01 X48.9254 Y10.8254
G01 X48.9656 Y10.7861
G01 X49.0135 Y10.7415
G01 X49.0508 Y10.7086
G01 X49.1009 Y10.6655
G01 X49.1433 Y10.6304
G01 X49.1866 Y10.5965
G01 X49.2260 Y10.5668
G01 X49.2708 Y10.5346
G01 X49.3164 Y10.5035
G01 X49.3671 Y10.4701
G01 X49.4125 Y10.4412
G01 X49.4415 Y10.4235
G01 X49.4860 Y10.3976
G01 X49.5201 Y10.3784
G01 X49.5517 Y10.3613
G01 X49.6025 Y10.3353
G01 X49.6560 Y10.3090
G01 X49.7056 Y10.2855
G01 X49.7558 Y10.2633
G01 X49.8222 Y10.2359
G01 X49.8769 Y10.2151
G01 X49.9115 Y10.2028
G01 X49.9651 Y10.1843
G01 X50.0232 Y10.1654
G01 X50.0600 Y10.1543
G01 X50.1144 Y10.1392
G01 X50.1479 Y10.1305
G01 X50.1970 Y10.1187
G01 X50.2864 Y10.0997
G01 X50.3201 Y10.0930
G01 X50.3739 Y10.0835
G01 X50.4253 Y10.0756
G01 X50.4641 Y10.0704
G01 X50.5209 Y10.0639
G01 X50.6163 Y10.0558
G01 X50.6518 Y10.0533
G01 X50.6727 Y10.0521
G01 X50.7292 Y10.0499
G01 X50.8000 Y10.0490
G01 X96.5200 Y10.0490
G01 X96.5604 Y10.0494
G01 X96.6105 Y10.0506
G01 X96.6605 Y10.0529
G01 X96.7588 Y10.0602
G01 X96.8106 Y10.0651
G01 X96.8431 Y10.0688
G01 X96.8784 Y10.0734
G01 X96.9312 Y10.0811
G01 X96.9871 Y10.0906
G01 X97.0221 Y10.0974
G01 X97.0835 Y10.1100
G01 X97.1373 Y10.1219
G01 X97.1908 Y10.1353
G01 X97.2592 Y10.1541
G01 X97.2936 Y10.1645
G01 X97.3479 Y10.1821
G01 X97.4321 Y10.2111
G01 X97.4817 Y10.2296
G01 X97.5460 Y10.2556
G01 X97.5999 Y10.2789
G01 X97.6531 Y10.3038
G01 X97.7133 Y10.3332
G01 X97.7604 Y10.3572
G01 X97.8068 Y10.3823
G01 X97.8488 Y10.4061
G01 X97.8953 Y10.4337
G01 X97.9410 Y10.4625
G01 X97.9987 Y10.5002
G01 X98.0448 Y10.5315
G01 X98.0901 Y10.5640
G01 X98.1297 Y10.5937
G01 X98.1734 Y10.6279
G01 X98.2162 Y10.6633
G01 X98.2838 Y10.7211
G01 X98.2995 Y10.7350
G01 X98.3410 Y10.7734
G01 X98.3946 Y10.8254
G01 X101.8531 Y14.2839
G01 X101.8924 Y14.3241
G01 X101.9370 Y14.3720
G01 X101.9699 Y14.4093
G01 X102.0130 Y14.4594
G01 X102.0352 Y14.4860
G01 X102.0696 Y14.5290
G01 X102.1013 Y14.5706
G01 X102.1238 Y14.6010
G01 X102.1439 Y14.6293
G01 X102.1750 Y14.6749
G01 X102.2268 Y14.7541
G01 X102.2373 Y14.7710
G01 X102.2651 Y14.8171
G01 X102.3001 Y14.8786
G01 X102.3172 Y14.9102
G01 X102.3432 Y14.9610
G01 X102.3844 Y15.0456
G01 X102.4071 Y15.0956
G01 X102.4152 Y15.1143
G01 X102.4426 Y15.1807
G01 X102.4634 Y15.2354
G01 X102.4757 Y15.2700
G01 X102.5044 Y15.3542
G01 X102.5107 Y15.3741
G01 X102.5269 Y15.4281
G01 X102.5357 Y15.4593
G01 X102.5459 Y15.4977
G01 X102.5595 Y15.5541
G01 X102.5755 Y15.6290
G01 X102.6747 Y15.9344
G01 X102.7604 Y16.0524
G01 X102.8788 Y16.1384
G01 X103.1841 Y16.2376
G01 X103.2180 Y16.2445
G01 X103.2718 Y16.2564
G01 X103.3055 Y16.2647
G01 X103.3421 Y16.2742
G01 X103.3937 Y16.2886
G01 X103.4281 Y16.2990
G01 X103.4824 Y16.3166
G01 X103.5666 Y16.3456
G01 X103.6344 Y16.3713
G01 X103.7005 Y16.3985
G01 X103.7344 Y16.4134
G01 X103.7876 Y16.4383
G01 X103.8478 Y16.4677
G01 X103.8775 Y16.4827
G01 X103.9242 Y16.5074
G01 X103.9686 Y16.5321
G01 X104.0006 Y16.5507
G01 X104.0468 Y16.5788
G01 X104.0755 Y16.5970
G01 X104.1332 Y16.6347
G01 X104.1623 Y16.6542
G01 X104.2079 Y16.6863
G01 X104.2387 Y16.7089
G01 X104.2805 Y16.7407
G01 X104.3079 Y16.7624
G01 X104.3507 Y16.7978
G01 X104.3914 Y16.8323
G01 X104.4340 Y16.8695
G01 X104.4755 Y16.9079
G01 X104.5291 Y16.9599
G01 X112.3646 Y24.7954
G01 X112.4147 Y24.8469
G01 X112.4485 Y24.8835
G01 X112.4814 Y24.9208
G01 X112.5245 Y24.9709
G01 X112.5596 Y25.0133
G01 X112.5935 Y25.0566
G01 X112.6232 Y25.0960
G01 X112.6554 Y25.1408
G01 X112.6865 Y25.1864
G01 X112.7199 Y25.2371
G01 X112.7488 Y25.2825
G01 X112.7766 Y25.3286
G01 X112.8013 Y25.3716
G01 X112.8287 Y25.4217
G01 X112.8547 Y25.4725
G01 X112.8810 Y25.5260
G01 X112.9045 Y25.5756
G01 X112.9186 Y25.6071
G01 X112.9391 Y25.6551
G01 X112.9541 Y25.6922
G01 X112.9749 Y25.7469
G01 X112.9872 Y25.7815
G01 X113.0159 Y25.8657
G01 X113.0326 Y25.9195
G01 X113.0472 Y25.9708
G01 X113.0574 Y26.0092
G01 X113.0710 Y26.0656
G01 X113.0789 Y26.1013
G01 X113.0970 Y26.1901
G01 X113.1065 Y26.2439
G01 X113.1144 Y26.2953
G01 X113.1196 Y26.3341
G01 X113.1261 Y26.3909
G01 X113.1342 Y26.4863
G01 X113.1379 Y26.5427
G01 X113.1401 Y26.5992
G01 X113.1410 Y26.6700
G01 X113.1410 Y146.0592
G01 X113.1403 Y146.1110
G01 X113.1384 Y146.1652
G01 X113.1352 Y146.2193
G01 X113.1298 Y146.2888
G01 X113.1249 Y146.3406
G01 X113.1188 Y146.3922
G01 X113.1121 Y146.4405
G01 X113.1031 Y146.4964
G01 X113.0926 Y146.5521
G01 X113.0800 Y146.6135
G01 X113.0681 Y146.6673
G01 X113.0547 Y146.7208
G01 X113.0417 Y146.7689
G01 X113.0255 Y146.8236
G01 X113.0079 Y146.8779
G01 X112.9900 Y146.9307
G01 X112.9722 Y146.9805
G01 X112.9532 Y147.0299
G01 X112.9344 Y147.0760
G01 X112.9111 Y147.1299
G01 X112.8862 Y147.1831
G01 X112.8568 Y147.2433
G01 X112.8328 Y147.2904
G01 X112.8171 Y147.3197
G01 X112.7839 Y147.3788
G01 X112.7563 Y147.4253
G01 X112.7275 Y147.4710
G01 X112.6898 Y147.5287
G01 X112.6585 Y147.5748
G01 X112.6382 Y147.6034
G01 X112.6156 Y147.6342
G01 X112.5838 Y147.6760
G01 X112.5491 Y147.7194
G01 X112.4922 Y147.7869
G01 X112.4689 Y147.8138
G01 X112.4550 Y147.8295
G01 X112.4166 Y147.8710
G01 X112.3646 Y147.9246
G01 X100.9346 Y159.3546
G01 X100.8944 Y159.3939
G01 X100.8696 Y159.4173
G01 X100.8328 Y159.4508
G01 X100.7591 Y159.5145
G01 X100.7325 Y159.5367
G01 X100.6895 Y159.5711
G01 X100.6340 Y159.6132
G01 X100.6175 Y159.6253
G01 X100.5724 Y159.6570
G01 X100.5436 Y159.6765
G01 X100.4644 Y159.7283
G01 X100.4475 Y159.7388
G01 X100.4014 Y159.7666
G01 X100.3399 Y159.8016
G01 X100.3083 Y159.8187
G01 X100.2575 Y159.8447
G01 X100.1729 Y159.8859
G01 X100.1544 Y159.8945
G01 X100.1042 Y159.9167
G01 X100.0378 Y159.9441
G01 X99.9831 Y159.9649
G01 X99.9485 Y159.9772
G01 X99.8643 Y160.0059
G01 X99.8105 Y160.0226
G01 X99.7904 Y160.0284
G01 X99.7592 Y160.0372
G01 X99.7208 Y160.0474
G01 X99.6644 Y160.0610
G01 X99.6287 Y160.0689
G01 X99.5399 Y160.0870
G01 X99.5200 Y160.0907
G01 X99.4661 Y160.0997
G01 X99.3959 Y160.1096
G01 X99.3602 Y160.1139
G01 X99.3033 Y160.1194
G01 X99.2437 Y160.1242
G01 X99.2082 Y160.1267
G01 X99.1873 Y160.1279
G01 X99.1308 Y160.1301
G01 X99.0600 Y160.1310
G01 X67.3100 Y160.1310
G01 X67.2660 Y160.1306
G01 X67.2289 Y160.1298
G01 X67.1748 Y160.1274
G01 X67.1207 Y160.1237
G01 X67.0386 Y160.1169
G01 X66.9869 Y160.1112
G01 X66.9372 Y160.1046
G01 X66.8988 Y160.0989
G01 X66.8429 Y160.0894
G01 X66.8079 Y160.0826
G01 X66.7126 Y160.0626
G01 X66.6590 Y160.0498
G01 X66.6224 Y160.0403
G01 X66.5708 Y160.0259
G01 X66.5162 Y160.0092
G01 X66.4821 Y159.9979
G01 X66.3979 Y159.9689
G01 X66.3483 Y159.9504
G01 X66.3011 Y159.9315
G01 X66.2640 Y159.9160
G01 X66.2103 Y159.8920
G01 X66.1769 Y159.8762
G01 X66.1167 Y159.8468
G01 X66.0870 Y159.8318
G01 X66.0232 Y159.7977
G01 X65.9812 Y159.7739
G01 X65.9347 Y159.7463
G01 X65.8890 Y159.7175
G01 X65.8313 Y159.6798
G01 X65.8022 Y159.6603
G01 X65.7566 Y159.6282
G01 X65.7258 Y159.6056
G01 X65.6840 Y159.5738
G01 X65.6406 Y159.5391
G01 X65.5731 Y159.4822
G01 X65.5462 Y159.4589
G01 X65.5305 Y159.4450
G01 X65.4890 Y159.4066
G01 X65.4354 Y159.3546
G01 X62.8862 Y156.8053
G01 X62.8453 Y156.7631
G01 X62.7992 Y156.7128
G01 X62.7355 Y156.6391
G01 X62.7133 Y156.6125
G01 X62.6789 Y156.5695
G01 X62.6472 Y156.5279
G01 X62.6247 Y156.4975
G01 X62.6046 Y156.4692
G01 X62.5735 Y156.4236
G01 X62.5401 Y156.3729
G01 X62.5112 Y156.3275
G01 X62.4834 Y156.2814
G01 X62.4587 Y156.2384
G01 X62.4313 Y156.1883
G01 X62.4053 Y156.1375
G01 X62.3790 Y156.0840
G01 X62.3555 Y156.0344
G01 X62.3414 Y156.0029
G01 X62.3209 Y155.9549
G01 X62.3059 Y155.9178
G01 X62.2851 Y155.8631
G01 X62.2543 Y155.7749
G01 X62.2422 Y155.7384
G01 X62.2243 Y155.6800
G01 X62.2130 Y155.6397
G01 X62.2005 Y155.5921
G01 X62.1887 Y155.5430
G01 X62.1697 Y155.4536
G01 X62.1630 Y155.4199
G01 X62.1535 Y155.3661
G01 X62.1477 Y155.3291
G01 X62.1404 Y155.2759
G01 X62.1361 Y155.2402
G01 X62.1306 Y155.1833
G01 X62.1258 Y155.1237
G01 X62.1221 Y155.0673
G01 X62.1205 Y155.0317
G01 X62.1194 Y154.9844
G01 X62.1190 Y154.9400
G01 X62.1190 Y64.5981
G01 X59.8619 Y62.3410
G01 X12.7000 Y62.3410
G01 X12.6390 Y62.3403
G01 X12.5848 Y62.3384
G01 X12.5307 Y62.3352
G01 X12.4612 Y62.3298
G01 X12.4286 Y62.3269
G01 X12.3769 Y62.3212
G01 X12.3272 Y62.3146
G01 X12.2888 Y62.3089
G01 X12.2329 Y62.2994
G01 X12.1979 Y62.2926
G01 X12.1026 Y62.2726
G01 X12.0490 Y62.2598
G01 X12.0124 Y62.2503
G01 X11.9608 Y62.2359
G01 X11.9264 Y62.2255
G01 X11.8721 Y62.2079
G01 X11.8193 Y62.1900
G01 X11.7695 Y62.1722
G01 X11.7383 Y62.1604
G01 X11.6911 Y62.1415
G01 X11.6540 Y62.1260
G01 X11.6003 Y62.1020
G01 X11.5669 Y62.0862
G01 X11.5067 Y62.0568
G01 X11.4596 Y62.0328
G01 X11.4303 Y62.0171
G01 X11.3859 Y61.9924
G01 X11.3539 Y61.9738
G01 X11.3247 Y61.9563
G01 X11.2790 Y61.9275
G01 X11.2213 Y61.8898
G01 X11.1922 Y61.8703
G01 X11.1466 Y61.8382
G01 X11.1158 Y61.8156
G01 X11.0740 Y61.7838
G01 X11.0466 Y61.7621
G01 X11.0038 Y61.7267
G01 X10.9631 Y61.6922
G01 X10.9362 Y61.6689
G01 X10.8943 Y61.6310
G01 X10.8634 Y61.6018
G01 X10.8254 Y61.5646
G01 X7.0154 Y57.7546
G01 X6.9653 Y57.7031
G01 X6.9315 Y57.6665
G01 X6.8986 Y57.6292
G01 X6.8555 Y57.5791
G01 X6.8333 Y57.5525
G01 X6.7989 Y57.5095
G01 X6.7865 Y57.4934
G01 X6.7760 Y57.4796
G01 X6.7568 Y57.4540
G01 X6.7246 Y57.4092
G01 X6.6935 Y57.3636
G01 X6.6601 Y57.3129
G01 X6.6312 Y57.2675
G01 X6.6135 Y57.2385
G01 X6.5949 Y57.2067
G01 X6.5684 Y57.1599
G01 X6.5415 Y57.1096
G01 X6.5253 Y57.0775
G01 X6.4841 Y56.9929
G01 X6.4614 Y56.9429
G01 X6.4339 Y56.8778
G01 X6.4126 Y56.8234
G01 X6.3928 Y56.7685
G01 X6.3743 Y56.7149
G01 X6.3622 Y56.6784
G01 X6.3443 Y56.6200
G01 X6.3292 Y56.5656
G01 X6.3130 Y56.5012
G01 X6.3019 Y56.4520
G01 X6.2897 Y56.3936
G01 X6.2793 Y56.3400
G01 X6.2703 Y56.2861
G01 X6.2631 Y56.2369
G01 X6.2561 Y56.1802
G01 X6.2506 Y56.1233
G01 X6.2436 Y56.0335
G01 X6.2410 Y55.9840
G01 X6.2400 Y55.9529
G01 X6.2394 Y55.9179
G01 X9.5730 Y65.6144
G01 X9.5730 Y82.4631
G01 X9.6811 Y82.4331
G01 X9.7702 Y82.4099
G01 X9.8848 Y82.3815
G01 X9.9421 Y82.3681
G01 X9.9946 Y82.3563
G01 X10.0905 Y82.3358
G01 X10.1840 Y82.3175
G01 X10.2887 Y82.2987
G01 X10.3733 Y82.2848
G01 X10.4957 Y82.2665
G01 X10.5964 Y82.2528
G01 X10.6936 Y82.2412
G01 X10.7980 Y82.2304
G01 X10.8943 Y82.2221
G01 X10.9920 Y82.2152
G01 X11.0540 Y82.2116
G01 X11.1262 Y82.2080
G01 X11.2160 Y82.2042
G01 X11.3277 Y82.2014
G01 X11.4300 Y82.2005
G01 X17.0284 Y82.2005
G01 X16.9712 Y82.1155
G01 X16.9199 Y82.0367
G01 X16.8692 Y81.9561
G01 X16.8396 Y81.9077
G01 X16.8098 Y81.8580
G01 X16.7645 Y81.7804
G01 X16.7158 Y81.6938
G01 X16.6886 Y81.6440
G01 X16.6613 Y81.5929
G01 X16.6180 Y81.5095
G01 X16.5754 Y81.4243
G01 X16.5507 Y81.3732
G01 X16.5259 Y81.3208
G01 X16.4868 Y81.2354
G01 X16.4633 Y81.1824
G01 X16.4408 Y81.1303
G01 X16.4025 Y81.0386
G01 X16.3662 Y80.9475
G01 X16.3284 Y80.8480
G01 X16.2947 Y80.7545
G01 X16.2628 Y80.6617
G01 X16.2300 Y80.5605
G01 X16.2009 Y80.4655
G01 X16.1736 Y80.3712
G01 X16.1458 Y80.2685
G01 X16.1214 Y80.1722
G01 X16.0988 Y80.0767
G01 X16.0760 Y79.9727
G01 X16.0564 Y79.8753
G01 X16.0385 Y79.7788
G01 X16.0209 Y79.6739
G01 X16.0061 Y79.5757
G01 X15.9930 Y79.4784
G01 X15.9805 Y79.3727
G01 X15.9705 Y79.2739
G01 X15.9618 Y79.1720
G01 X15.9571 Y79.1059
G01 X15.9541 Y79.0575
G01 X15.9485 Y78.9418
G01 X15.9466 Y78.8850
G01 X15.9450 Y78.8230
G01 X15.9441 Y78.7642
G01 X15.9438 Y78.7083
G01 X15.9438 Y76.9772
G01 X15.9446 Y76.8977
G01 X15.9471 Y76.7984
G01 X15.9499 Y76.7252
G01 X15.9546 Y76.6342
G01 X15.9622 Y76.5239
G01 X15.9705 Y76.4261
G01 X15.9805 Y76.3273
G01 X15.9869 Y76.2709
G01 X15.9940 Y76.2134
G01 X16.0066 Y76.1202
G01 X16.0151 Y76.0629
G01 X16.0240 Y76.0069
G01 X16.0407 Y75.9089
G01 X16.0596 Y75.8084
G01 X16.0809 Y75.7042
G01 X16.1053 Y75.5951
G01 X16.1175 Y75.5439
G01 X16.1334 Y75.4796
G01 X16.1550 Y75.3967
G01 X16.1849 Y75.2890
G01 X16.2165 Y75.1830
G01 X16.2473 Y75.0855
G01 X16.2654 Y75.0304
G01 X16.2840 Y74.9761
G01 X16.2876 Y73.6434
G01 X16.2882 Y73.5743
G01 X16.2891 Y73.5246
G01 X16.2910 Y73.4543
G01 X16.2942 Y73.3728
G01 X16.2991 Y73.2775
G01 X16.3039 Y73.2002
G01 X16.3101 Y73.1177
G01 X16.3161 Y73.0488
G01 X16.3243 Y72.9664
G01 X16.3321 Y72.8976
G01 X16.3402 Y72.8319
G01 X16.3505 Y72.7552
G01 X16.3644 Y72.6608
G01 X16.3771 Y72.5802
G01 X16.3826 Y72.5476
G01 X16.3833 Y72.5435
G01 X16.3890 Y72.5109
G01 X16.3897 Y72.5068
G01 X16.4021 Y72.4388
G01 X16.4180 Y72.3575
G01 X16.4312 Y72.2938
G01 X16.4500 Y72.2090
G01 X16.4652 Y72.1436
G01 X16.4804 Y72.0813
G01 X16.5044 Y71.9868
G01 X16.5228 Y71.9180
G01 X16.5452 Y71.8383
G01 X16.5647 Y71.7720
G01 X16.5865 Y71.7007
G01 X16.6075 Y71.6348
G01 X16.6336 Y71.5563
G01 X16.6583 Y71.4850
G01 X16.6869 Y71.4050
G01 X16.7123 Y71.3362
G01 X16.7420 Y71.2589
G01 X16.7675 Y71.1947
G01 X16.7959 Y71.1258
G01 X16.8262 Y71.0545
G01 X16.8596 Y70.9787
G01 X16.8908 Y70.9102
G01 X16.9270 Y70.8332
G01 X16.9557 Y70.7735
G01 X16.9863 Y70.7115
G01 X17.0219 Y70.6413
G01 X17.0559 Y70.5764
G01 X17.0892 Y70.5144
G01 X17.1227 Y70.4539
G01 X17.1637 Y70.3820
G01 X17.2007 Y70.3187
G01 X17.2444 Y70.2457
G01 X17.2840 Y70.1812
G01 X17.3274 Y70.1124
G01 X17.3644 Y70.0553
G01 X17.4094 Y69.9875
G01 X17.4477 Y69.9313
G01 X17.4945 Y69.8646
G01 X17.5317 Y69.8126
G01 X17.5702 Y69.7601
G01 X17.6285 Y69.6820
G01 X17.6718 Y69.6255
G01 X17.7178 Y69.5669
G01 X17.7585 Y69.5162
G01 X17.8006 Y69.4650
G01 X17.8423 Y69.4152
G01 X17.8909 Y69.3586
G01 X17.9337 Y69.3097
G01 X17.9738 Y69.2650
G01 X18.0198 Y69.2143
G01 X18.0724 Y69.1575
G01 X18.1409 Y69.0855
G01 X18.1994 Y69.0258
G01 X18.6308 Y68.5944
G01 X18.6181 Y68.5252
G01 X18.6056 Y68.4517
G01 X18.5937 Y68.3773
G01 X18.5803 Y68.2869
G01 X18.5718 Y68.2275
G01 X18.5635 Y68.1651
G01 X18.5559 Y68.1035
G01 X18.5486 Y68.0389
G01 X18.5412 Y67.9647
G01 X18.5353 Y67.9000
G01 X18.5314 Y67.8505
G01 X18.5264 Y67.7803
G01 X18.5219 Y67.7050
G01 X18.5171 Y67.6076
G01 X18.5146 Y67.5497
G01 X18.5126 Y67.4909
G01 X18.5111 Y67.4288
G01 X18.5102 Y67.3597
G01 X18.5100 Y67.2810
G01 X18.5107 Y67.2119
G01 X18.5124 Y67.1374
G01 X18.5145 Y67.0724
G01 X18.5170 Y67.0145
G01 X18.5217 Y66.9191
G01 X18.5256 Y66.8521
G01 X18.5289 Y66.8026
G01 X18.5343 Y66.7324
G01 X18.5404 Y66.6635
G01 X18.5465 Y66.6017
G01 X18.5535 Y66.5371
G01 X18.5625 Y66.4631
G01 X18.5702 Y66.4041
G01 X12.6642 Y66.3890
G01 X12.5942 Y66.3883
G01 X12.5324 Y66.3870
G01 X12.4654 Y66.3850
G01 X12.3887 Y66.3818
G01 X12.3218 Y66.3782
G01 X12.2580 Y66.3741
G01 X12.1036 Y66.3621
G01 X12.0302 Y66.3554
G01 X11.9541 Y66.3474
G01 X11.8728 Y66.3378
G01 X11.7908 Y66.3271
G01 X11.7173 Y66.3166
G01 X11.6392 Y66.3046
G01 X11.5557 Y66.2906
G01 X11.4780 Y66.2765
G01 X11.3948 Y66.2602
G01 X11.2955 Y66.2398
G01 X11.2107 Y66.2213
G01 X11.1401 Y66.2049
G01 X11.0515 Y66.1831
G01 X10.9709 Y66.1621
G01 X10.8882 Y66.1395
G01 X10.8096 Y66.1168
G01 X10.7279 Y66.0922
G01 X10.6564 Y66.0695
G01 X10.5881 Y66.0470
G01 X10.4829 Y66.0111
G01 X10.4122 Y65.9861
G01 X10.3391 Y65.9592
G01 X10.2613 Y65.9294
G01 X10.1792 Y65.8968
G01 X10.1040 Y65.8657
G01 X10.0372 Y65.8372
G01 X9.9568 Y65.8017
G01 X9.8866 Y65.7695
G01 X9.8031 Y65.7298
G01 X9.7160 Y65.6873
G01 X9.6417 Y65.6500
G01 X9.5730 Y65.6144
G01 X10.9224 Y67.5395
G01 X10.9224 Y80.8675
G01 X10.9857 Y80.8639
G01 X11.0631 Y80.8601
G01 X11.1705 Y80.8556
G01 X11.2863 Y80.8526
G01 X11.4052 Y80.8512
G01 X14.9078 Y80.8511
G01 X14.8787 Y80.7510
G01 X14.8518 Y80.6533
G01 X14.8285 Y80.5643
G01 X14.8027 Y80.4598
G01 X14.7827 Y80.3744
G01 X14.7600 Y80.2713
G01 X14.7426 Y80.1873
G01 X14.7200 Y80.0706
G01 X14.7016 Y79.9667
G01 X14.6873 Y79.8801
G01 X14.6713 Y79.7737
G01 X14.6593 Y79.6867
G01 X14.6469 Y79.5881
G01 X14.6366 Y79.4968
G01 X14.6253 Y79.3814
G01 X14.6175 Y79.2898
G01 X14.6124 Y79.2196
G01 X14.6080 Y79.1527
G01 X14.6016 Y79.0286
G01 X14.5990 Y78.9616
G01 X14.5972 Y78.9037
G01 X14.5955 Y78.8271
G01 X14.5947 Y78.7621
G01 X14.5944 Y78.7010
G01 X14.5944 Y77.0000
G01 X14.5948 Y76.9265
G01 X14.5958 Y76.8563
G01 X14.5992 Y76.7322
G01 X14.6019 Y76.6652
G01 X14.6056 Y76.5907
G01 X14.6094 Y76.5258
G01 X14.6132 Y76.4680
G01 X14.6193 Y76.3875
G01 X14.6247 Y76.3248
G01 X14.6324 Y76.2444
G01 X14.6384 Y76.1868
G01 X14.6462 Y76.1181
G01 X14.6542 Y76.0523
G01 X14.6617 Y75.9948
G01 X14.6713 Y75.9263
G01 X14.6819 Y75.8547
G01 X14.6921 Y75.7905
G01 X14.7126 Y75.6701
G01 X14.7248 Y75.6041
G01 X14.7361 Y75.5452
G01 X14.7508 Y75.4721
G01 X14.7639 Y75.4105
G01 X14.7818 Y75.3297
G01 X14.7948 Y75.2732
G01 X14.8105 Y75.2080
G01 X14.8265 Y75.1437
G01 X14.8410 Y75.0876
G01 X14.8588 Y75.0208
G01 X14.8782 Y74.9510
G01 X14.8961 Y74.8885
G01 X14.9126 Y74.8329
G01 X14.9350 Y74.7595
G01 X14.9386 Y73.5865
G01 X14.9398 Y73.5081
G01 X14.9424 Y73.4108
G01 X14.9459 Y73.3200
G01 X14.9502 Y73.2320
G01 X14.9576 Y73.1092
G01 X14.9669 Y72.9874
G01 X14.9726 Y72.9227
G01 X14.9789 Y72.8588
G01 X14.9847 Y72.8032
G01 X14.9918 Y72.7407
G01 X15.0074 Y72.6175
G01 X15.0173 Y72.5459
G01 X15.0276 Y72.4761
G01 X15.0459 Y72.3598
G01 X15.0667 Y72.2394
G01 X15.0794 Y72.1714
G01 X15.0949 Y72.0922
G01 X15.1071 Y72.0334
G01 X15.1234 Y71.9577
G01 X15.1417 Y71.8770
G01 X15.1567 Y71.8137
G01 X15.1712 Y71.7544
G01 X15.1957 Y71.6580
G01 X15.2126 Y71.5941
G01 X15.2218 Y71.5601
G01 X15.2234 Y71.5542
G01 X15.2323 Y71.5222
G01 X15.2339 Y71.5163
G01 X15.2503 Y71.4585
G01 X15.2698 Y71.3922
G01 X15.2909 Y71.3228
G01 X15.3122 Y71.2549
G01 X15.3301 Y71.1997
G01 X15.3590 Y71.1134
G01 X15.3854 Y71.0373
G01 X15.4118 Y70.9631
G01 X15.4349 Y70.8999
G01 X15.4607 Y70.8312
G01 X15.4868 Y70.7637
G01 X15.5131 Y70.6975
G01 X15.5476 Y70.6132
G01 X15.5701 Y70.5598
G01 X15.5983 Y70.4944
G01 X15.6285 Y70.4262
G01 X15.6575 Y70.3623
G01 X15.6872 Y70.2985
G01 X15.7210 Y70.2273
G01 X15.7552 Y70.1567
G01 X15.7959 Y70.0752
G01 X15.8251 Y70.0181
G01 X15.8620 Y69.9476
G01 X15.9011 Y69.8747
G01 X15.9335 Y69.8159
G01 X15.9711 Y69.7492
G01 X16.0030 Y69.6935
G01 X16.0407 Y69.6294
G01 X16.0828 Y69.5590
G01 X16.1189 Y69.4998
G01 X16.1567 Y69.4389
G01 X16.1960 Y69.3771
G01 X16.2329 Y69.3200
G01 X16.2677 Y69.2673
G01 X16.3098 Y69.2049
G01 X16.3471 Y69.1505
G01 X16.3939 Y69.0838
G01 X16.4383 Y69.0220
G01 X16.4791 Y68.9661
G01 X16.5260 Y68.9030
G01 X16.5714 Y68.8429
G01 X16.6106 Y68.7921
G01 X16.6579 Y68.7318
G01 X16.6998 Y68.6794
G01 X16.7522 Y68.6153
G01 X16.8018 Y68.5559
G01 X16.8434 Y68.5070
G01 X16.8990 Y68.4429
G01 X16.9442 Y68.3919
G01 X17.0053 Y68.3242
G01 X17.0529 Y68.2723
G01 X17.1022 Y68.2195
G01 X17.1536 Y68.1655
G01 X17.2003 Y68.1173
G01 X17.1928 Y68.0372
G01 X17.1856 Y67.9497
G01 X17.1791 Y67.8568
G01 X17.1730 Y67.7500
G01 X12.6723 Y67.7385
G01 X12.5523 Y67.7371
G01 X12.4320 Y67.7340
G01 X12.3297 Y67.7299
G01 X12.2373 Y67.7249
G01 X12.1394 Y67.7185
G01 X12.0278 Y67.7099
G01 X11.9300 Y67.7013
G01 X11.8457 Y67.6929
G01 X11.7480 Y67.6819
G01 X11.6690 Y67.6722
G01 X11.5725 Y67.6591
G01 X11.4756 Y67.6448
G01 X11.4051 Y67.6336
G01 X11.3062 Y67.6168
G01 X11.2263 Y67.6022
G01 X11.1278 Y67.5829
G01 X11.0159 Y67.5599
G01 X10.9224 Y67.5395
G01 X12.2717 Y69.0780
G01 X12.2717 Y79.5017
G01 X13.2813 Y79.5017
G01 X13.2729 Y79.4035
G01 X13.2659 Y79.3086
G01 X13.2600 Y79.2148
G01 X13.2550 Y79.1197
G01 X13.2515 Y79.0380
G01 X13.2485 Y78.9471
G01 X13.2463 Y78.8488
G01 X13.2453 Y78.7643
G01 X13.2450 Y78.7022
G01 X13.2452 Y76.9421
G01 X13.2467 Y76.8284
G01 X13.2497 Y76.7125
G01 X13.2538 Y76.6051
G01 X13.2594 Y76.4945
G01 X13.2664 Y76.3842
G01 X13.2762 Y76.2563
G01 X13.2862 Y76.1461
G01 X13.2928 Y76.0802
G01 X13.3003 Y76.0105
G01 X13.3150 Y75.8871
G01 X13.3288 Y75.7827
G01 X13.3468 Y75.6587
G01 X13.3647 Y75.5465
G01 X13.3844 Y75.4323
G01 X13.4069 Y75.3114
G01 X13.4307 Y75.1926
G01 X13.4554 Y75.0775
G01 X13.4831 Y74.9564
G01 X13.4995 Y74.8881
G01 X13.5155 Y74.8239
G01 X13.5440 Y74.7138
G01 X13.5770 Y74.5934
G01 X13.5888 Y73.6426
G01 X13.5900 Y73.5174
G01 X13.5912 Y73.4594
G01 X13.5935 Y73.3725
G01 X13.5989 Y73.2364
G01 X13.6050 Y73.1183
G01 X13.6115 Y73.0151
G01 X13.6202 Y72.8995
G01 X13.6296 Y72.7925
G01 X13.6411 Y72.6771
G01 X13.6530 Y72.5724
G01 X13.6674 Y72.4574
G01 X13.6829 Y72.3450
G01 X13.6982 Y72.2425
G01 X13.7153 Y72.1352
G01 X13.7341 Y72.0260
G01 X13.7520 Y71.9285
G01 X13.7725 Y71.8239
G01 X13.7933 Y71.7238
G01 X13.8177 Y71.6136
G01 X13.8399 Y71.5182
G01 X13.8620 Y71.4277
G01 X13.8948 Y71.2991
G01 X13.9205 Y71.2032
G01 X13.9509 Y71.0946
G01 X13.9797 Y70.9965
G01 X14.0137 Y70.8857
G01 X14.0449 Y70.7883
G01 X14.0786 Y70.6871
G01 X14.0967 Y70.6346
G01 X14.1014 Y70.6209
G01 X14.1035 Y70.6150
G01 X14.1048 Y70.6112
G01 X14.1158 Y70.5799
G01 X14.1572 Y70.4647
G01 X14.1896 Y70.3775
G01 X14.2301 Y70.2722
G01 X14.2679 Y70.1772
G01 X14.3101 Y70.0748
G01 X14.3502 Y69.9807
G01 X14.3919 Y69.8860
G01 X14.4398 Y69.7807
G01 X14.4873 Y69.6794
G01 X14.5294 Y69.5918
G01 X14.5752 Y69.4990
G01 X14.6240 Y69.4031
G01 X14.6739 Y69.3079
G01 X14.7264 Y69.2104
G01 X14.7834 Y69.1080
G01 X12.6879 Y69.0879
G01 X12.5878 Y69.0872
G01 X12.5040 Y69.0858
G01 X12.4295 Y69.0840
G01 X12.3602 Y69.0817
G01 X12.2717 Y69.0780
G01 X20.3357 Y75.8359
G01 X20.3357 Y73.6600
G01 X20.3360 Y73.6240
G01 X20.3368 Y73.5909
G01 X20.3401 Y73.5175
G01 X20.3422 Y73.4815
G01 X20.3446 Y73.4485
G01 X20.3496 Y73.3961
G01 X20.3558 Y73.3439
G01 X20.3687 Y73.2548
G01 X20.3775 Y73.2029
G01 X20.3916 Y73.1323
G01 X20.3988 Y73.0999
G01 X20.4072 Y73.0649
G01 X20.4204 Y73.0126
G01 X20.4342 Y72.9618
G01 X20.4552 Y72.8928
G01 X20.4719 Y72.8430
G01 X20.5024 Y72.7583
G01 X20.5216 Y72.7093
G01 X20.5343 Y72.6787
G01 X20.5554 Y72.6305
G01 X20.5865 Y72.5640
G01 X20.6022 Y72.5316
G01 X20.6171 Y72.5020
G01 X20.6510 Y72.4384
G01 X20.6674 Y72.4096
G01 X20.6856 Y72.3785
G01 X20.7252 Y72.3132
G01 X20.7531 Y72.2697
G01 X20.7712 Y72.2426
G01 X20.8008 Y72.2002
G01 X20.8440 Y72.1415
G01 X20.8657 Y72.1128
G01 X20.8861 Y72.0867
G01 X20.9318 Y72.0309
G01 X20.9663 Y71.9913
G01 X21.0270 Y71.9247
G01 X21.0634 Y71.8868
G01 X22.3450 Y70.6050
G01 X22.3708 Y70.5798
G01 X22.4090 Y70.5437
G01 X22.4501 Y70.5063
G01 X22.4773 Y70.4822
G01 X22.5169 Y70.4484
G01 X22.5422 Y70.4276
G01 X22.5831 Y70.3955
G01 X22.6416 Y70.3517
G01 X22.6707 Y70.3305
G01 X22.7139 Y70.3004
G01 X22.7577 Y70.2714
G01 X22.8023 Y70.2434
G01 X22.8485 Y70.2156
G01 X22.8796 Y70.1974
G01 X22.9255 Y70.1716
G01 X22.9720 Y70.1471
G01 X23.0016 Y70.1322
G01 X23.0340 Y70.1165
G01 X23.1005 Y70.0854
G01 X23.1308 Y70.0719
G01 X23.1793 Y70.0516
G01 X23.2283 Y70.0324
G01 X23.2621 Y70.0200
G01 X23.3130 Y70.0019
G01 X23.3628 Y69.9852
G01 X23.4131 Y69.9697
G01 X23.4637 Y69.9554
G01 X23.5510 Y69.9333
G01 X23.6023 Y69.9216
G01 X23.6538 Y69.9111
G01 X23.7248 Y69.8987
G01 X23.8139 Y69.8858
G01 X23.8661 Y69.8796
G01 X23.9185 Y69.8746
G01 X23.9709 Y69.8710
G01 X24.0248 Y69.8683
G01 X24.0609 Y69.8668
G01 X24.1262 Y69.8657
G01 X24.0846 Y69.8432
G01 X24.0389 Y69.8170
G01 X23.9939 Y69.7898
G01 X23.9660 Y69.7721
G01 X23.9060 Y69.7320
G01 X23.8789 Y69.7130
G01 X23.8516 Y69.6930
G01 X23.7913 Y69.6527
G01 X23.7642 Y69.6336
G01 X23.7351 Y69.6124
G01 X23.6513 Y69.5499
G01 X23.6099 Y69.5173
G01 X23.5694 Y69.4838
G01 X23.5298 Y69.4492
G01 X23.4666 Y69.3921
G01 X23.4401 Y69.3677
G01 X23.4022 Y69.3312
G01 X23.3788 Y69.3078
G01 X23.3423 Y69.2699
G01 X23.3179 Y69.2434
G01 X23.2488 Y69.1667
G01 X23.2147 Y69.1268
G01 X23.1934 Y69.1009
G01 X23.1485 Y69.0434
G01 X23.0976 Y68.9749
G01 X23.0764 Y68.9458
G01 X23.0463 Y68.9026
G01 X23.0170 Y68.8584
G01 X22.9970 Y68.8311
G01 X22.9669 Y68.7879
G01 X22.9379 Y68.7440
G01 X22.9202 Y68.7161
G01 X22.8930 Y68.6711
G01 X22.8668 Y68.6254
G01 X22.8328 Y68.5619
G01 X22.8094 Y68.5148
G01 X22.7953 Y68.4848
G01 X22.7660 Y68.4189
G01 X22.7461 Y68.3703
G01 X22.7274 Y68.3211
G01 X22.7099 Y68.2715
G01 X22.6995 Y68.2401
G01 X22.6786 Y68.1711
G01 X22.6698 Y68.1392
G01 X22.6568 Y68.0882
G01 X22.6450 Y68.0369
G01 X22.6345 Y67.9854
G01 X22.6253 Y67.9336
G01 X22.6201 Y67.9001
G01 X22.6095 Y67.8482
G01 X22.6003 Y67.7964
G01 X22.5846 Y67.6930
G01 X22.5796 Y67.6573
G01 X22.5734 Y67.6050
G01 X22.5702 Y67.5721
G01 X22.5661 Y67.5196
G01 X22.5640 Y67.4837
G01 X22.5592 Y67.3791
G01 X22.5584 Y67.3460
G01 X22.5581 Y67.2934
G01 X22.5599 Y67.2214
G01 X22.5640 Y67.1363
G01 X22.5661 Y67.1004
G01 X22.5702 Y67.0479
G01 X22.5756 Y66.9956
G01 X22.5796 Y66.9627
G01 X22.5846 Y66.9270
G01 X22.6003 Y66.8236
G01 X22.6095 Y66.7718
G01 X22.6201 Y66.7199
G01 X22.6253 Y66.6864
G01 X22.6310 Y66.6538
G01 X22.6450 Y66.5831
G01 X22.6568 Y66.5318
G01 X22.6698 Y66.4808
G01 X22.6786 Y66.4489
G01 X22.6937 Y66.3985
G01 X22.7099 Y66.3485
G01 X22.7274 Y66.2989
G01 X22.7534 Y66.2317
G01 X22.7737 Y66.1832
G01 X22.7953 Y66.1352
G01 X22.8094 Y66.1052
G01 X22.8328 Y66.0581
G01 X22.8574 Y66.0116
G01 X22.8831 Y65.9658
G01 X22.9202 Y65.9039
G01 X22.9485 Y65.8596
G01 X22.9669 Y65.8321
G01 X22.9970 Y65.7889
G01 X23.0170 Y65.7616
G01 X23.0463 Y65.7174
G01 X23.0764 Y65.6742
G01 X23.0976 Y65.6451
G01 X23.1484 Y65.5768
G01 X23.1927 Y65.5199
G01 X23.2262 Y65.4794
G01 X23.2608 Y65.4398
G01 X23.3291 Y65.3644
G01 X23.3652 Y65.3261
G01 X23.4022 Y65.2888
G01 X23.4401 Y65.2523
G01 X23.5174 Y65.1818
G01 X23.5458 Y65.1566
G01 X23.5706 Y65.1352
G01 X23.6107 Y65.1021
G01 X23.6516 Y65.0699
G01 X23.6800 Y65.0484
G01 X23.7642 Y64.9864
G01 X23.8074 Y64.9563
G01 X23.8516 Y64.9270
G01 X23.8789 Y64.9070
G01 X23.9221 Y64.8769
G01 X23.9496 Y64.8585
G01 X23.9939 Y64.8302
G01 X24.0389 Y64.8030
G01 X24.0846 Y64.7768
G01 X24.1481 Y64.7428
G01 X24.1952 Y64.7194
G01 X24.2429 Y64.6971
G01 X24.2911 Y64.6760
G01 X24.3397 Y64.6561
G01 X24.3706 Y64.6442
G01 X24.4201 Y64.6263
G01 X24.4699 Y64.6095
G01 X24.5202 Y64.5940
G01 X24.5897 Y64.5748
G01 X24.6408 Y64.5623
G01 X24.6731 Y64.5550
G01 X24.7438 Y64.5410
G01 X24.7764 Y64.5353
G01 X24.8099 Y64.5301
G01 X24.8618 Y64.5195
G01 X24.9136 Y64.5103
G01 X25.0170 Y64.4946
G01 X25.0527 Y64.4896
G01 X25.1050 Y64.4834
G01 X25.1573 Y64.4785
G01 X25.1904 Y64.4761
G01 X25.2263 Y64.4740
G01 X25.3114 Y64.4699
G01 X25.3640 Y64.4684
G01 X25.4000 Y64.4680
G01 X48.2600 Y64.4680
G01 X48.2960 Y64.4684
G01 X48.3291 Y64.4692
G01 X48.4337 Y64.4740
G01 X48.4696 Y64.4761
G01 X48.5027 Y64.4785
G01 X48.5550 Y64.4834
G01 X48.6266 Y64.4923
G01 X48.7272 Y64.5072
G01 X48.7790 Y64.5159
G01 X48.8497 Y64.5300
G01 X48.9010 Y64.5418
G01 X48.9836 Y64.5623
G01 X49.0185 Y64.5714
G01 X49.0504 Y64.5803
G01 X49.1194 Y64.6012
G01 X49.1508 Y64.6116
G01 X49.1849 Y64.6234
G01 X49.2833 Y64.6590
G01 X49.3322 Y64.6781
G01 X49.3628 Y64.6908
G01 X49.4287 Y64.7200
G01 X49.5207 Y64.7635
G01 X49.5850 Y64.7959
G01 X49.6313 Y64.8209
G01 X49.6601 Y64.8372
G01 X49.7500 Y64.8907
G01 X49.7808 Y64.9095
G01 X49.8088 Y64.9272
G01 X49.8526 Y64.9563
G01 X49.8958 Y64.9864
G01 X49.9800 Y65.0484
G01 X50.0087 Y65.0701
G01 X50.0349 Y65.0905
G01 X50.0757 Y65.1237
G01 X50.1156 Y65.1579
G01 X50.1934 Y65.2279
G01 X50.2199 Y65.2523
G01 X50.2439 Y65.2752
G01 X50.2696 Y65.3004
G01 X51.0767 Y66.1076
G01 X51.1597 Y66.0582
G01 X51.1885 Y66.0419
G01 X51.2348 Y66.0169
G01 X51.2992 Y65.9845
G01 X51.3843 Y65.9441
G01 X51.4177 Y65.9288
G01 X51.4647 Y65.9083
G01 X51.4946 Y65.8960
G01 X51.5601 Y65.8707
G01 X51.6450 Y65.8403
G01 X51.6791 Y65.8284
G01 X51.7291 Y65.8122
G01 X51.7608 Y65.8026
G01 X51.8302 Y65.7833
G01 X51.9181 Y65.7612
G01 X51.9531 Y65.7528
G01 X52.0045 Y65.7415
G01 X52.0370 Y65.7350
G01 X52.0888 Y65.7258
G01 X52.1244 Y65.7202
G01 X52.2140 Y65.7070
G01 X52.2855 Y65.6982
G01 X52.3379 Y65.6933
G01 X52.3709 Y65.6908
G01 X52.4808 Y65.6851
G01 X52.5169 Y65.6837
G01 X52.5500 Y65.6828
G01 X52.5860 Y65.6825
G01 X54.0940 Y65.6825
G01 X54.1300 Y65.6828
G01 X54.1631 Y65.6837
G01 X54.1992 Y65.6851
G01 X54.2896 Y65.6896
G01 X54.3421 Y65.6933
G01 X54.3945 Y65.6982
G01 X54.4467 Y65.7044
G01 X54.4824 Y65.7093
G01 X54.5912 Y65.7258
G01 X54.6239 Y65.7315
G01 X54.6755 Y65.7415
G01 X54.7269 Y65.7528
G01 X54.7619 Y65.7612
G01 X54.8686 Y65.7883
G01 X54.9192 Y65.8026
G01 X54.9695 Y65.8181
G01 X55.0194 Y65.8348
G01 X55.1202 Y65.8709
G01 X55.1694 Y65.8896
G01 X55.2181 Y65.9095
G01 X55.2840 Y65.9387
G01 X55.3808 Y65.9845
G01 X55.4279 Y66.0079
G01 X55.4915 Y66.0419
G01 X55.5203 Y66.0582
G01 X55.5514 Y66.0765
G01 X55.6290 Y66.1231
G01 X55.6736 Y66.1511
G01 X55.7335 Y66.1911
G01 X55.7606 Y66.2102
G01 X55.7898 Y66.2314
G01 X55.8780 Y66.2972
G01 X55.9193 Y66.3298
G01 X55.9449 Y66.3508
G01 X55.9995 Y66.3979
G01 X56.0667 Y66.4586
G01 X56.0931 Y66.4831
G01 X56.1311 Y66.5195
G01 X56.1681 Y66.5569
G01 X56.1909 Y66.5809
G01 X56.2154 Y66.6073
G01 X56.2761 Y66.6745
G01 X56.3232 Y66.7291
G01 X56.3564 Y66.7699
G01 X56.3768 Y66.7960
G01 X56.4426 Y66.8842
G01 X56.4638 Y66.9134
G01 X56.4829 Y66.9405
G01 X56.5229 Y67.0004
G01 X56.5406 Y67.0284
G01 X56.5595 Y67.0591
G01 X56.6158 Y67.1537
G01 X56.6321 Y67.1825
G01 X56.6571 Y67.2288
G01 X56.6895 Y67.2932
G01 X56.7373 Y67.3944
G01 X56.7657 Y67.4587
G01 X56.7851 Y67.5062
G01 X56.7967 Y67.5363
G01 X56.8088 Y67.5693
G01 X56.8392 Y67.6546
G01 X56.8618 Y67.7231
G01 X56.8769 Y67.7735
G01 X56.8857 Y67.8054
G01 X56.9128 Y67.9121
G01 X56.9212 Y67.9471
G01 X56.9285 Y67.9794
G01 X56.9390 Y68.0310
G01 X56.9482 Y68.0828
G01 X56.9647 Y68.1916
G01 X56.9696 Y68.2273
G01 X56.9737 Y68.2602
G01 X56.9791 Y68.3125
G01 X56.9832 Y68.3649
G01 X56.9889 Y68.4748
G01 X56.9903 Y68.5109
G01 X56.9914 Y68.5634
G01 X56.9912 Y68.6160
G01 X56.9896 Y68.6686
G01 X56.9844 Y68.7756
G01 X56.9807 Y68.8281
G01 X56.9758 Y68.8805
G01 X56.9696 Y68.9327
G01 X56.9647 Y68.9684
G01 X56.9482 Y69.0772
G01 X56.9390 Y69.1290
G01 X56.9325 Y69.1615
G01 X56.9167 Y69.2318
G01 X56.8948 Y69.3197
G01 X56.8857 Y69.3546
G01 X56.8714 Y69.4052
G01 X56.8559 Y69.4555
G01 X56.8392 Y69.5054
G01 X56.8031 Y69.6062
G01 X56.7844 Y69.6554
G01 X56.7645 Y69.7041
G01 X56.7434 Y69.7523
G01 X56.6976 Y69.8500
G01 X56.7419 Y69.9444
G01 X56.7629 Y69.9922
G01 X56.7761 Y70.0238
G01 X56.7959 Y70.0744
G01 X56.8029 Y70.0932
G01 X56.8337 Y70.1790
G01 X56.8456 Y70.2131
G01 X56.8559 Y70.2445
G01 X56.8714 Y70.2948
G01 X56.8907 Y70.3642
G01 X56.9128 Y70.4521
G01 X56.9212 Y70.4871
G01 X56.9285 Y70.5194
G01 X56.9390 Y70.5710
G01 X56.9513 Y70.6420
G01 X56.9647 Y70.7316
G01 X56.9696 Y70.7673
G01 X56.9758 Y70.8195
G01 X56.9807 Y70.8719
G01 X56.9832 Y70.9049
G01 X56.9853 Y70.9409
G01 X56.9896 Y71.0314
G01 X56.9914 Y71.1034
G01 X56.9912 Y71.1560
G01 X56.9903 Y71.1891
G01 X56.9853 Y71.2991
G01 X56.9832 Y71.3351
G01 X56.9807 Y71.3681
G01 X56.9737 Y71.4398
G01 X56.9696 Y71.4727
G01 X56.9647 Y71.5084
G01 X56.9482 Y71.6172
G01 X56.9425 Y71.6499
G01 X56.9325 Y71.7015
G01 X56.9212 Y71.7529
G01 X56.8948 Y71.8597
G01 X56.8857 Y71.8946
G01 X56.8769 Y71.9265
G01 X56.8618 Y71.9769
G01 X56.8456 Y72.0269
G01 X56.8337 Y72.0610
G01 X56.7963 Y72.1645
G01 X56.7772 Y72.2135
G01 X56.7568 Y72.2620
G01 X56.7353 Y72.3100
G01 X56.6976 Y72.3900
G01 X56.7419 Y72.4844
G01 X56.7629 Y72.5322
G01 X56.7761 Y72.5638
G01 X56.7959 Y72.6144
G01 X56.8029 Y72.6332
G01 X56.8337 Y72.7190
G01 X56.8456 Y72.7531
G01 X56.8559 Y72.7845
G01 X56.8714 Y72.8348
G01 X56.8907 Y72.9042
G01 X56.9128 Y72.9921
G01 X56.9212 Y73.0271
G01 X56.9285 Y73.0594
G01 X56.9390 Y73.1110
G01 X56.9513 Y73.1820
G01 X56.9647 Y73.2716
G01 X56.9696 Y73.3073
G01 X56.9737 Y73.3402
G01 X56.9791 Y73.3925
G01 X56.9832 Y73.4449
G01 X56.9853 Y73.4809
G01 X56.9903 Y73.5909
G01 X56.9914 Y73.6434
G01 X56.9914 Y73.6766
G01 X56.9903 Y73.7291
G01 X56.9889 Y73.7652
G01 X56.9844 Y73.8556
G01 X56.9807 Y73.9081
G01 X56.9758 Y73.9605
G01 X56.9696 Y74.0127
G01 X56.9647 Y74.0484
G01 X56.9513 Y74.1380
G01 X56.9390 Y74.2090
G01 X56.9325 Y74.2415
G01 X56.9212 Y74.2929
G01 X56.8948 Y74.3997
G01 X56.8857 Y74.4346
G01 X56.8769 Y74.4665
G01 X56.8618 Y74.5169
G01 X56.8456 Y74.5669
G01 X56.8337 Y74.6010
G01 X56.8031 Y74.6862
G01 X56.7844 Y74.7354
G01 X56.7645 Y74.7841
G01 X56.7434 Y74.8323
G01 X56.7283 Y74.8650
G01 X56.6895 Y74.9468
G01 X56.6571 Y75.0112
G01 X56.6321 Y75.0575
G01 X56.6158 Y75.0863
G01 X56.5975 Y75.1174
G01 X56.5406 Y75.2116
G01 X56.5123 Y75.2559
G01 X56.4939 Y75.2835
G01 X56.4638 Y75.3266
G01 X56.4426 Y75.3558
G01 X56.3886 Y75.4285
G01 X56.3564 Y75.4701
G01 X56.3107 Y75.5258
G01 X56.2761 Y75.5655
G01 X56.2042 Y75.6449
G01 X56.1545 Y75.6971
G01 X56.1171 Y75.7341
G01 X56.0931 Y75.7569
G01 X56.0118 Y75.8311
G01 X55.9849 Y75.8550
G01 X55.9598 Y75.8767
G01 X55.9193 Y75.9102
G01 X55.8625 Y75.9546
G01 X55.7764 Y76.0184
G01 X55.7175 Y76.0599
G01 X55.6736 Y76.0889
G01 X55.6456 Y76.1066
G01 X55.6149 Y76.1255
G01 X55.5203 Y76.1818
G01 X55.4915 Y76.1981
G01 X55.4452 Y76.2231
G01 X55.3983 Y76.2469
G01 X55.2990 Y76.2943
G01 X55.2403 Y76.3210
G01 X55.1902 Y76.3421
G01 X55.1396 Y76.3619
G01 X55.0350 Y76.3997
G01 X55.0009 Y76.4116
G01 X54.9695 Y76.4219
G01 X54.9005 Y76.4429
G01 X54.8686 Y76.4517
G01 X54.8337 Y76.4608
G01 X54.7458 Y76.4827
G01 X54.6755 Y76.4985
G01 X54.6430 Y76.5050
G01 X54.5912 Y76.5142
G01 X54.4824 Y76.5307
G01 X54.4467 Y76.5356
G01 X54.4138 Y76.5397
G01 X54.3421 Y76.5467
G01 X54.2896 Y76.5504
G01 X54.1992 Y76.5549
G01 X54.1631 Y76.5563
G01 X54.1300 Y76.5572
G01 X54.0940 Y76.5575
G01 X52.5694 Y76.5574
G01 X52.4974 Y76.5556
G01 X52.3904 Y76.5504
G01 X52.3185 Y76.5451
G01 X52.2662 Y76.5397
G01 X52.2333 Y76.5356
G01 X52.1976 Y76.5307
G01 X52.0888 Y76.5142
G01 X52.0370 Y76.5050
G01 X51.9854 Y76.4945
G01 X51.9531 Y76.4872
G01 X51.9181 Y76.4788
G01 X51.8114 Y76.4517
G01 X51.7608 Y76.4374
G01 X51.7105 Y76.4219
G01 X51.6791 Y76.4116
G01 X51.6450 Y76.3997
G01 X51.5415 Y76.3623
G01 X51.4925 Y76.3432
G01 X51.4440 Y76.3228
G01 X51.4137 Y76.3094
G01 X51.3810 Y76.2943
G01 X51.2817 Y76.2469
G01 X51.2348 Y76.2231
G01 X51.2056 Y76.2075
G01 X51.1642 Y76.1843
G01 X49.5300 Y76.1843
G01 X49.4940 Y76.1840
G01 X49.4414 Y76.1824
G01 X49.3709 Y76.1790
G01 X49.3185 Y76.1754
G01 X49.2661 Y76.1704
G01 X49.2139 Y76.1642
G01 X49.1782 Y76.1593
G01 X49.1248 Y76.1513
G01 X49.0729 Y76.1425
G01 X49.0213 Y76.1325
G01 X48.9699 Y76.1212
G01 X48.8986 Y76.1037
G01 X48.8637 Y76.0946
G01 X48.8318 Y76.0858
G01 X48.7814 Y76.0707
G01 X48.7314 Y76.0544
G01 X48.6973 Y76.0426
G01 X48.6283 Y76.0176
G01 X48.5793 Y75.9984
G01 X48.5308 Y75.9781
G01 X48.4828 Y75.9565
G01 X48.4191 Y75.9264
G01 X48.3720 Y75.9029
G01 X48.3255 Y75.8784
G01 X48.2796 Y75.8526
G01 X48.2401 Y75.8293
G01 X48.2746 Y75.8841
G01 X48.3015 Y75.9293
G01 X48.3178 Y75.9581
G01 X48.3518 Y76.0217
G01 X48.3752 Y76.0688
G01 X48.3975 Y76.1164
G01 X48.4186 Y76.1646
G01 X48.4312 Y76.1952
G01 X48.4504 Y76.2442
G01 X48.4747 Y76.3120
G01 X48.4851 Y76.3435
G01 X48.5006 Y76.3938
G01 X48.5148 Y76.4444
G01 X48.5278 Y76.4954
G01 X48.5436 Y76.5657
G01 X48.5536 Y76.6173
G01 X48.5593 Y76.6499
G01 X48.5673 Y76.7019
G01 X48.5739 Y76.7541
G01 X48.5810 Y76.8258
G01 X48.5834 Y76.8589
G01 X48.5863 Y76.9114
G01 X48.5878 Y76.9640
G01 X48.5881 Y77.0000
G01 X48.5881 Y78.7000
G01 X48.5878 Y78.7360
G01 X48.5870 Y78.7691
G01 X48.5834 Y78.8411
G01 X48.5793 Y78.8936
G01 X48.5739 Y78.9459
G01 X48.5673 Y78.9981
G01 X48.5593 Y79.0501
G01 X48.5536 Y79.0827
G01 X48.5436 Y79.1343
G01 X48.5323 Y79.1857
G01 X48.5148 Y79.2556
G01 X48.5060 Y79.2875
G01 X48.4909 Y79.3379
G01 X48.4683 Y79.4064
G01 X48.4504 Y79.4558
G01 X48.4312 Y79.5048
G01 X48.4186 Y79.5354
G01 X48.3894 Y79.6013
G01 X48.3752 Y79.6312
G01 X48.3518 Y79.6783
G01 X48.3272 Y79.7248
G01 X48.2916 Y79.7875
G01 X48.2644 Y79.8325
G01 X48.2467 Y79.8605
G01 X48.2066 Y79.9204
G01 X48.1762 Y79.9633
G01 X48.1564 Y79.9899
G01 X48.1243 Y80.0315
G01 X48.0785 Y80.0872
G01 X48.0569 Y80.1123
G01 X48.0218 Y80.1514
G01 X47.9721 Y80.2036
G01 X47.9486 Y80.2271
G01 X47.9107 Y80.2635
G01 X47.8719 Y80.2990
G01 X47.8173 Y80.3461
G01 X47.7917 Y80.3671
G01 X47.7504 Y80.3996
G01 X47.6925 Y80.4426
G01 X47.6654 Y80.4616
G01 X47.6218 Y80.4911
G01 X47.5609 Y80.5296
G01 X47.5157 Y80.5565
G01 X47.4869 Y80.5728
G01 X47.4406 Y80.5978
G01 X47.3762 Y80.6302
G01 X47.3286 Y80.6525
G01 X47.2983 Y80.6659
G01 X47.2498 Y80.6862
G01 X47.1826 Y80.7122
G01 X47.1330 Y80.7297
G01 X47.1015 Y80.7401
G01 X47.0325 Y80.7610
G01 X47.0006 Y80.7698
G01 X46.9496 Y80.7828
G01 X46.8984 Y80.7946
G01 X46.8468 Y80.8051
G01 X46.7951 Y80.8143
G01 X46.7238 Y80.8249
G01 X46.6715 Y80.8311
G01 X46.6192 Y80.8360
G01 X46.5667 Y80.8396
G01 X46.5141 Y80.8420
G01 X46.4810 Y80.8428
G01 X46.4450 Y80.8431
G01 X44.9784 Y80.8430
G01 X44.9064 Y80.8413
G01 X44.8539 Y80.8384
G01 X44.8014 Y80.8343
G01 X44.7685 Y80.8311
G01 X44.7162 Y80.8249
G01 X44.6449 Y80.8143
G01 X44.5932 Y80.8051
G01 X44.5416 Y80.7946
G01 X44.5093 Y80.7873
G01 X44.4500 Y80.7726
G01 X44.3907 Y80.7873
G01 X44.3393 Y80.7986
G01 X44.3068 Y80.8051
G01 X44.2551 Y80.8143
G01 X44.2031 Y80.8223
G01 X44.1509 Y80.8289
G01 X44.0986 Y80.8343
G01 X44.0461 Y80.8384
G01 X43.9741 Y80.8420
G01 X43.9410 Y80.8428
G01 X43.9050 Y80.8431
G01 X42.4550 Y80.8431
G01 X42.4190 Y80.8428
G01 X42.3859 Y80.8420
G01 X42.3139 Y80.8384
G01 X42.2614 Y80.8343
G01 X42.2285 Y80.8311
G01 X42.1762 Y80.8249
G01 X42.1049 Y80.8143
G01 X42.0532 Y80.8051
G01 X42.0016 Y80.7946
G01 X41.9693 Y80.7873
G01 X41.9100 Y80.7726
G01 X41.8507 Y80.7873
G01 X41.7993 Y80.7986
G01 X41.7668 Y80.8051
G01 X41.7151 Y80.8143
G01 X41.6631 Y80.8223
G01 X41.6109 Y80.8289
G01 X41.5586 Y80.8343
G01 X41.5061 Y80.8384
G01 X41.4341 Y80.8420
G01 X41.4010 Y80.8428
G01 X41.3650 Y80.8431
G01 X39.9150 Y80.8431
G01 X39.8790 Y80.8428
G01 X39.8264 Y80.8413
G01 X39.7739 Y80.8384
G01 X39.7408 Y80.8360
G01 X39.6691 Y80.8289
G01 X39.6362 Y80.8249
G01 X39.5842 Y80.8174
G01 X39.5132 Y80.8051
G01 X39.4616 Y80.7946
G01 X39.4104 Y80.7828
G01 X39.3782 Y80.7748
G01 X39.3088 Y80.7556
G01 X39.2771 Y80.7459
G01 X39.2270 Y80.7297
G01 X39.1774 Y80.7122
G01 X39.1102 Y80.6862
G01 X39.0617 Y80.6659
G01 X39.0314 Y80.6525
G01 X38.9663 Y80.6216
G01 X38.9367 Y80.6068
G01 X38.8902 Y80.5822
G01 X38.8275 Y80.5466
G01 X38.7991 Y80.5296
G01 X38.7545 Y80.5017
G01 X38.7106 Y80.4727
G01 X38.6517 Y80.4312
G01 X38.6096 Y80.3996
G01 X38.5683 Y80.3671
G01 X38.5278 Y80.3335
G01 X38.4881 Y80.2990
G01 X38.4493 Y80.2635
G01 X38.4114 Y80.2271
G01 X38.3879 Y80.2036
G01 X38.3515 Y80.1657
G01 X38.3160 Y80.1269
G01 X38.2815 Y80.0872
G01 X38.2479 Y80.0467
G01 X38.2036 Y79.9899
G01 X38.1724 Y79.9475
G01 X38.1423 Y79.9044
G01 X38.1133 Y79.8605
G01 X38.0854 Y79.8159
G01 X38.0684 Y79.7875
G01 X38.0422 Y79.7419
G01 X38.0082 Y79.6783
G01 X37.9848 Y79.6312
G01 X37.9625 Y79.5836
G01 X37.9414 Y79.5354
G01 X37.9215 Y79.4867
G01 X37.9028 Y79.4376
G01 X37.8853 Y79.3880
G01 X37.8691 Y79.3379
G01 X37.8540 Y79.2875
G01 X37.8452 Y79.2556
G01 X37.8322 Y79.2046
G01 X37.8204 Y79.1534
G01 X37.8099 Y79.1018
G01 X37.7976 Y79.0308
G01 X37.7901 Y78.9788
G01 X37.7839 Y78.9265
G01 X37.7790 Y78.8742
G01 X37.7754 Y78.8217
G01 X37.7730 Y78.7691
G01 X37.7722 Y78.7360
G01 X37.7719 Y78.7000
G01 X37.7719 Y77.0000
G01 X37.7722 Y76.9640
G01 X37.7737 Y76.9114
G01 X37.7754 Y76.8783
G01 X37.7790 Y76.8258
G01 X37.7839 Y76.7735
G01 X37.7927 Y76.7019
G01 X37.8007 Y76.6499
G01 X37.8064 Y76.6173
G01 X37.8164 Y76.5657
G01 X37.8277 Y76.5143
G01 X37.8452 Y76.4444
G01 X37.8594 Y76.3938
G01 X37.8691 Y76.3621
G01 X37.8853 Y76.3120
G01 X37.9028 Y76.2624
G01 X37.9288 Y76.1952
G01 X37.9414 Y76.1646
G01 X37.9625 Y76.1164
G01 X37.9848 Y76.0688
G01 X38.0172 Y76.0044
G01 X38.0422 Y75.9581
G01 X38.0684 Y75.9125
G01 X38.0854 Y75.8841
G01 X38.1099 Y75.8450
G01 X38.1122 Y74.9143
G01 X29.1576 Y74.9143
G01 X29.2018 Y74.9252
G01 X29.2525 Y74.9390
G01 X29.3215 Y74.9599
G01 X29.3530 Y74.9703
G01 X29.4026 Y74.9878
G01 X29.4698 Y75.0138
G01 X29.5183 Y75.0341
G01 X29.5486 Y75.0475
G01 X29.6137 Y75.0784
G01 X29.6433 Y75.0932
G01 X29.6898 Y75.1178
G01 X29.7525 Y75.1534
G01 X29.7809 Y75.1704
G01 X29.8255 Y75.1983
G01 X29.8854 Y75.2384
G01 X29.9125 Y75.2574
G01 X29.9549 Y75.2886
G01 X30.0117 Y75.3329
G01 X30.0522 Y75.3665
G01 X30.0773 Y75.3881
G01 X30.1307 Y75.4365
G01 X30.1547 Y75.4593
G01 X30.1921 Y75.4964
G01 X30.2418 Y75.5486
G01 X30.2769 Y75.5877
G01 X30.2985 Y75.6128
G01 X30.3443 Y75.6685
G01 X30.3646 Y75.6946
G01 X30.3962 Y75.7367
G01 X30.4377 Y75.7956
G01 X30.4667 Y75.8395
G01 X30.4844 Y75.8675
G01 X30.5215 Y75.9293
G01 X30.5378 Y75.9581
G01 X30.5628 Y76.0044
G01 X30.5952 Y76.0688
G01 X30.6175 Y76.1164
G01 X30.6309 Y76.1467
G01 X30.6585 Y76.2133
G01 X30.6772 Y76.2624
G01 X30.6883 Y76.2936
G01 X30.7109 Y76.3621
G01 X30.7206 Y76.3938
G01 X30.7348 Y76.4444
G01 X30.7523 Y76.5143
G01 X30.7636 Y76.5657
G01 X30.7701 Y76.5982
G01 X30.7824 Y76.6692
G01 X30.7899 Y76.7212
G01 X30.7939 Y76.7541
G01 X30.8010 Y76.8258
G01 X30.8034 Y76.8589
G01 X30.8063 Y76.9114
G01 X30.8078 Y76.9640
G01 X30.8081 Y77.0000
G01 X30.8080 Y78.7166
G01 X30.8070 Y78.7691
G01 X30.8046 Y78.8217
G01 X30.8010 Y78.8742
G01 X30.7961 Y78.9265
G01 X30.7899 Y78.9788
G01 X30.7824 Y79.0308
G01 X30.7701 Y79.1018
G01 X30.7596 Y79.1534
G01 X30.7478 Y79.2046
G01 X30.7398 Y79.2368
G01 X30.7260 Y79.2875
G01 X30.7109 Y79.3379
G01 X30.6883 Y79.4064
G01 X30.6704 Y79.4558
G01 X30.6512 Y79.5048
G01 X30.6309 Y79.5533
G01 X30.6175 Y79.5836
G01 X30.5952 Y79.6312
G01 X30.5718 Y79.6783
G01 X30.5472 Y79.7248
G01 X30.5215 Y79.7707
G01 X30.4844 Y79.8325
G01 X30.4561 Y79.8768
G01 X30.4377 Y79.9044
G01 X30.4076 Y79.9475
G01 X30.3764 Y79.9899
G01 X30.3443 Y80.0315
G01 X30.3111 Y80.0723
G01 X30.2640 Y80.1269
G01 X30.2285 Y80.1657
G01 X30.1921 Y80.2036
G01 X30.1686 Y80.2271
G01 X30.1307 Y80.2635
G01 X30.0919 Y80.2990
G01 X30.0522 Y80.3335
G01 X29.9965 Y80.3793
G01 X29.9549 Y80.4114
G01 X29.9283 Y80.4312
G01 X29.8694 Y80.4727
G01 X29.8255 Y80.5017
G01 X29.7975 Y80.5194
G01 X29.7357 Y80.5565
G01 X29.7069 Y80.5728
G01 X29.6606 Y80.5978
G01 X29.5962 Y80.6302
G01 X29.5486 Y80.6525
G01 X29.5004 Y80.6736
G01 X29.4698 Y80.6862
G01 X29.4208 Y80.7054
G01 X29.3530 Y80.7297
G01 X29.3215 Y80.7401
G01 X29.2712 Y80.7556
G01 X29.2018 Y80.7748
G01 X29.1696 Y80.7828
G01 X29.1184 Y80.7946
G01 X29.0477 Y80.8086
G01 X28.9958 Y80.8174
G01 X28.9438 Y80.8249
G01 X28.8915 Y80.8311
G01 X28.8586 Y80.8343
G01 X28.7867 Y80.8396
G01 X28.7341 Y80.8420
G01 X28.7010 Y80.8428
G01 X28.6650 Y80.8431
G01 X27.2150 Y80.8431
G01 X27.1790 Y80.8428
G01 X27.1459 Y80.8420
G01 X27.0933 Y80.8396
G01 X27.0408 Y80.8360
G01 X26.9885 Y80.8311
G01 X26.9169 Y80.8223
G01 X26.8842 Y80.8174
G01 X26.8323 Y80.8086
G01 X26.7807 Y80.7986
G01 X26.7293 Y80.7873
G01 X26.6700 Y80.7726
G01 X26.6107 Y80.7873
G01 X26.5593 Y80.7986
G01 X26.5268 Y80.8051
G01 X26.4751 Y80.8143
G01 X26.4038 Y80.8249
G01 X26.3515 Y80.8311
G01 X26.3186 Y80.8343
G01 X26.2661 Y80.8384
G01 X26.1941 Y80.8420
G01 X26.1416 Y80.8430
G01 X24.6750 Y80.8431
G01 X24.6390 Y80.8428
G01 X24.6059 Y80.8420
G01 X24.5533 Y80.8396
G01 X24.5008 Y80.8360
G01 X24.4485 Y80.8311
G01 X24.3769 Y80.8223
G01 X24.3442 Y80.8174
G01 X24.2923 Y80.8086
G01 X24.2407 Y80.7986
G01 X24.1893 Y80.7873
G01 X24.1300 Y80.7726
G01 X24.0707 Y80.7873
G01 X24.0193 Y80.7986
G01 X23.9677 Y80.8086
G01 X23.9351 Y80.8143
G01 X23.8831 Y80.8223
G01 X23.8115 Y80.8311
G01 X23.7592 Y80.8360
G01 X23.7261 Y80.8384
G01 X23.6736 Y80.8413
G01 X23.6210 Y80.8428
G01 X23.5850 Y80.8431
G01 X22.1350 Y80.8431
G01 X22.0990 Y80.8428
G01 X22.0464 Y80.8413
G01 X21.9939 Y80.8384
G01 X21.9608 Y80.8360
G01 X21.9085 Y80.8311
G01 X21.8369 Y80.8223
G01 X21.7849 Y80.8143
G01 X21.7332 Y80.8051
G01 X21.6816 Y80.7946
G01 X21.6304 Y80.7828
G01 X21.5982 Y80.7748
G01 X21.5288 Y80.7556
G01 X21.4785 Y80.7401
G01 X21.4470 Y80.7297
G01 X21.3792 Y80.7054
G01 X21.3483 Y80.6935
G01 X21.2996 Y80.6736
G01 X21.2337 Y80.6444
G01 X21.1863 Y80.6216
G01 X21.1394 Y80.5978
G01 X21.1102 Y80.5822
G01 X21.0475 Y80.5466
G01 X21.0191 Y80.5296
G01 X20.9745 Y80.5017
G01 X20.9146 Y80.4616
G01 X20.8875 Y80.4426
G01 X20.8451 Y80.4114
G01 X20.8035 Y80.3793
G01 X20.7478 Y80.3335
G01 X20.7227 Y80.3119
G01 X20.6836 Y80.2768
G01 X20.6314 Y80.2271
G01 X20.5943 Y80.1897
G01 X20.5582 Y80.1514
G01 X20.5360 Y80.1269
G01 X20.4889 Y80.0723
G01 X20.4557 Y80.0315
G01 X20.4354 Y80.0054
G01 X20.3924 Y79.9475
G01 X20.3623 Y79.9044
G01 X20.3333 Y79.8605
G01 X20.3156 Y79.8325
G01 X20.2785 Y79.7707
G01 X20.2622 Y79.7419
G01 X20.2372 Y79.6956
G01 X20.2048 Y79.6312
G01 X20.1825 Y79.5836
G01 X20.1691 Y79.5533
G01 X20.1415 Y79.4867
G01 X20.1228 Y79.4376
G01 X20.1117 Y79.4064
G01 X20.0891 Y79.3379
G01 X20.0740 Y79.2875
G01 X20.0602 Y79.2368
G01 X20.0522 Y79.2046
G01 X20.0404 Y79.1534
G01 X20.0264 Y79.0827
G01 X20.0176 Y79.0308
G01 X20.0101 Y78.9788
G01 X20.0061 Y78.9459
G01 X20.0007 Y78.8936
G01 X19.9954 Y78.8217
G01 X19.9930 Y78.7691
G01 X19.9922 Y78.7360
G01 X19.9919 Y78.7000
G01 X19.9919 Y77.0000
G01 X19.9922 Y76.9640
G01 X19.9937 Y76.9114
G01 X19.9966 Y76.8589
G01 X19.9990 Y76.8258
G01 X20.0039 Y76.7735
G01 X20.0127 Y76.7019
G01 X20.0207 Y76.6499
G01 X20.0264 Y76.6173
G01 X20.0364 Y76.5657
G01 X20.0522 Y76.4954
G01 X20.0652 Y76.4444
G01 X20.0740 Y76.4125
G01 X20.0891 Y76.3621
G01 X20.1053 Y76.3120
G01 X20.1296 Y76.2442
G01 X20.1488 Y76.1952
G01 X20.1691 Y76.1467
G01 X20.1825 Y76.1164
G01 X20.2048 Y76.0688
G01 X20.2372 Y76.0044
G01 X20.2622 Y75.9581
G01 X20.2785 Y75.9293
G01 X20.3054 Y75.8841
G01 X20.3357 Y75.8359
G00 Z5.0000
G00 X21.6851 Y76.3462
G01 F190.00
G01 Z-0.2200
G01 F400.00
G01 X21.6853 Y73.6405
G01 X21.6890 Y73.5642
G01 X21.6929 Y73.5255
G01 X21.7041 Y73.4499
G01 X21.7117 Y73.4117
G01 X21.7302 Y73.3376
G01 X21.7415 Y73.3004
G01 X21.7673 Y73.2285
G01 X21.7822 Y73.1925
G01 X21.8063 Y73.1409
G01 X21.8238 Y73.1061
G01 X21.8332 Y73.0891
G01 X21.8622 Y73.0402
G01 X21.8834 Y73.0067
G01 X21.8943 Y72.9909
G01 X21.9278 Y72.9453
G01 X21.9518 Y72.9146
G01 X21.9772 Y72.8851
G01 X22.0156 Y72.8431
G01 X23.2992 Y71.5592
G01 X23.3131 Y71.5456
G01 X23.3558 Y71.5066
G01 X23.3850 Y71.4815
G01 X23.4153 Y71.4578
G01 X23.4612 Y71.4241
G01 X23.4936 Y71.4024
G01 X23.5422 Y71.3730
G01 X23.5761 Y71.3538
G01 X23.6109 Y71.3363
G01 X23.6625 Y71.3122
G01 X23.6985 Y71.2973
G01 X23.7519 Y71.2779
G01 X23.7704 Y71.2715
G01 X23.8076 Y71.2602
G01 X23.8628 Y71.2462
G01 X23.9008 Y71.2376
G01 X23.9392 Y71.2310
G01 X23.9955 Y71.2229
G01 X24.0148 Y71.2207
G01 X24.0537 Y71.2179
G01 X24.1105 Y71.2153
G01 X24.1300 Y71.2151
G01 X48.2600 Y71.2151
G01 X48.2989 Y71.2160
G01 X48.3558 Y71.2190
G01 X48.3752 Y71.2207
G01 X48.4138 Y71.2255
G01 X48.4701 Y71.2341
G01 X48.4892 Y71.2376
G01 X48.5272 Y71.2462
G01 X48.5824 Y71.2602
G01 X48.6196 Y71.2715
G01 X48.6733 Y71.2905
G01 X48.7096 Y71.3045
G01 X48.7452 Y71.3203
G01 X48.7966 Y71.3448
G01 X48.8309 Y71.3632
G01 X48.8798 Y71.3922
G01 X48.9121 Y71.4126
G01 X48.9446 Y71.4355
G01 X48.9902 Y71.4696
G01 X49.0203 Y71.4943
G01 X49.0626 Y71.5323
G01 X49.0908 Y71.5592
G01 X50.0167 Y72.4851
G01 X51.4673 Y72.4851
G01 X51.4012 Y72.4539
G01 X51.3664 Y72.4364
G01 X51.3325 Y72.4172
G01 X51.2737 Y72.3819
G01 X51.2408 Y72.3611
G01 X51.2089 Y72.3386
G01 X51.1538 Y72.2978
G01 X51.1231 Y72.2738
G01 X51.0936 Y72.2483
G01 X51.0285 Y72.1890
G01 X47.6417 Y68.8026
G01 X25.4000 Y68.8026
G01 X25.3611 Y68.8016
G01 X25.2926 Y68.7983
G01 X25.2537 Y68.7954
G01 X25.2343 Y68.7933
G01 X25.1280 Y68.7775
G01 X25.0897 Y68.7699
G01 X25.0516 Y68.7606
G01 X25.0293 Y68.7582
G01 X24.9908 Y68.7525
G01 X24.9716 Y68.7489
G01 X24.9336 Y68.7404
G01 X24.8960 Y68.7300
G01 X24.8775 Y68.7241
G01 X24.8590 Y68.7177
G01 X24.8227 Y68.7037
G01 X24.8048 Y68.6961
G01 X24.7696 Y68.6794
G01 X24.7352 Y68.6610
G01 X24.7018 Y68.6410
G01 X24.6855 Y68.6304
G01 X24.6536 Y68.6079
G01 X24.6381 Y68.5961
G01 X24.6206 Y68.5821
G01 X24.5871 Y68.5617
G01 X24.5547 Y68.5400
G01 X24.4683 Y68.4760
G01 X24.4382 Y68.4513
G01 X24.3728 Y68.3923
G01 X24.3446 Y68.3654
G01 X24.3310 Y68.3515
G01 X24.2717 Y68.2864
G01 X24.2465 Y68.2573
G01 X24.2222 Y68.2262
G01 X24.1700 Y68.1553
G01 X24.1483 Y68.1229
G01 X24.1279 Y68.0894
G01 X24.1139 Y68.0719
G01 X24.1021 Y68.0564
G01 X24.0796 Y68.0245
G01 X24.0690 Y68.0082
G01 X24.0490 Y67.9748
G01 X24.0306 Y67.9404
G01 X24.0221 Y67.9229
G01 X24.0063 Y67.8873
G01 X23.9923 Y67.8510
G01 X23.9800 Y67.8140
G01 X23.9696 Y67.7764
G01 X23.9611 Y67.7384
G01 X23.9544 Y67.7000
G01 X23.9518 Y67.6807
G01 X23.9494 Y67.6584
G01 X23.9401 Y67.6203
G01 X23.9325 Y67.5820
G01 X23.9194 Y67.4950
G01 X23.9167 Y67.4757
G01 X23.9129 Y67.4369
G01 X23.9084 Y67.3489
G01 X23.9074 Y67.3100
G01 X23.9084 Y67.2711
G01 X23.9129 Y67.1831
G01 X23.9167 Y67.1443
G01 X23.9194 Y67.1250
G01 X23.9325 Y67.0380
G01 X23.9401 Y66.9997
G01 X23.9494 Y66.9616
G01 X23.9518 Y66.9393
G01 X23.9544 Y66.9200
G01 X23.9611 Y66.8816
G01 X23.9696 Y66.8436
G01 X23.9800 Y66.8060
G01 X23.9923 Y66.7690
G01 X24.0063 Y66.7327
G01 X24.0221 Y66.6971
G01 X24.0306 Y66.6796
G01 X24.0490 Y66.6452
G01 X24.0690 Y66.6118
G01 X24.0796 Y66.5955
G01 X24.1021 Y66.5636
G01 X24.1139 Y66.5481
G01 X24.1279 Y66.5306
G01 X24.1483 Y66.4971
G01 X24.1700 Y66.4647
G01 X24.2222 Y66.3938
G01 X24.2462 Y66.3631
G01 X24.2717 Y66.3336
G01 X24.3310 Y66.2685
G01 X24.3585 Y66.2410
G01 X24.4236 Y66.1817
G01 X24.4387 Y66.1683
G01 X24.4685 Y66.1439
G01 X24.5547 Y66.0800
G01 X24.5871 Y66.0583
G01 X24.6206 Y66.0379
G01 X24.6381 Y66.0239
G01 X24.6536 Y66.0121
G01 X24.6855 Y65.9896
G01 X24.7018 Y65.9790
G01 X24.7352 Y65.9590
G01 X24.7523 Y65.9496
G01 X24.7871 Y65.9321
G01 X24.8048 Y65.9239
G01 X24.8408 Y65.9090
G01 X24.8590 Y65.9023
G01 X24.8960 Y65.8900
G01 X24.9336 Y65.8796
G01 X24.9525 Y65.8751
G01 X24.9908 Y65.8675
G01 X25.0293 Y65.8618
G01 X25.0516 Y65.8594
G01 X25.0897 Y65.8501
G01 X25.1280 Y65.8425
G01 X25.2343 Y65.8267
G01 X25.2731 Y65.8229
G01 X25.2926 Y65.8217
G01 X25.3611 Y65.8184
G01 X25.4000 Y65.8174
G01 X48.2600 Y65.8174
G01 X48.2989 Y65.8184
G01 X48.3869 Y65.8229
G01 X48.4257 Y65.8267
G01 X48.5128 Y65.8394
G01 X48.5512 Y65.8461
G01 X48.5892 Y65.8546
G01 X48.6557 Y65.8713
G01 X48.6933 Y65.8817
G01 X48.7303 Y65.8939
G01 X48.7948 Y65.9170
G01 X48.8312 Y65.9310
G01 X48.8668 Y65.9468
G01 X48.9288 Y65.9761
G01 X48.9636 Y65.9936
G01 X48.9975 Y66.0128
G01 X49.0563 Y66.0481
G01 X49.0729 Y66.0583
G01 X49.1053 Y66.0800
G01 X49.1762 Y66.1322
G01 X49.2069 Y66.1562
G01 X49.2364 Y66.1817
G01 X49.2872 Y66.2277
G01 X49.3154 Y66.2546
G01 X51.1267 Y68.0658
G01 X51.1417 Y68.0239
G01 X51.1557 Y67.9876
G01 X51.1715 Y67.9519
G01 X51.2117 Y67.8675
G01 X51.2301 Y67.8332
G01 X51.2882 Y67.7362
G01 X51.2988 Y67.7199
G01 X51.3212 Y67.6881
G01 X51.3653 Y67.6286
G01 X51.3893 Y67.5979
G01 X51.4147 Y67.5684
G01 X51.4644 Y67.5135
G01 X51.4913 Y67.4853
G01 X51.5053 Y67.4717
G01 X51.5890 Y67.3958
G01 X51.6039 Y67.3833
G01 X51.6346 Y67.3593
G01 X51.6941 Y67.3152
G01 X51.7259 Y67.2928
G01 X51.7588 Y67.2719
G01 X51.8223 Y67.2339
G01 X51.8392 Y67.2241
G01 X51.8735 Y67.2057
G01 X51.9579 Y67.1655
G01 X51.9770 Y67.1568
G01 X52.0121 Y67.1423
G01 X52.1180 Y67.1044
G01 X52.1366 Y67.0985
G01 X52.1742 Y67.0881
G01 X52.2649 Y67.0657
G01 X52.3031 Y67.0581
G01 X52.3956 Y67.0441
G01 X52.4343 Y67.0393
G01 X52.4731 Y67.0365
G01 X52.5665 Y67.0321
G01 X54.0940 Y67.0319
G01 X54.1329 Y67.0328
G01 X54.2069 Y67.0365
G01 X54.2457 Y67.0393
G01 X54.2844 Y67.0441
G01 X54.3576 Y67.0550
G01 X54.3960 Y67.0616
G01 X54.4340 Y67.0702
G01 X54.5058 Y67.0881
G01 X54.5434 Y67.0985
G01 X54.5804 Y67.1108
G01 X54.6501 Y67.1357
G01 X54.6864 Y67.1497
G01 X54.7221 Y67.1655
G01 X54.8065 Y67.2057
G01 X54.8408 Y67.2241
G01 X54.9212 Y67.2719
G01 X54.9541 Y67.2928
G01 X54.9859 Y67.3152
G01 X55.0454 Y67.3593
G01 X55.0761 Y67.3833
G01 X55.1056 Y67.4087
G01 X55.1605 Y67.4584
G01 X55.1887 Y67.4853
G01 X55.2156 Y67.5135
G01 X55.2782 Y67.5830
G01 X55.3029 Y67.6131
G01 X55.3588 Y67.6881
G01 X55.3812 Y67.7199
G01 X55.4021 Y67.7528
G01 X55.4401 Y67.8163
G01 X55.4593 Y67.8502
G01 X55.4768 Y67.8850
G01 X55.5085 Y67.9519
G01 X55.5172 Y67.9710
G01 X55.5247 Y67.9885
G01 X55.5383 Y68.0239
G01 X55.5632 Y68.0936
G01 X55.5755 Y68.1306
G01 X55.5859 Y68.1682
G01 X55.6038 Y68.2400
G01 X55.6124 Y68.2780
G01 X55.6190 Y68.3164
G01 X55.6325 Y68.4089
G01 X55.6363 Y68.4477
G01 X55.6412 Y68.5411
G01 X55.6421 Y68.5800
G01 X55.6412 Y68.6189
G01 X55.6363 Y68.7123
G01 X55.6325 Y68.7511
G01 X55.6299 Y68.7704
G01 X55.6159 Y68.8629
G01 X55.6083 Y68.9011
G01 X55.5859 Y68.9918
G01 X55.5755 Y69.0294
G01 X55.5632 Y69.0664
G01 X55.5315 Y69.1544
G01 X55.5166 Y69.1903
G01 X55.4768 Y69.2750
G01 X55.4683 Y69.2925
G01 X55.4499 Y69.3268
G01 X55.4021 Y69.4072
G01 X55.3812 Y69.4401
G01 X55.3588 Y69.4719
G01 X55.3029 Y69.5469
G01 X55.2782 Y69.5770
G01 X55.2653 Y69.5916
G01 X55.2023 Y69.6607
G01 X55.1747 Y69.6883
G01 X55.1056 Y69.7513
G01 X55.0761 Y69.7767
G01 X55.0454 Y69.8007
G01 X54.9787 Y69.8500
G01 X55.0454 Y69.8993
G01 X55.0761 Y69.9233
G01 X55.1056 Y69.9487
G01 X55.1605 Y69.9984
G01 X55.1887 Y70.0253
G01 X55.2023 Y70.0393
G01 X55.2653 Y70.1084
G01 X55.2907 Y70.1379
G01 X55.3147 Y70.1686
G01 X55.3702 Y70.2438
G01 X55.3812 Y70.2599
G01 X55.4021 Y70.2928
G01 X55.4401 Y70.3563
G01 X55.4593 Y70.3902
G01 X55.4768 Y70.4250
G01 X55.5085 Y70.4919
G01 X55.5238 Y70.5264
G01 X55.5313 Y70.5450
G01 X55.5383 Y70.5639
G01 X55.5696 Y70.6520
G01 X55.5809 Y70.6893
G01 X55.5859 Y70.7082
G01 X55.6038 Y70.7800
G01 X55.6124 Y70.8180
G01 X55.6190 Y70.8564
G01 X55.6325 Y70.9489
G01 X55.6363 Y70.9877
G01 X55.6412 Y71.0811
G01 X55.6421 Y71.1200
G01 X55.6419 Y71.1395
G01 X55.6375 Y71.2329
G01 X55.6347 Y71.2717
G01 X55.6299 Y71.3104
G01 X55.6190 Y71.3836
G01 X55.6159 Y71.4029
G01 X55.6083 Y71.4411
G01 X55.5809 Y71.5507
G01 X55.5696 Y71.5880
G01 X55.5315 Y71.6944
G01 X55.5166 Y71.7303
G01 X55.4683 Y71.8325
G01 X55.4499 Y71.8668
G01 X55.3918 Y71.9638
G01 X55.3702 Y71.9962
G01 X55.3029 Y72.0869
G01 X55.2782 Y72.1170
G01 X55.2023 Y72.2007
G01 X55.1747 Y72.2283
G01 X55.0910 Y72.3042
G01 X55.0609 Y72.3289
G01 X54.9787 Y72.3900
G01 X55.0454 Y72.4393
G01 X55.0761 Y72.4633
G01 X55.1056 Y72.4887
G01 X55.1605 Y72.5384
G01 X55.1747 Y72.5517
G01 X55.2023 Y72.5793
G01 X55.2653 Y72.6484
G01 X55.2907 Y72.6779
G01 X55.3147 Y72.7086
G01 X55.3702 Y72.7838
G01 X55.3918 Y72.8162
G01 X55.4021 Y72.8328
G01 X55.4401 Y72.8963
G01 X55.4593 Y72.9302
G01 X55.4768 Y72.9650
G01 X55.5158 Y73.0479
G01 X55.5238 Y73.0664
G01 X55.5313 Y73.0850
G01 X55.5383 Y73.1039
G01 X55.5632 Y73.1736
G01 X55.5755 Y73.2106
G01 X55.5859 Y73.2482
G01 X55.6083 Y73.3389
G01 X55.6159 Y73.3771
G01 X55.6190 Y73.3964
G01 X55.6299 Y73.4696
G01 X55.6347 Y73.5083
G01 X55.6375 Y73.5471
G01 X55.6419 Y73.6405
G01 X55.6419 Y73.6795
G01 X55.6412 Y73.6989
G01 X55.6363 Y73.7923
G01 X55.6325 Y73.8311
G01 X55.6190 Y73.9236
G01 X55.6124 Y73.9620
G01 X55.6038 Y74.0000
G01 X55.5859 Y74.0718
G01 X55.5809 Y74.0907
G01 X55.5696 Y74.1280
G01 X55.5315 Y74.2344
G01 X55.5166 Y74.2703
G01 X55.5085 Y74.2881
G01 X55.4768 Y74.3550
G01 X55.4593 Y74.3898
G01 X55.4401 Y74.4237
G01 X55.3918 Y74.5038
G01 X55.3812 Y74.5201
G01 X55.3588 Y74.5519
G01 X55.3147 Y74.6114
G01 X55.2907 Y74.6421
G01 X55.2653 Y74.6716
G01 X55.2156 Y74.7265
G01 X55.2023 Y74.7407
G01 X55.1747 Y74.7683
G01 X55.1056 Y74.8313
G01 X55.0761 Y74.8567
G01 X55.0454 Y74.8807
G01 X54.9702 Y74.9362
G01 X54.9541 Y74.9472
G01 X54.9212 Y74.9681
G01 X54.8577 Y75.0061
G01 X54.8238 Y75.0253
G01 X54.7890 Y75.0428
G01 X54.7061 Y75.0818
G01 X54.6876 Y75.0898
G01 X54.6690 Y75.0973
G01 X54.6501 Y75.1043
G01 X54.5620 Y75.1356
G01 X54.5247 Y75.1469
G01 X54.4340 Y75.1698
G01 X54.4151 Y75.1743
G01 X54.3769 Y75.1819
G01 X54.2844 Y75.1959
G01 X54.2457 Y75.2007
G01 X54.2069 Y75.2035
G01 X54.1329 Y75.2072
G01 X54.0940 Y75.2081
G01 X52.5860 Y75.2081
G01 X52.5471 Y75.2072
G01 X52.4731 Y75.2035
G01 X52.4343 Y75.2007
G01 X52.3956 Y75.1959
G01 X52.3031 Y75.1819
G01 X52.2649 Y75.1743
G01 X52.1742 Y75.1519
G01 X52.1366 Y75.1415
G01 X52.0996 Y75.1292
G01 X52.0299 Y75.1043
G01 X51.9936 Y75.0903
G01 X51.9579 Y75.0745
G01 X51.8910 Y75.0428
G01 X51.8562 Y75.0253
G01 X51.8223 Y75.0061
G01 X51.7588 Y74.9681
G01 X51.7259 Y74.9472
G01 X51.6941 Y74.9248
G01 X51.6191 Y74.8689
G01 X51.6039 Y74.8567
G01 X51.5785 Y74.8349
G01 X49.5300 Y74.8349
G01 X49.5105 Y74.8347
G01 X49.4537 Y74.8321
G01 X49.4148 Y74.8293
G01 X49.3955 Y74.8271
G01 X49.3392 Y74.8190
G01 X49.3008 Y74.8124
G01 X49.2817 Y74.8083
G01 X49.2076 Y74.7898
G01 X49.1889 Y74.7843
G01 X49.1519 Y74.7721
G01 X49.0985 Y74.7527
G01 X49.0804 Y74.7455
G01 X49.0625 Y74.7378
G01 X49.0109 Y74.7137
G01 X48.9761 Y74.6962
G01 X48.9591 Y74.6868
G01 X48.8946 Y74.6482
G01 X48.8779 Y74.6374
G01 X48.8454 Y74.6145
G01 X48.7998 Y74.5804
G01 X48.7846 Y74.5682
G01 X48.7697 Y74.5557
G01 X48.7274 Y74.5177
G01 X48.6992 Y74.4908
G01 X47.7733 Y73.5649
G01 X43.8188 Y73.5649
G01 X43.8448 Y73.5790
G01 X43.8616 Y73.5888
G01 X43.8945 Y73.6096
G01 X43.9264 Y73.6321
G01 X43.9419 Y73.6439
G01 X43.9594 Y73.6579
G01 X43.9929 Y73.6783
G01 X44.0253 Y73.7000
G01 X44.1117 Y73.7640
G01 X44.1418 Y73.7887
G01 X44.2072 Y73.8477
G01 X44.2354 Y73.8746
G01 X44.2623 Y73.9028
G01 X44.3208 Y73.9676
G01 X44.3335 Y73.9827
G01 X44.3578 Y74.0138
G01 X44.4100 Y74.0847
G01 X44.4317 Y74.1171
G01 X44.4521 Y74.1506
G01 X44.4661 Y74.1681
G01 X44.4779 Y74.1836
G01 X44.4894 Y74.1994
G01 X44.5110 Y74.2318
G01 X44.5310 Y74.2652
G01 X44.5404 Y74.2823
G01 X44.5494 Y74.2996
G01 X44.5661 Y74.3348
G01 X44.5737 Y74.3527
G01 X44.5877 Y74.3890
G01 X44.6000 Y74.4260
G01 X44.6104 Y74.4636
G01 X44.6189 Y74.5016
G01 X44.6256 Y74.5400
G01 X44.6282 Y74.5593
G01 X44.6306 Y74.5816
G01 X44.6399 Y74.6197
G01 X44.6439 Y74.6388
G01 X44.6506 Y74.6772
G01 X44.6606 Y74.7450
G01 X44.6654 Y74.7837
G01 X44.6683 Y74.8226
G01 X44.6716 Y74.8911
G01 X44.6726 Y74.9300
G01 X44.6726 Y76.2747
G01 X44.6912 Y76.2667
G01 X44.7093 Y76.2594
G01 X44.7460 Y76.2463
G01 X44.7833 Y76.2350
G01 X44.8211 Y76.2255
G01 X44.8593 Y76.2179
G01 X44.8978 Y76.2122
G01 X44.9366 Y76.2084
G01 X44.9755 Y76.2065
G01 X46.4450 Y76.2062
G01 X46.4645 Y76.2065
G01 X46.5034 Y76.2084
G01 X46.5422 Y76.2122
G01 X46.5615 Y76.2148
G01 X46.5999 Y76.2215
G01 X46.6379 Y76.2300
G01 X46.6567 Y76.2350
G01 X46.6754 Y76.2404
G01 X46.7124 Y76.2526
G01 X46.7488 Y76.2667
G01 X46.7667 Y76.2743
G01 X46.8019 Y76.2910
G01 X46.8362 Y76.3094
G01 X46.8697 Y76.3294
G01 X46.9020 Y76.3510
G01 X46.9178 Y76.3625
G01 X46.9333 Y76.3742
G01 X46.9635 Y76.3990
G01 X46.9923 Y76.4251
G01 X47.0199 Y76.4527
G01 X47.0460 Y76.4815
G01 X47.0586 Y76.4965
G01 X47.0825 Y76.5272
G01 X47.1050 Y76.5590
G01 X47.1156 Y76.5753
G01 X47.1356 Y76.6088
G01 X47.1540 Y76.6431
G01 X47.1625 Y76.6606
G01 X47.1783 Y76.6962
G01 X47.1924 Y76.7326
G01 X47.2046 Y76.7696
G01 X47.2150 Y76.8071
G01 X47.2235 Y76.8451
G01 X47.2271 Y76.8643
G01 X47.2328 Y76.9028
G01 X47.2366 Y76.9416
G01 X47.2385 Y76.9805
G01 X47.2388 Y78.7000
G01 X47.2378 Y78.7389
G01 X47.2349 Y78.7778
G01 X47.2302 Y78.8165
G01 X47.2235 Y78.8549
G01 X47.2195 Y78.8739
G01 X47.2100 Y78.9117
G01 X47.1987 Y78.9490
G01 X47.1924 Y78.9674
G01 X47.1783 Y79.0038
G01 X47.1707 Y79.0217
G01 X47.1625 Y79.0394
G01 X47.1450 Y79.0742
G01 X47.1356 Y79.0912
G01 X47.1156 Y79.1247
G01 X47.0940 Y79.1570
G01 X47.0825 Y79.1728
G01 X47.0708 Y79.1883
G01 X47.0460 Y79.2185
G01 X47.0199 Y79.2473
G01 X47.0063 Y79.2613
G01 X46.9781 Y79.2881
G01 X46.9485 Y79.3136
G01 X46.9333 Y79.3258
G01 X46.9020 Y79.3490
G01 X46.8697 Y79.3706
G01 X46.8531 Y79.3808
G01 X46.8362 Y79.3906
G01 X46.8019 Y79.4090
G01 X46.7844 Y79.4175
G01 X46.7488 Y79.4333
G01 X46.7307 Y79.4406
G01 X46.6940 Y79.4537
G01 X46.6567 Y79.4650
G01 X46.6379 Y79.4700
G01 X46.5999 Y79.4785
G01 X46.5615 Y79.4852
G01 X46.5422 Y79.4878
G01 X46.5034 Y79.4916
G01 X46.4645 Y79.4935
G01 X46.4450 Y79.4938
G01 X44.9950 Y79.4938
G01 X44.9561 Y79.4928
G01 X44.9172 Y79.4899
G01 X44.8978 Y79.4878
G01 X44.8593 Y79.4821
G01 X44.8211 Y79.4745
G01 X44.7833 Y79.4650
G01 X44.7460 Y79.4537
G01 X44.7276 Y79.4474
G01 X44.7093 Y79.4406
G01 X44.6733 Y79.4257
G01 X44.6556 Y79.4175
G01 X44.6208 Y79.4000
G01 X44.5869 Y79.3808
G01 X44.5540 Y79.3600
G01 X44.5380 Y79.3490
G01 X44.5067 Y79.3258
G01 X44.4765 Y79.3010
G01 X44.4500 Y79.2770
G01 X44.4235 Y79.3010
G01 X44.3933 Y79.3258
G01 X44.3620 Y79.3490
G01 X44.3460 Y79.3600
G01 X44.3131 Y79.3808
G01 X44.2962 Y79.3906
G01 X44.2619 Y79.4090
G01 X44.2267 Y79.4257
G01 X44.1907 Y79.4406
G01 X44.1724 Y79.4474
G01 X44.1540 Y79.4537
G01 X44.1167 Y79.4650
G01 X44.0979 Y79.4700
G01 X44.0599 Y79.4785
G01 X44.0215 Y79.4852
G01 X43.9828 Y79.4899
G01 X43.9439 Y79.4928
G01 X43.9050 Y79.4938
G01 X42.4550 Y79.4938
G01 X42.4161 Y79.4928
G01 X42.3772 Y79.4899
G01 X42.3385 Y79.4852
G01 X42.3193 Y79.4821
G01 X42.2811 Y79.4745
G01 X42.2433 Y79.4650
G01 X42.2246 Y79.4596
G01 X42.1876 Y79.4474
G01 X42.1512 Y79.4333
G01 X42.1156 Y79.4175
G01 X42.0808 Y79.4000
G01 X42.0469 Y79.3808
G01 X42.0303 Y79.3706
G01 X41.9980 Y79.3490
G01 X41.9667 Y79.3258
G01 X41.9365 Y79.3010
G01 X41.9100 Y79.2770
G01 X41.8835 Y79.3010
G01 X41.8533 Y79.3258
G01 X41.8220 Y79.3490
G01 X41.8060 Y79.3600
G01 X41.7731 Y79.3808
G01 X41.7562 Y79.3906
G01 X41.7219 Y79.4090
G01 X41.6867 Y79.4257
G01 X41.6507 Y79.4406
G01 X41.6324 Y79.4474
G01 X41.6140 Y79.4537
G01 X41.5767 Y79.4650
G01 X41.5579 Y79.4700
G01 X41.5199 Y79.4785
G01 X41.4815 Y79.4852
G01 X41.4428 Y79.4899
G01 X41.4039 Y79.4928
G01 X41.3650 Y79.4938
G01 X39.8955 Y79.4935
G01 X39.8566 Y79.4916
G01 X39.8178 Y79.4878
G01 X39.7985 Y79.4852
G01 X39.7601 Y79.4785
G01 X39.7221 Y79.4700
G01 X39.7033 Y79.4650
G01 X39.6846 Y79.4596
G01 X39.6476 Y79.4474
G01 X39.6112 Y79.4333
G01 X39.5933 Y79.4257
G01 X39.5581 Y79.4090
G01 X39.5238 Y79.3906
G01 X39.5069 Y79.3808
G01 X39.4740 Y79.3600
G01 X39.4422 Y79.3375
G01 X39.4115 Y79.3136
G01 X39.3965 Y79.3010
G01 X39.3677 Y79.2749
G01 X39.3401 Y79.2473
G01 X39.3140 Y79.2185
G01 X39.2892 Y79.1883
G01 X39.2660 Y79.1570
G01 X39.2444 Y79.1247
G01 X39.2244 Y79.0912
G01 X39.2060 Y79.0569
G01 X39.1893 Y79.0217
G01 X39.1744 Y78.9857
G01 X39.1613 Y78.9490
G01 X39.1500 Y78.9117
G01 X39.1405 Y78.8739
G01 X39.1329 Y78.8357
G01 X39.1272 Y78.7972
G01 X39.1234 Y78.7584
G01 X39.1215 Y78.7195
G01 X39.1212 Y78.7000
G01 X39.1212 Y77.0000
G01 X39.1222 Y76.9611
G01 X39.1251 Y76.9222
G01 X39.1272 Y76.9028
G01 X39.1329 Y76.8643
G01 X39.1405 Y76.8261
G01 X39.1450 Y76.8071
G01 X39.1554 Y76.7696
G01 X39.1676 Y76.7326
G01 X39.1744 Y76.7143
G01 X39.1817 Y76.6962
G01 X39.1975 Y76.6606
G01 X39.2150 Y76.6258
G01 X39.2244 Y76.6088
G01 X39.2444 Y76.5753
G01 X39.2660 Y76.5430
G01 X39.2775 Y76.5272
G01 X39.3014 Y76.4965
G01 X39.3269 Y76.4669
G01 X39.3401 Y76.4527
G01 X39.3677 Y76.4251
G01 X39.3965 Y76.3990
G01 X39.4267 Y76.3742
G01 X39.4422 Y76.3625
G01 X39.4651 Y76.3462
G01 X39.4651 Y73.5649
G01 X26.0388 Y73.5649
G01 X26.0648 Y73.5790
G01 X26.0816 Y73.5888
G01 X26.1145 Y73.6096
G01 X26.1464 Y73.6321
G01 X26.1619 Y73.6439
G01 X26.1794 Y73.6579
G01 X26.2129 Y73.6783
G01 X26.2453 Y73.7000
G01 X26.3317 Y73.7640
G01 X26.3618 Y73.7887
G01 X26.4272 Y73.8477
G01 X26.4554 Y73.8746
G01 X26.4823 Y73.9028
G01 X26.5408 Y73.9676
G01 X26.5658 Y73.9981
G01 X26.5778 Y74.0138
G01 X26.6300 Y74.0847
G01 X26.6517 Y74.1171
G01 X26.6721 Y74.1506
G01 X26.6861 Y74.1681
G01 X26.6979 Y74.1836
G01 X26.7204 Y74.2155
G01 X26.7310 Y74.2318
G01 X26.7510 Y74.2652
G01 X26.7604 Y74.2823
G01 X26.7779 Y74.3171
G01 X26.7937 Y74.3527
G01 X26.8010 Y74.3708
G01 X26.8077 Y74.3890
G01 X26.8200 Y74.4260
G01 X26.8304 Y74.4636
G01 X26.8389 Y74.5016
G01 X26.8456 Y74.5400
G01 X26.8482 Y74.5593
G01 X26.8506 Y74.5816
G01 X26.8599 Y74.6197
G01 X26.8639 Y74.6388
G01 X26.8706 Y74.6772
G01 X26.8806 Y74.7450
G01 X26.8854 Y74.7837
G01 X26.8883 Y74.8226
G01 X26.8916 Y74.8911
G01 X26.8926 Y74.9300
G01 X26.8926 Y76.2747
G01 X26.9112 Y76.2667
G01 X26.9293 Y76.2594
G01 X26.9660 Y76.2463
G01 X27.0033 Y76.2350
G01 X27.0411 Y76.2255
G01 X27.0793 Y76.2179
G01 X27.1178 Y76.2122
G01 X27.1566 Y76.2084
G01 X27.1955 Y76.2065
G01 X28.6650 Y76.2062
G01 X28.6845 Y76.2065
G01 X28.7234 Y76.2084
G01 X28.7622 Y76.2122
G01 X28.7815 Y76.2148
G01 X28.8199 Y76.2215
G01 X28.8579 Y76.2300
G01 X28.8767 Y76.2350
G01 X28.9140 Y76.2463
G01 X28.9507 Y76.2594
G01 X28.9688 Y76.2667
G01 X28.9867 Y76.2743
G01 X29.0219 Y76.2910
G01 X29.0562 Y76.3094
G01 X29.0731 Y76.3192
G01 X29.1060 Y76.3400
G01 X29.1378 Y76.3625
G01 X29.1685 Y76.3864
G01 X29.1835 Y76.3990
G01 X29.2123 Y76.4251
G01 X29.2399 Y76.4527
G01 X29.2660 Y76.4815
G01 X29.2786 Y76.4965
G01 X29.3025 Y76.5272
G01 X29.3140 Y76.5430
G01 X29.3356 Y76.5753
G01 X29.3556 Y76.6088
G01 X29.3740 Y76.6431
G01 X29.3825 Y76.6606
G01 X29.3983 Y76.6962
G01 X29.4124 Y76.7326
G01 X29.4187 Y76.7510
G01 X29.4300 Y76.7883
G01 X29.4395 Y76.8261
G01 X29.4471 Y76.8643
G01 X29.4528 Y76.9028
G01 X29.4566 Y76.9416
G01 X29.4585 Y76.9805
G01 X29.4588 Y78.7000
G01 X29.4578 Y78.7389
G01 X29.4549 Y78.7778
G01 X29.4528 Y78.7972
G01 X29.4471 Y78.8357
G01 X29.4395 Y78.8739
G01 X29.4350 Y78.8929
G01 X29.4246 Y78.9304
G01 X29.4187 Y78.9490
G01 X29.4056 Y78.9857
G01 X29.3907 Y79.0217
G01 X29.3825 Y79.0394
G01 X29.3650 Y79.0742
G01 X29.3556 Y79.0912
G01 X29.3458 Y79.1081
G01 X29.3250 Y79.1410
G01 X29.3025 Y79.1728
G01 X29.2908 Y79.1883
G01 X29.2786 Y79.2035
G01 X29.2531 Y79.2331
G01 X29.2263 Y79.2613
G01 X29.2123 Y79.2749
G01 X29.1835 Y79.3010
G01 X29.1685 Y79.3136
G01 X29.1533 Y79.3258
G01 X29.1220 Y79.3490
G01 X29.0897 Y79.3706
G01 X29.0731 Y79.3808
G01 X29.0562 Y79.3906
G01 X29.0219 Y79.4090
G01 X28.9867 Y79.4257
G01 X28.9688 Y79.4333
G01 X28.9324 Y79.4474
G01 X28.9140 Y79.4537
G01 X28.8767 Y79.4650
G01 X28.8579 Y79.4700
G01 X28.8199 Y79.4785
G01 X28.7815 Y79.4852
G01 X28.7428 Y79.4899
G01 X28.7234 Y79.4916
G01 X28.6845 Y79.4935
G01 X28.6650 Y79.4938
G01 X27.2150 Y79.4938
G01 X27.1761 Y79.4928
G01 X27.1372 Y79.4899
G01 X27.0985 Y79.4852
G01 X27.0601 Y79.4785
G01 X27.0221 Y79.4700
G01 X27.0033 Y79.4650
G01 X26.9846 Y79.4596
G01 X26.9476 Y79.4474
G01 X26.9293 Y79.4406
G01 X26.8933 Y79.4257
G01 X26.8756 Y79.4175
G01 X26.8408 Y79.4000
G01 X26.8069 Y79.3808
G01 X26.7740 Y79.3600
G01 X26.7580 Y79.3490
G01 X26.7267 Y79.3258
G01 X26.6965 Y79.3010
G01 X26.6700 Y79.2770
G01 X26.6435 Y79.3010
G01 X26.6133 Y79.3258
G01 X26.5820 Y79.3490
G01 X26.5497 Y79.3706
G01 X26.5162 Y79.3906
G01 X26.4992 Y79.4000
G01 X26.4644 Y79.4175
G01 X26.4288 Y79.4333
G01 X26.3924 Y79.4474
G01 X26.3740 Y79.4537
G01 X26.3367 Y79.4650
G01 X26.2989 Y79.4745
G01 X26.2607 Y79.4821
G01 X26.2222 Y79.4878
G01 X26.1834 Y79.4916
G01 X26.1445 Y79.4935
G01 X24.6750 Y79.4938
G01 X24.6361 Y79.4928
G01 X24.5972 Y79.4899
G01 X24.5585 Y79.4852
G01 X24.5201 Y79.4785
G01 X24.4821 Y79.4700
G01 X24.4633 Y79.4650
G01 X24.4446 Y79.4596
G01 X24.4076 Y79.4474
G01 X24.3893 Y79.4406
G01 X24.3533 Y79.4257
G01 X24.3356 Y79.4175
G01 X24.3008 Y79.4000
G01 X24.2669 Y79.3808
G01 X24.2340 Y79.3600
G01 X24.2180 Y79.3490
G01 X24.1867 Y79.3258
G01 X24.1565 Y79.3010
G01 X24.1300 Y79.2770
G01 X24.1035 Y79.3010
G01 X24.0733 Y79.3258
G01 X24.0420 Y79.3490
G01 X24.0260 Y79.3600
G01 X24.0097 Y79.3706
G01 X23.9762 Y79.3906
G01 X23.9419 Y79.4090
G01 X23.9067 Y79.4257
G01 X23.8888 Y79.4333
G01 X23.8524 Y79.4474
G01 X23.8154 Y79.4596
G01 X23.7779 Y79.4700
G01 X23.7399 Y79.4785
G01 X23.7207 Y79.4821
G01 X23.6822 Y79.4878
G01 X23.6434 Y79.4916
G01 X23.6045 Y79.4935
G01 X23.5850 Y79.4938
G01 X22.1155 Y79.4935
G01 X22.0766 Y79.4916
G01 X22.0378 Y79.4878
G01 X21.9993 Y79.4821
G01 X21.9611 Y79.4745
G01 X21.9233 Y79.4650
G01 X21.8860 Y79.4537
G01 X21.8493 Y79.4406
G01 X21.8133 Y79.4257
G01 X21.7956 Y79.4175
G01 X21.7608 Y79.4000
G01 X21.7269 Y79.3808
G01 X21.7103 Y79.3706
G01 X21.6780 Y79.3490
G01 X21.6622 Y79.3375
G01 X21.6315 Y79.3136
G01 X21.6165 Y79.3010
G01 X21.5877 Y79.2749
G01 X21.5737 Y79.2613
G01 X21.5469 Y79.2331
G01 X21.5214 Y79.2035
G01 X21.5092 Y79.1883
G01 X21.4860 Y79.1570
G01 X21.4644 Y79.1247
G01 X21.4542 Y79.1081
G01 X21.4444 Y79.0912
G01 X21.4260 Y79.0569
G01 X21.4093 Y79.0217
G01 X21.4017 Y79.0038
G01 X21.3876 Y78.9674
G01 X21.3754 Y78.9304
G01 X21.3700 Y78.9117
G01 X21.3605 Y78.8739
G01 X21.3565 Y78.8549
G01 X21.3529 Y78.8357
G01 X21.3472 Y78.7972
G01 X21.3451 Y78.7778
G01 X21.3422 Y78.7389
G01 X21.3412 Y78.7000
G01 X21.3412 Y77.0000
G01 X21.3415 Y76.9805
G01 X21.3434 Y76.9416
G01 X21.3451 Y76.9222
G01 X21.3498 Y76.8835
G01 X21.3565 Y76.8451
G01 X21.3650 Y76.8071
G01 X21.3700 Y76.7883
G01 X21.3813 Y76.7510
G01 X21.3944 Y76.7143
G01 X21.4093 Y76.6783
G01 X21.4260 Y76.6431
G01 X21.4444 Y76.6088
G01 X21.4644 Y76.5753
G01 X21.4860 Y76.5430
G01 X21.5092 Y76.5117
G01 X21.5340 Y76.4815
G01 X21.5601 Y76.4527
G01 X21.5877 Y76.4251
G01 X21.6165 Y76.3990
G01 X21.6467 Y76.3742
G01 X21.6622 Y76.3625
G01 X21.6851 Y76.3462
G00 Z5.0000
G00 X24.7612 Y73.5649
G01 F190.00
G01 Z-0.2200
G01 F400.00
G01 X24.6167 Y73.5649
G01 X24.0349 Y74.1467
G01 X24.0349 Y74.2912
G01 X24.0490 Y74.2652
G01 X24.0588 Y74.2484
G01 X24.0796 Y74.2155
G01 X24.1021 Y74.1836
G01 X24.1139 Y74.1681
G01 X24.1279 Y74.1506
G01 X24.1483 Y74.1171
G01 X24.1700 Y74.0847
G01 X24.2222 Y74.0138
G01 X24.2462 Y73.9831
G01 X24.2587 Y73.9682
G01 X24.3177 Y73.9028
G01 X24.3446 Y73.8746
G01 X24.3728 Y73.8477
G01 X24.4387 Y73.7883
G01 X24.4534 Y73.7759
G01 X24.4838 Y73.7522
G01 X24.5547 Y73.7000
G01 X24.5871 Y73.6783
G01 X24.6206 Y73.6579
G01 X24.6381 Y73.6439
G01 X24.6536 Y73.6321
G01 X24.6855 Y73.6096
G01 X24.7184 Y73.5888
G01 X24.7352 Y73.5790
G01 X24.7612 Y73.5649
G00 Z5.0000
G00 X31.6011 Y82.5500
G01 F190.00
G01 Z-0.2200
G01 F400.00
G01 X31.6634 Y82.5983
G01 X31.7174 Y82.6415
G01 X31.7749 Y82.6889
G01 X31.8401 Y82.7446
G01 X31.8858 Y82.7848
G01 X31.9471 Y82.8404
G01 X31.9916 Y82.8819
G01 X32.0534 Y82.9414
G01 X32.1062 Y82.9939
G01 X32.1545 Y83.0434
G01 X32.2057 Y83.0975
G01 X32.2636 Y83.1607
G01 X32.3150 Y83.2187
G01 X32.3635 Y83.2752
G01 X32.4182 Y83.3412
G01 X32.4564 Y83.3886
G01 X32.5074 Y83.4539
G01 X32.5441 Y83.5025
G01 X32.5948 Y83.5716
G01 X32.6378 Y83.6324
G01 X32.6770 Y83.6894
G01 X32.7182 Y83.7515
G01 X32.7644 Y83.8237
G01 X32.8051 Y83.8895
G01 X32.8433 Y83.9535
G01 X32.8859 Y84.0279
G01 X32.9154 Y84.0812
G01 X32.9545 Y84.1542
G01 X32.9823 Y84.2083
G01 X33.0205 Y84.2851
G01 X33.0241 Y84.2925
G01 X33.0313 Y84.3074
G01 X33.0348 Y84.3149
G01 X33.0525 Y84.3523
G01 X33.0847 Y84.4228
G01 X33.1113 Y84.4834
G01 X33.1446 Y84.5624
G01 X33.1673 Y84.6189
G01 X33.1971 Y84.6961
G01 X33.2182 Y84.7533
G01 X33.2466 Y84.8341
G01 X33.2702 Y84.9048
G01 X33.2911 Y84.9707
G01 X33.3125 Y85.0421
G01 X33.3358 Y85.1246
G01 X33.3515 Y85.1834
G01 X33.3716 Y85.2637
G01 X33.3855 Y85.3230
G01 X33.4038 Y85.4067
G01 X33.4186 Y85.4798
G01 X33.4327 Y85.5559
G01 X33.4438 Y85.6212
G01 X33.4568 Y85.7059
G01 X33.4652 Y85.7662
G01 X33.4734 Y85.8320
G01 X33.4810 Y85.9007
G01 X33.4881 Y85.9749
G01 X33.4924 Y86.0273
G01 X33.4983 Y86.1128
G01 X33.5018 Y86.1790
G01 X33.5039 Y86.2315
G01 X33.5057 Y86.2977
G01 X33.5066 Y86.3503
G01 X33.5069 Y86.4000
G01 X33.5069 Y86.8169
G01 X35.2617 Y85.0621
G01 X35.2769 Y85.0104
G01 X35.2939 Y84.9549
G01 X35.3228 Y84.8655
G01 X35.3507 Y84.7844
G01 X35.3829 Y84.6961
G01 X35.4157 Y84.6112
G01 X35.4354 Y84.5624
G01 X35.4577 Y84.5089
G01 X35.4953 Y84.4228
G01 X35.5310 Y84.3448
G01 X35.5717 Y84.2601
G01 X35.5977 Y84.2083
G01 X35.6217 Y84.1615
G01 X35.6685 Y84.0739
G01 X35.7145 Y83.9919
G01 X35.7536 Y83.9250
G01 X35.7835 Y83.8754
G01 X35.8111 Y83.8307
G01 X35.8618 Y83.7515
G01 X35.9170 Y83.6689
G01 X35.9469 Y83.6256
G01 X35.9804 Y83.5783
G01 X36.0359 Y83.5025
G01 X36.0878 Y83.4342
G01 X36.1461 Y83.3605
G01 X36.1828 Y83.3156
G01 X36.2165 Y83.2752
G01 X36.2759 Y83.2062
G01 X36.3386 Y83.1362
G01 X36.3969 Y83.0734
G01 X36.4622 Y83.0057
G01 X36.5031 Y82.9646
G01 X36.5406 Y82.9278
G01 X36.6125 Y82.8593
G01 X36.6819 Y82.7958
G01 X36.7399 Y82.7446
G01 X36.7839 Y82.7068
G01 X36.8242 Y82.6730
G01 X36.8972 Y82.6137
G01 X36.9789 Y82.5500
G01 X36.9166 Y82.5017
G01 X36.8562 Y82.4532
G01 X36.7902 Y82.3985
G01 X36.7212 Y82.3391
G01 X36.6512 Y82.2764
G01 X36.6065 Y82.2351
G01 X36.5406 Y82.1722
G01 X36.4796 Y82.1119
G01 X36.4255 Y82.0566
G01 X36.3610 Y81.9882
G01 X36.3108 Y81.9331
G01 X36.2596 Y81.8751
G01 X36.2039 Y81.8099
G01 X36.1461 Y81.7395
G01 X36.0878 Y81.6658
G01 X36.0508 Y81.6174
G01 X35.9966 Y81.5442
G01 X35.9469 Y81.4744
G01 X35.9030 Y81.4106
G01 X35.8618 Y81.3485
G01 X35.8111 Y81.2693
G01 X35.7706 Y81.2034
G01 X35.7269 Y81.1296
G01 X35.6819 Y81.0504
G01 X35.6371 Y80.9678
G01 X35.6089 Y80.9138
G01 X35.5681 Y80.8325
G01 X35.5310 Y80.7552
G01 X35.4987 Y80.6848
G01 X35.4687 Y80.6166
G01 X35.4323 Y80.5299
G01 X35.4036 Y80.4580
G01 X35.3732 Y80.3778
G01 X35.3479 Y80.3077
G01 X35.3254 Y80.2424
G01 X35.3022 Y80.1715
G01 X35.2769 Y80.0896
G01 X35.2553 Y80.0153
G01 X35.2356 Y79.9434
G01 X35.2143 Y79.8604
G01 X35.1963 Y79.7851
G01 X35.1802 Y79.7123
G01 X35.1630 Y79.6283
G01 X35.1517 Y79.5685
G01 X35.1362 Y79.4788
G01 X35.1232 Y79.3941
G01 X35.1148 Y79.3338
G01 X35.1047 Y79.2516
G01 X35.0990 Y79.1993
G01 X35.0926 Y79.1334
G01 X35.0882 Y79.0810
G01 X35.0834 Y79.0149
G01 X35.0803 Y78.9624
G01 X35.0772 Y78.8962
G01 X35.0753 Y78.8437
G01 X35.0741 Y78.7940
G01 X35.0731 Y78.7000
G01 X35.0731 Y77.6154
G01 X33.5069 Y77.6142
G01 X33.5069 Y78.7000
G01 X33.5059 Y78.7940
G01 X33.5047 Y78.8437
G01 X33.5028 Y78.8962
G01 X33.4997 Y78.9624
G01 X33.4966 Y79.0149
G01 X33.4918 Y79.0810
G01 X33.4874 Y79.1334
G01 X33.4810 Y79.1993
G01 X33.4753 Y79.2516
G01 X33.4641 Y79.3420
G01 X33.4519 Y79.4268
G01 X33.4424 Y79.4869
G01 X33.4283 Y79.5685
G01 X33.4170 Y79.6283
G01 X33.3998 Y79.7123
G01 X33.3837 Y79.7851
G01 X33.3657 Y79.8604
G01 X33.3444 Y79.9434
G01 X33.3247 Y80.0153
G01 X33.3031 Y80.0896
G01 X33.2778 Y80.1715
G01 X33.2546 Y80.2424
G01 X33.2321 Y80.3077
G01 X33.2068 Y80.3778
G01 X33.1764 Y80.4580
G01 X33.1477 Y80.5299
G01 X33.1113 Y80.6166
G01 X33.0813 Y80.6848
G01 X33.0490 Y80.7552
G01 X33.0119 Y80.8325
G01 X32.9711 Y80.9138
G01 X32.9429 Y80.9678
G01 X32.8981 Y81.0504
G01 X32.8531 Y81.1296
G01 X32.8094 Y81.2034
G01 X32.7689 Y81.2693
G01 X32.7182 Y81.3485
G01 X32.6770 Y81.4106
G01 X32.6331 Y81.4744
G01 X32.5834 Y81.5442
G01 X32.5292 Y81.6174
G01 X32.4922 Y81.6658
G01 X32.4339 Y81.7395
G01 X32.3761 Y81.8099
G01 X32.3204 Y81.8751
G01 X32.2692 Y81.9331
G01 X32.2190 Y81.9882
G01 X32.1545 Y82.0566
G01 X32.1004 Y82.1119
G01 X32.0394 Y82.1722
G01 X31.9735 Y82.2351
G01 X31.9288 Y82.2764
G01 X31.8588 Y82.3391
G01 X31.7898 Y82.3985
G01 X31.7238 Y82.4532
G01 X31.6634 Y82.5017
G01 X31.6011 Y82.5500
G01 X33.5135 Y82.5500
G01 X33.5762 Y82.6303
G01 X33.6254 Y82.6953
G01 X33.6884 Y82.7811
G01 X33.7387 Y82.8520
G01 X33.7850 Y82.9192
G01 X33.8425 Y83.0052
G01 X33.8868 Y83.0738
G01 X33.9410 Y83.1605
G01 X33.9923 Y83.2455
G01 X34.0375 Y83.3232
G01 X34.0842 Y83.4062
G01 X34.1329 Y83.4961
G01 X34.1726 Y83.5721
G01 X34.2173 Y83.6608
G01 X34.2529 Y83.7342
G01 X34.2900 Y83.8134
G01 X34.3271 Y83.7342
G01 X34.3627 Y83.6608
G01 X34.4074 Y83.5721
G01 X34.4471 Y83.4961
G01 X34.4958 Y83.4062
G01 X34.5425 Y83.3232
G01 X34.5877 Y83.2455
G01 X34.6390 Y83.1605
G01 X34.6932 Y83.0738
G01 X34.7375 Y83.0052
G01 X34.7950 Y82.9192
G01 X34.8413 Y82.8520
G01 X34.9030 Y82.7653
G01 X34.9546 Y82.6953
G01 X35.0038 Y82.6303
G01 X35.0665 Y82.5500
G01 X35.0038 Y82.4697
G01 X34.9546 Y82.4047
G01 X34.9030 Y82.3347
G01 X34.8413 Y82.2480
G01 X34.7950 Y82.1808
G01 X34.7375 Y82.0948
G01 X34.6932 Y82.0262
G01 X34.6390 Y81.9395
G01 X34.5877 Y81.8545
G01 X34.5425 Y81.7768
G01 X34.4958 Y81.6938
G01 X34.4471 Y81.6039
G01 X34.4074 Y81.5279
G01 X34.3627 Y81.4392
G01 X34.3271 Y81.3658
G01 X34.2900 Y81.2866
G01 X34.2529 Y81.3658
G01 X34.2173 Y81.4392
G01 X34.1726 Y81.5279
G01 X34.1329 Y81.6039
G01 X34.0842 Y81.6938
G01 X34.0375 Y81.7768
G01 X33.9923 Y81.8545
G01 X33.9410 Y81.9395
G01 X33.8868 Y82.0262
G01 X33.8425 Y82.0948
G01 X33.7850 Y82.1808
G01 X33.7387 Y82.2480
G01 X33.6770 Y82.3347
G01 X33.6254 Y82.4047
G01 X33.5762 Y82.4697
G01 X33.5135 Y82.5500
G01 X30.2892 Y94.3921
G01 X30.2555 Y94.4106
G01 X30.1943 Y94.4429
G01 X30.1500 Y94.4653
G01 X30.1036 Y94.4880
G01 X30.1500 Y94.5107
G01 X30.1943 Y94.5331
G01 X30.2555 Y94.5654
G01 X30.2892 Y94.5839
G01 X30.2892 Y94.3921
G01 X26.5384 Y94.4880
G01 X26.4920 Y94.4653
G01 X26.4477 Y94.4429
G01 X26.4158 Y94.4262
G01 X26.3720 Y94.4027
G01 X26.3116 Y94.3689
G01 X26.2662 Y94.3424
G01 X26.2236 Y94.3168
G01 X26.1930 Y94.2978
G01 X26.1348 Y94.2605
G01 X26.0636 Y94.2127
G01 X26.0038 Y94.1704
G01 X25.9489 Y94.1334
G01 X25.8948 Y94.0953
G01 X25.8523 Y94.0643
G01 X25.7707 Y94.0035
G01 X25.7160 Y93.9613
G01 X25.6749 Y93.9284
G01 X25.6366 Y93.8968
G01 X25.5840 Y93.8519
G01 X25.5384 Y93.8115
G01 X25.4814 Y93.7599
G01 X25.4427 Y93.7243
G01 X25.4067 Y93.6901
G01 X25.3690 Y93.6534
G01 X25.3340 Y93.6182
G01 X25.2861 Y93.5683
G01 X25.2615 Y93.5420
G01 X25.1930 Y93.4668
G01 X25.1593 Y93.4290
G01 X25.1272 Y93.3919
G01 X25.0931 Y93.3515
G01 X25.0613 Y93.3126
G01 X25.0179 Y93.2576
G01 X24.9806 Y93.2085
G01 X24.9298 Y93.1401
G01 X24.9037 Y93.1042
G01 X24.8751 Y93.0637
G01 X24.8546 Y93.0340
G01 X24.8286 Y92.9952
G01 X24.7957 Y92.9490
G01 X24.7660 Y92.9056
G01 X24.7385 Y92.8642
G01 X24.7012 Y92.8060
G01 X24.6736 Y92.7612
G01 X24.6481 Y92.7185
G01 X24.6137 Y92.6585
G01 X24.5963 Y92.6270
G01 X24.5728 Y92.5832
G01 X24.5486 Y92.5366
G01 X24.5263 Y92.4921
G01 X24.4964 Y92.4298
G01 X24.4745 Y92.3819
G01 X24.4545 Y92.3365
G01 X24.4277 Y92.2727
G01 X24.4082 Y92.2239
G01 X24.3904 Y92.1775
G01 X24.3668 Y92.1125
G01 X24.3497 Y92.0628
G01 X24.3283 Y91.9970
G01 X24.3138 Y91.9495
G01 X24.2991 Y91.8990
G01 X24.2810 Y91.8322
G01 X24.2649 Y91.7680
G01 X24.2494 Y91.7006
G01 X24.2419 Y91.6653
G01 X24.2289 Y91.6004
G01 X24.2198 Y91.5496
G01 X24.0331 Y91.7348
G01 X23.9895 Y91.7773
G01 X23.9331 Y91.8304
G01 X23.8532 Y91.9027
G01 X23.8010 Y91.9482
G01 X23.7735 Y91.9715
G01 X23.7071 Y92.0257
G01 X23.6394 Y92.0782
G01 X23.5528 Y92.1425
G01 X23.5169 Y92.1684
G01 X23.4762 Y92.1969
G01 X23.4189 Y92.2356
G01 X23.3887 Y92.2554
G01 X23.3468 Y92.2820
G01 X23.3091 Y92.3053
G01 X23.2451 Y92.3439
G01 X23.1998 Y92.3705
G01 X23.1251 Y92.4126
G01 X23.0813 Y92.4361
G01 X23.0346 Y92.4603
G01 X22.9902 Y92.4825
G01 X22.9503 Y92.5019
G01 X22.8930 Y92.5290
G01 X22.8434 Y92.5518
G01 X22.7991 Y92.5715
G01 X22.7519 Y92.5916
G01 X22.7071 Y92.6100
G01 X22.6443 Y92.6345
G01 X22.5887 Y92.6552
G01 X22.5269 Y92.6773
G01 X22.4882 Y92.6907
G01 X22.4423 Y92.7061
G01 X22.3917 Y92.7222
G01 X22.3429 Y92.7369
G01 X22.3074 Y92.7471
G01 X22.2583 Y92.7607
G01 X22.2061 Y92.7742
G01 X22.1336 Y92.7922
G01 X22.0905 Y92.8024
G01 X22.0420 Y92.8132
G01 X21.9742 Y92.8270
G01 X21.9388 Y92.8337
G01 X21.8543 Y92.8481
G01 X21.7351 Y92.8658
G01 X21.6675 Y92.8744
G01 X21.6322 Y92.8784
G01 X21.5481 Y92.8863
G01 X21.4992 Y92.8900
G01 X21.4556 Y92.8928
G01 X21.3814 Y92.8965
G01 X21.3288 Y92.8987
G01 X21.2792 Y92.9000
G01 X21.2349 Y92.9006
G01 X21.2741 Y92.9118
G01 X21.3375 Y92.9311
G01 X21.4033 Y92.9524
G01 X21.4452 Y92.9668
G01 X21.7465 Y93.0745
G01 X21.8035 Y93.0957
G01 X21.8679 Y93.1209
G01 X21.9470 Y93.1539
G01 X21.9925 Y93.1739
G01 X22.0328 Y93.1923
G01 X22.3220 Y93.3290
G01 X22.3768 Y93.3557
G01 X22.4211 Y93.3781
G01 X22.4530 Y93.3948
G01 X22.5139 Y93.4277
G01 X22.5571 Y93.4521
G01 X22.5955 Y93.4743
G01 X22.8699 Y93.6387
G01 X22.9218 Y93.6706
G01 X22.9800 Y93.7079
G01 X23.0511 Y93.7557
G01 X23.1211 Y93.8053
G01 X23.3782 Y93.9957
G01 X23.4333 Y94.0375
G01 X23.4724 Y94.0681
G01 X23.5260 Y94.1118
G01 X23.5663 Y94.1456
G01 X23.6038 Y94.1781
G01 X23.6431 Y94.2131
G01 X23.8617 Y94.4113
G01 X23.9063 Y94.4527
G01 X23.9423 Y94.4871
G01 X23.9914 Y94.5357
G01 X24.0166 Y94.5614
G01 X24.0756 Y94.6237
G01 X24.2906 Y94.8606
G01 X24.3365 Y94.9123
G01 X24.3814 Y94.9649
G01 X24.4130 Y95.0033
G01 X24.4458 Y95.0443
G01 X24.4763 Y95.0835
G01 X24.5080 Y95.1255
G01 X24.6788 Y95.3559
G01 X24.7194 Y95.4119
G01 X24.7590 Y95.4686
G01 X24.7867 Y95.5099
G01 X24.8064 Y95.5400
G01 X24.8331 Y95.5819
G01 X24.8650 Y95.6338
G01 X24.9581 Y95.7890
G01 X24.9920 Y95.7445
G01 X25.0226 Y95.7054
G01 X25.0662 Y95.6517
G01 X25.1001 Y95.6115
G01 X25.1326 Y95.5739
G01 X25.1676 Y95.5346
G01 X25.2304 Y95.4655
G01 X25.2835 Y95.4091
G01 X25.3260 Y95.3655
G01 X25.3714 Y95.3202
G01 X25.4036 Y95.2889
G01 X25.4467 Y95.2480
G01 X25.4814 Y95.2161
G01 X25.5595 Y95.1456
G01 X25.6111 Y95.1008
G01 X25.6509 Y95.0673
G01 X25.7040 Y95.0242
G01 X25.7557 Y94.9839
G01 X25.7972 Y94.9526
G01 X25.8790 Y94.8922
G01 X25.9353 Y94.8521
G01 X25.9650 Y94.8316
G01 X26.0038 Y94.8056
G01 X26.0636 Y94.7633
G01 X26.1348 Y94.7155
G01 X26.1930 Y94.6782
G01 X26.2378 Y94.6506
G01 X26.2805 Y94.6251
G01 X26.3405 Y94.5907
G01 X26.3865 Y94.5654
G01 X26.4304 Y94.5421
G01 X26.4920 Y94.5107
G01 X26.5384 Y94.4880
G01 X26.8250 Y98.0706
G01 X26.8317 Y98.0322
G01 X26.8402 Y97.9942
G01 X26.8618 Y97.9088
G01 X26.8732 Y97.8715
G01 X26.9038 Y97.7854
G01 X26.9133 Y97.7570
G01 X26.9200 Y97.7388
G01 X26.9273 Y97.7207
G01 X26.9431 Y97.6851
G01 X26.9606 Y97.6503
G01 X26.9798 Y97.6164
G01 X26.9933 Y97.5947
G01 X27.0439 Y97.5105
G01 X27.0656 Y97.4781
G01 X27.1178 Y97.4072
G01 X27.1296 Y97.3917
G01 X27.1543 Y97.3616
G01 X27.2133 Y97.2962
G01 X27.2402 Y97.2680
G01 X27.2810 Y97.2276
G01 X27.3452 Y97.1691
G01 X27.3744 Y97.1439
G01 X27.4048 Y97.1202
G01 X27.4757 Y97.0680
G01 X27.5081 Y97.0463
G01 X27.5416 Y97.0259
G01 X27.5591 Y97.0119
G01 X27.5746 Y97.0001
G01 X27.6065 Y96.9776
G01 X27.6228 Y96.9670
G01 X27.6394 Y96.9568
G01 X27.6733 Y96.9376
G01 X27.7081 Y96.9201
G01 X27.7437 Y96.9043
G01 X27.7800 Y96.8903
G01 X27.8170 Y96.8780
G01 X27.8358 Y96.8726
G01 X27.8735 Y96.8631
G01 X27.9118 Y96.8555
G01 X27.9310 Y96.8524
G01 X27.9503 Y96.8498
G01 X27.9726 Y96.8474
G01 X28.0107 Y96.8381
G01 X28.0490 Y96.8305
G01 X28.1360 Y96.8174
G01 X28.1747 Y96.8126
G01 X28.2136 Y96.8097
G01 X28.3015 Y96.8056
G01 X28.3405 Y96.8056
G01 X28.3599 Y96.8064
G01 X28.4284 Y96.8097
G01 X28.4673 Y96.8126
G01 X28.5060 Y96.8174
G01 X28.5930 Y96.8305
G01 X28.6313 Y96.8381
G01 X28.6694 Y96.8474
G01 X28.6917 Y96.8498
G01 X28.7110 Y96.8524
G01 X28.7494 Y96.8591
G01 X28.7874 Y96.8676
G01 X28.8250 Y96.8780
G01 X28.8620 Y96.8903
G01 X28.8802 Y96.8970
G01 X28.9162 Y96.9119
G01 X28.9514 Y96.9286
G01 X28.9687 Y96.9376
G01 X29.0026 Y96.9568
G01 X29.0192 Y96.9670
G01 X29.0516 Y96.9886
G01 X29.0829 Y97.0119
G01 X29.1004 Y97.0259
G01 X29.1339 Y97.0463
G01 X29.1663 Y97.0680
G01 X29.2527 Y97.1320
G01 X29.2828 Y97.1567
G01 X29.3482 Y97.2157
G01 X29.3764 Y97.2426
G01 X29.4033 Y97.2708
G01 X29.4618 Y97.3356
G01 X29.4868 Y97.3661
G01 X29.5510 Y97.4527
G01 X29.5727 Y97.4851
G01 X29.5931 Y97.5186
G01 X29.6071 Y97.5361
G01 X29.6189 Y97.5516
G01 X29.6414 Y97.5835
G01 X29.6622 Y97.6164
G01 X29.6814 Y97.6503
G01 X29.6904 Y97.6676
G01 X29.7071 Y97.7028
G01 X29.7147 Y97.7207
G01 X29.7287 Y97.7570
G01 X29.7410 Y97.7940
G01 X29.7464 Y97.8128
G01 X29.7559 Y97.8505
G01 X29.7635 Y97.8888
G01 X29.7666 Y97.9080
G01 X29.7692 Y97.9273
G01 X29.7716 Y97.9496
G01 X29.7809 Y97.9877
G01 X29.7885 Y98.0260
G01 X29.8016 Y98.1130
G01 X29.8064 Y98.1517
G01 X29.8093 Y98.1906
G01 X29.8134 Y98.2785
G01 X29.8134 Y98.3175
G01 X29.8081 Y98.4249
G01 X29.8043 Y98.4637
G01 X29.7916 Y98.5508
G01 X29.7882 Y98.5716
G01 X29.7880 Y102.1402
G01 X29.7827 Y102.2476
G01 X29.7789 Y102.2864
G01 X29.7631 Y102.3927
G01 X29.7555 Y102.4310
G01 X29.7498 Y102.4548
G01 X29.7498 Y103.2256
G01 X29.7488 Y103.2645
G01 X29.7459 Y103.3034
G01 X29.7412 Y103.3421
G01 X29.7345 Y103.3805
G01 X29.7260 Y103.4185
G01 X29.7156 Y103.4560
G01 X29.7097 Y103.4746
G01 X29.6966 Y103.5113
G01 X29.6817 Y103.5473
G01 X29.6735 Y103.5650
G01 X29.6560 Y103.5998
G01 X29.6368 Y103.6337
G01 X29.6160 Y103.6666
G01 X29.5935 Y103.6984
G01 X29.5696 Y103.7291
G01 X29.5441 Y103.7587
G01 X29.5309 Y103.7729
G01 X29.5033 Y103.8005
G01 X29.4745 Y103.8266
G01 X29.4443 Y103.8514
G01 X29.4130 Y103.8746
G01 X29.3807 Y103.8962
G01 X29.3472 Y103.9162
G01 X29.3129 Y103.9346
G01 X29.2954 Y103.9431
G01 X29.2598 Y103.9589
G01 X29.2234 Y103.9730
G01 X29.1864 Y103.9852
G01 X29.1489 Y103.9956
G01 X29.1109 Y104.0041
G01 X29.0725 Y104.0108
G01 X29.0338 Y104.0155
G01 X28.9949 Y104.0184
G01 X28.9560 Y104.0194
G01 X27.6157 Y104.0191
G01 X27.5768 Y104.0172
G01 X27.5574 Y104.0155
G01 X27.5187 Y104.0108
G01 X27.4995 Y104.0077
G01 X27.4613 Y104.0001
G01 X27.4235 Y103.9906
G01 X27.4048 Y103.9852
G01 X27.3862 Y103.9793
G01 X27.3495 Y103.9662
G01 X27.3135 Y103.9513
G01 X27.2958 Y103.9431
G01 X27.2610 Y103.9256
G01 X27.2271 Y103.9064
G01 X27.2105 Y103.8962
G01 X27.1942 Y103.8856
G01 X27.1624 Y103.8631
G01 X27.1317 Y103.8392
G01 X27.1167 Y103.8266
G01 X27.0879 Y103.8005
G01 X27.0739 Y103.7869
G01 X27.0471 Y103.7587
G01 X27.0216 Y103.7291
G01 X27.0094 Y103.7139
G01 X26.9862 Y103.6826
G01 X26.9752 Y103.6666
G01 X26.9544 Y103.6337
G01 X26.9352 Y103.5998
G01 X26.9262 Y103.5825
G01 X26.9095 Y103.5473
G01 X26.8946 Y103.5113
G01 X26.8815 Y103.4746
G01 X26.8702 Y103.4373
G01 X26.8607 Y103.3995
G01 X26.8531 Y103.3613
G01 X26.8474 Y103.3228
G01 X26.8436 Y103.2840
G01 X26.8417 Y103.2451
G01 X26.8414 Y103.2256
G01 X26.8414 Y102.4548
G01 X26.8357 Y102.4310
G01 X26.8281 Y102.3927
G01 X26.8123 Y102.2864
G01 X26.8085 Y102.2476
G01 X26.8032 Y102.1402
G01 X26.8030 Y98.3234
G01 X26.8040 Y98.2845
G01 X26.8073 Y98.2160
G01 X26.8102 Y98.1771
G01 X26.8150 Y98.1384
G01 X26.8250 Y98.0706
G01 X25.6133 Y104.7147
G01 X26.0939 Y104.7147
G01 X26.0584 Y104.6770
G01 X26.0233 Y104.6379
G01 X25.9891 Y104.5979
G01 X25.9681 Y104.5723
G01 X25.9356 Y104.5310
G01 X25.9040 Y104.4889
G01 X25.8736 Y104.4460
G01 X25.8465 Y104.4060
G01 X25.8105 Y104.4562
G01 X25.6897 Y104.6191
G01 X25.6461 Y104.6750
G01 X25.6133 Y104.7147
G00 Z5.0000
G00 X36.0585 Y108.6611
G01 F190.00
G01 Z-0.2200
G01 F400.00
G01 X32.6485 Y112.0711
G01 X32.6485 Y116.8654
G01 X32.6482 Y116.9014
G01 X32.6467 Y116.9540
G01 X32.6450 Y116.9871
G01 X32.6397 Y117.0590
G01 X32.6365 Y117.0919
G01 X32.6303 Y117.1442
G01 X32.6197 Y117.2155
G01 X32.6105 Y117.2672
G01 X32.6040 Y117.2997
G01 X32.5927 Y117.3511
G01 X32.5752 Y117.4210
G01 X32.5664 Y117.4529
G01 X32.5513 Y117.5033
G01 X32.5287 Y117.5718
G01 X32.5108 Y117.6212
G01 X32.4916 Y117.6702
G01 X32.4790 Y117.7008
G01 X32.4579 Y117.7490
G01 X32.4270 Y117.8141
G01 X32.4122 Y117.8437
G01 X32.3876 Y117.8902
G01 X32.3619 Y117.9361
G01 X32.3350 Y117.9813
G01 X32.3071 Y118.0259
G01 X32.2781 Y118.0698
G01 X32.2366 Y118.1287
G01 X32.2168 Y118.1553
G01 X32.1847 Y118.1969
G01 X32.1515 Y118.2377
G01 X32.1173 Y118.2777
G01 X32.0689 Y118.3311
G01 X32.0325 Y118.3690
G01 X32.0090 Y118.3925
G01 X31.9568 Y118.4422
G01 X31.9177 Y118.4773
G01 X31.8777 Y118.5115
G01 X31.8369 Y118.5447
G01 X31.8108 Y118.5650
G01 X31.7529 Y118.6080
G01 X31.7098 Y118.6381
G01 X31.6659 Y118.6671
G01 X31.6379 Y118.6848
G01 X31.5929 Y118.7120
G01 X31.5302 Y118.7476
G01 X31.5010 Y118.7632
G01 X31.4541 Y118.7870
G01 X31.4067 Y118.8098
