(G-CODE GENERATED BY FLATCAM v8.994 - www.flatcam.org - Version Date: 2020/11/7)

(Name: copper_bottom.gbr_noncopper_mt_paint_cnc)
(Type: G-code from Geometry)
(Units: MM)

(Created on Friday, 25 March 2022 at 14:08)

(This preprocessor is the default preprocessor used by FlatCAM.)
(It is made to work with MACH3 compatible motion controllers.)

(TOOL DIAMETER: 1.5875 mm)
(Feedrate_XY: 400.0 mm/min)
(Feedrate_Z: 190.0 mm/min)
(Feedrate rapids 400.0 mm/min)

(Z_Cut: -0.22 mm)
(Z_Move: 5.0 mm)
(Z Start: None mm)
(Z End: 15.0 mm)
(X,Y End: None mm)
(Steps per circle: 64)
(Preprocessor Geometry: default)

(X range:  -90.3756 ...   23.0661  mm)
(Y range:  -72.5956 ...   87.8356  mm)

(Spindle Speed: 22250.0 RPM)
G21
G90
G94

G01 F400.00

M5
G00 Z15.0000
G00 X0.0000 Y0.0000
T2
M6    
(MSG, Change to Tool Dia = 1.5875)
M0
G00 Z15.0000

M03 S22250.0
G01 F400.00
G00 X-1.8034 Y-0.1385
G01 F190.00
G01 Z-0.2200
G01 F400.00
G01 X-1.8005 Y-0.1774
G01 X-1.7984 Y-0.1967
G01 X-1.7780 Y-0.3339
G01 X-1.7745 Y-0.3531
G01 X-1.7659 Y-0.3911
G01 X-1.7367 Y-0.5066
G01 X-1.7254 Y-0.5439
G01 X-1.7191 Y-0.5623
G01 X-1.6855 Y-0.6562
G01 X-1.6715 Y-0.6926
G01 X-1.6557 Y-0.7282
G01 X-1.6045 Y-0.8358
G01 X-1.5956 Y-0.8531
G01 X-1.5764 Y-0.8870
G01 X-1.5251 Y-0.9725
G01 X-1.5043 Y-1.0054
G01 X-1.4818 Y-1.0373
G01 X-1.4224 Y-1.1174
G01 X-1.3985 Y-1.1481
G01 X-1.3730 Y-1.1776
G01 X-1.3061 Y-1.2515
G01 X-1.2792 Y-1.2797
G01 X-1.2510 Y-1.3066
G01 X-1.1625 Y-1.3864
G01 X-1.1324 Y-1.4111
G01 X-1.1169 Y-1.4229
G01 X-1.0368 Y-1.4823
G01 X-1.0049 Y-1.5048
G01 X-0.9720 Y-1.5256
G01 X-0.8865 Y-1.5769
G01 X-0.8526 Y-1.5961
G01 X-0.8178 Y-1.6136
G01 X-0.7277 Y-1.6562
G01 X-0.6921 Y-1.6720
G01 X-0.6557 Y-1.6860
G01 X-0.5618 Y-1.7196
G01 X-0.5248 Y-1.7318
G01 X-0.4873 Y-1.7422
G01 X-0.3906 Y-1.7664
G01 X-0.3526 Y-1.7750
G01 X-0.3142 Y-1.7816
G01 X-0.2156 Y-1.7963
G01 X-0.1769 Y-1.8010
G01 X-0.1380 Y-1.8039
G01 X-0.0384 Y-1.8088
G01 X0.0005 Y-1.8098
G01 X0.0394 Y-1.8088
G01 X0.1585 Y-1.8027
G01 X0.1779 Y-1.8010
G01 X0.2166 Y-1.7963
G01 X0.3152 Y-1.7816
G01 X0.3536 Y-1.7750
G01 X0.3916 Y-1.7664
G01 X0.4883 Y-1.7422
G01 X0.5258 Y-1.7318
G01 X0.5628 Y-1.7196
G01 X0.6567 Y-1.6860
G01 X0.6931 Y-1.6720
G01 X0.7287 Y-1.6562
G01 X0.8188 Y-1.6136
G01 X0.8536 Y-1.5961
G01 X0.8875 Y-1.5769
G01 X0.9730 Y-1.5256
G01 X1.0059 Y-1.5048
G01 X1.0378 Y-1.4823
G01 X1.1179 Y-1.4229
G01 X1.1486 Y-1.3990
G01 X1.1781 Y-1.3735
G01 X1.2520 Y-1.3066
G01 X1.2802 Y-1.2797
G01 X1.3071 Y-1.2515
G01 X1.3740 Y-1.1776
G01 X1.3995 Y-1.1481
G01 X1.4234 Y-1.1174
G01 X1.4828 Y-1.0373
G01 X1.5053 Y-1.0054
G01 X1.5261 Y-0.9725
G01 X1.5774 Y-0.8870
G01 X1.5966 Y-0.8531
G01 X1.6141 Y-0.8183
G01 X1.6567 Y-0.7282
G01 X1.6725 Y-0.6926
G01 X1.6865 Y-0.6562
G01 X1.7201 Y-0.5623
G01 X1.7323 Y-0.5253
G01 X1.7427 Y-0.4878
G01 X1.7669 Y-0.3911
G01 X1.7755 Y-0.3531
G01 X1.7821 Y-0.3147
G01 X1.7968 Y-0.2161
G01 X1.8015 Y-0.1774
G01 X1.8044 Y-0.1385
G01 X1.8093 Y-0.0389
G01 X1.8103 Y-0.0000
G01 X1.8093 Y0.0389
G01 X1.8032 Y0.1580
G01 X1.7994 Y0.1967
G01 X1.7968 Y0.2161
G01 X1.7821 Y0.3147
G01 X1.7755 Y0.3531
G01 X1.7669 Y0.3911
G01 X1.7427 Y0.4878
G01 X1.7323 Y0.5253
G01 X1.7201 Y0.5623
G01 X1.6865 Y0.6562
G01 X1.6725 Y0.6926
G01 X1.6567 Y0.7282
G01 X1.6141 Y0.8183
G01 X1.5966 Y0.8531
G01 X1.5774 Y0.8870
G01 X1.5261 Y0.9725
G01 X1.5053 Y1.0054
G01 X1.4828 Y1.0373
G01 X1.4234 Y1.1174
G01 X1.3995 Y1.1481
G01 X1.3740 Y1.1776
G01 X1.3071 Y1.2515
G01 X1.2802 Y1.2797
G01 X1.2520 Y1.3066
G01 X1.1781 Y1.3735
G01 X1.1486 Y1.3990
G01 X1.1179 Y1.4229
G01 X1.0378 Y1.4823
G01 X1.0059 Y1.5048
G01 X0.9730 Y1.5256
G01 X0.8875 Y1.5769
G01 X0.8536 Y1.5961
G01 X0.8188 Y1.6136
G01 X0.7287 Y1.6562
G01 X0.6931 Y1.6720
G01 X0.6567 Y1.6860
G01 X0.5628 Y1.7196
G01 X0.5258 Y1.7318
G01 X0.4883 Y1.7422
G01 X0.3916 Y1.7664
G01 X0.3536 Y1.7750
G01 X0.3152 Y1.7816
G01 X0.2166 Y1.7963
G01 X0.1779 Y1.8010
G01 X0.1390 Y1.8039
G01 X0.0394 Y1.8088
G01 X0.0005 Y1.8098
G01 X-0.0384 Y1.8088
G01 X-0.1575 Y1.8027
G01 X-0.1769 Y1.8010
G01 X-0.2156 Y1.7963
G01 X-0.3142 Y1.7816
G01 X-0.3526 Y1.7750
G01 X-0.3906 Y1.7664
G01 X-0.4873 Y1.7422
G01 X-0.5248 Y1.7318
G01 X-0.5618 Y1.7196
G01 X-0.6557 Y1.6860
G01 X-0.6921 Y1.6720
G01 X-0.7277 Y1.6562
G01 X-0.8178 Y1.6136
G01 X-0.8526 Y1.5961
G01 X-0.8865 Y1.5769
G01 X-0.9720 Y1.5256
G01 X-1.0049 Y1.5048
G01 X-1.0368 Y1.4823
G01 X-1.1169 Y1.4229
G01 X-1.1476 Y1.3990
G01 X-1.1771 Y1.3735
G01 X-1.2510 Y1.3066
G01 X-1.2792 Y1.2797
G01 X-1.3061 Y1.2515
G01 X-1.3859 Y1.1630
G01 X-1.4106 Y1.1329
G01 X-1.4224 Y1.1174
G01 X-1.4818 Y1.0373
G01 X-1.5043 Y1.0054
G01 X-1.5251 Y0.9725
G01 X-1.5764 Y0.8870
G01 X-1.5956 Y0.8531
G01 X-1.6131 Y0.8183
G01 X-1.6557 Y0.7282
G01 X-1.6715 Y0.6926
G01 X-1.6855 Y0.6562
G01 X-1.7254 Y0.5439
G01 X-1.7313 Y0.5253
G01 X-1.7417 Y0.4878
G01 X-1.7659 Y0.3911
G01 X-1.7745 Y0.3531
G01 X-1.7811 Y0.3147
G01 X-1.7984 Y0.1967
G01 X-1.8022 Y0.1580
G01 X-1.8034 Y0.1385
G01 X-1.8090 Y0.0195
G01 X-1.8090 Y-0.0195
G01 X-1.8034 Y-0.1385
G00 Z5.0000
G00 X-0.6637 Y7.1943
G01 F190.00
G01 Z-0.2200
G01 F400.00
G01 X-0.6069 Y7.1756
G01 X-0.5431 Y7.1553
G01 X-0.4637 Y7.1309
G01 X-0.4050 Y7.1134
G01 X-0.3078 Y7.0857
G01 X-0.1716 Y7.0495
G01 X-0.1083 Y7.0335
G01 X-0.0567 Y7.0210
G01 X0.0109 Y7.0054
G01 X0.0891 Y6.9880
G01 X0.1460 Y6.9758
G01 X0.2015 Y6.9645
G01 X0.3152 Y6.9430
G01 X0.2403 Y6.8848
G01 X0.1914 Y6.8866
G01 X0.1252 Y6.8884
G01 X0.0628 Y6.8894
G01 X0.0161 Y6.8897
G01 X-0.0502 Y6.8895
G01 X-0.1125 Y6.8886
G01 X-0.1748 Y6.8871
G01 X-0.2392 Y6.8848
G01 X-0.3463 Y6.9674
G01 X-0.4013 Y7.0087
G01 X-0.4404 Y7.0375
G01 X-0.4962 Y7.0777
G01 X-0.5596 Y7.1226
G01 X-0.6112 Y7.1585
G01 X-0.6637 Y7.1943
G01 X-8.9196 Y8.4137
G01 X-8.8430 Y8.4766
G01 X-8.7722 Y8.5363
G01 X-8.7108 Y8.5890
G01 X-8.6592 Y8.6346
G01 X-8.5786 Y8.7077
G01 X-8.5176 Y8.7641
G01 X-8.4638 Y8.8151
G01 X-8.4013 Y8.8761
G01 X-8.3267 Y8.8815
G01 X-8.2452 Y8.8885
G01 X-8.1638 Y8.8967
G01 X-8.0903 Y8.9050
G01 X-8.0129 Y8.9148
G01 X-7.9358 Y8.9256
G01 X-7.8063 Y8.9448
G01 X-7.7140 Y8.9597
G01 X-7.6411 Y8.9725
G01 X-7.5722 Y8.9854
G01 X-7.4958 Y9.0008
G01 X-7.4234 Y9.0163
G01 X-7.3550 Y9.0319
G01 X-7.2849 Y9.0487
G01 X-7.1598 Y9.0799
G01 X-7.0844 Y9.0995
G01 X-7.0017 Y9.1222
G01 X-6.9343 Y9.1416
G01 X-6.8597 Y9.1641
G01 X-6.7817 Y9.1888
G01 X-6.7078 Y9.2134
G01 X-6.6378 Y9.2375
G01 X-6.5146 Y9.2816
G01 X-6.4451 Y9.3071
G01 X-6.3686 Y9.3363
G01 X-6.3070 Y9.3607
G01 X-6.2349 Y9.3902
G01 X-6.1776 Y9.4146
G01 X-6.1347 Y9.4333
G01 X-6.0636 Y9.4651
G01 X-6.0034 Y9.4929
G01 X-5.9050 Y9.5394
G01 X-5.8066 Y9.4929
G01 X-5.7464 Y9.4651
G01 X-5.7038 Y9.4459
G01 X-5.6324 Y9.4146
G01 X-5.5751 Y9.3902
G01 X-5.5030 Y9.3607
G01 X-5.4414 Y9.3363
G01 X-5.3649 Y9.3071
G01 X-5.2954 Y9.2816
G01 X-5.1722 Y9.2375
G01 X-5.1022 Y9.2134
G01 X-5.0283 Y9.1888
G01 X-4.9503 Y9.1641
G01 X-4.8757 Y9.1416
G01 X-4.8083 Y9.1222
G01 X-4.7256 Y9.0995
G01 X-4.6502 Y9.0799
G01 X-4.5251 Y9.0487
G01 X-4.4550 Y9.0319
G01 X-4.3866 Y9.0163
G01 X-4.3142 Y9.0008
G01 X-4.2378 Y8.9854
G01 X-4.1689 Y8.9725
G01 X-4.0960 Y8.9597
G01 X-4.0037 Y8.9448
G01 X-3.8742 Y8.9256
G01 X-3.7971 Y8.9148
G01 X-3.7197 Y8.9050
G01 X-3.6462 Y8.8967
G01 X-3.5648 Y8.8885
G01 X-3.4833 Y8.8815
G01 X-3.4086 Y8.8761
G01 X-3.3355 Y8.8049
G01 X-3.2831 Y8.7553
G01 X-3.2206 Y8.6977
G01 X-3.1562 Y8.6396
G01 X-3.0992 Y8.5890
G01 X-3.0442 Y8.5415
G01 X-2.9951 Y8.5002
G01 X-2.9075 Y8.4276
G01 X-2.8528 Y8.3835
G01 X-2.7909 Y8.3349
G01 X-2.7246 Y8.2839
G01 X-2.6554 Y8.2316
G01 X-2.5995 Y8.1906
G01 X-2.5382 Y8.1468
G01 X-2.4519 Y8.0863
G01 X-2.3924 Y8.0457
G01 X-2.4458 Y8.0633
G01 X-2.5107 Y8.0839
G01 X-2.5924 Y8.1091
G01 X-2.6472 Y8.1255
G01 X-2.7444 Y8.1532
G01 X-2.8686 Y8.1864
G01 X-2.9637 Y8.2104
G01 X-3.0670 Y8.2346
G01 X-3.1995 Y8.2636
G01 X-3.2995 Y8.2837
G01 X-3.4241 Y8.3065
G01 X-3.4797 Y8.3162
G01 X-3.5405 Y8.3261
G01 X-3.6405 Y8.3410
G01 X-3.7085 Y8.3504
G01 X-3.7846 Y8.3603
G01 X-3.8407 Y8.3670
G01 X-3.9010 Y8.3735
G01 X-3.9874 Y8.3821
G01 X-4.0476 Y8.3876
G01 X-4.1401 Y8.3949
G01 X-4.2673 Y8.4029
G01 X-4.3520 Y8.4072
G01 X-4.4289 Y8.4099
G01 X-4.5624 Y8.4129
G01 X-4.6492 Y8.4136
G01 X-8.9196 Y8.4137
G00 Z5.0000
G00 X-10.6934 Y15.6095
G01 F190.00
G01 Z-0.2200
G01 F400.00
G01 X-10.6905 Y15.5706
G01 X-10.6884 Y15.5513
G01 X-10.6680 Y15.4141
G01 X-10.6604 Y15.3759
G01 X-10.6559 Y15.3569
G01 X-10.6267 Y15.2414
G01 X-10.6154 Y15.2041
G01 X-10.6091 Y15.1857
G01 X-10.5755 Y15.0918
G01 X-10.5615 Y15.0554
G01 X-10.5457 Y15.0198
G01 X-10.4945 Y14.9122
G01 X-10.4856 Y14.8949
G01 X-10.4664 Y14.8610
G01 X-10.4151 Y14.7755
G01 X-10.3943 Y14.7426
G01 X-10.3718 Y14.7107
G01 X-10.3124 Y14.6306
G01 X-10.2885 Y14.5999
G01 X-10.2630 Y14.5704
G01 X-10.1961 Y14.4965
G01 X-10.1692 Y14.4683
G01 X-10.1410 Y14.4414
G01 X-10.0525 Y14.3616
G01 X-10.0224 Y14.3369
G01 X-10.0069 Y14.3251
G01 X-9.9268 Y14.2657
G01 X-9.8949 Y14.2432
G01 X-9.8620 Y14.2224
G01 X-9.7765 Y14.1711
G01 X-9.7426 Y14.1519
G01 X-9.7078 Y14.1344
G01 X-9.6177 Y14.0918
G01 X-9.5821 Y14.0760
G01 X-9.5457 Y14.0620
G01 X-9.4518 Y14.0284
G01 X-9.4148 Y14.0162
G01 X-9.3773 Y14.0058
G01 X-9.2806 Y13.9816
G01 X-9.2426 Y13.9730
G01 X-9.2042 Y13.9664
G01 X-9.1056 Y13.9517
G01 X-9.0669 Y13.9470
G01 X-9.0280 Y13.9441
G01 X-8.9284 Y13.9392
G01 X-8.8895 Y13.9382
G01 X-8.8506 Y13.9392
G01 X-8.7315 Y13.9453
G01 X-8.6928 Y13.9491
G01 X-8.6734 Y13.9517
G01 X-8.5748 Y13.9664
G01 X-8.5364 Y13.9730
G01 X-8.4984 Y13.9816
G01 X-8.4017 Y14.0058
G01 X-8.3642 Y14.0162
G01 X-8.3272 Y14.0284
G01 X-8.2333 Y14.0620
G01 X-8.1969 Y14.0760
G01 X-8.1613 Y14.0918
G01 X-8.0712 Y14.1344
G01 X-8.0364 Y14.1519
G01 X-8.0025 Y14.1711
G01 X-7.9170 Y14.2224
G01 X-7.8841 Y14.2432
G01 X-7.8522 Y14.2657
G01 X-7.7721 Y14.3251
G01 X-7.7414 Y14.3490
G01 X-7.7119 Y14.3745
G01 X-7.6380 Y14.4414
G01 X-7.6098 Y14.4683
G01 X-7.5829 Y14.4965
G01 X-7.5160 Y14.5704
G01 X-7.4905 Y14.5999
G01 X-7.4666 Y14.6306
G01 X-7.4072 Y14.7107
G01 X-7.3847 Y14.7426
G01 X-7.3639 Y14.7755
G01 X-7.3126 Y14.8610
G01 X-7.2934 Y14.8949
G01 X-7.2759 Y14.9297
G01 X-7.2333 Y15.0198
G01 X-7.2175 Y15.0554
G01 X-7.2035 Y15.0918
G01 X-7.1699 Y15.1857
G01 X-7.1577 Y15.2227
G01 X-7.1473 Y15.2602
G01 X-7.1231 Y15.3569
G01 X-7.1145 Y15.3949
G01 X-7.1079 Y15.4333
G01 X-7.0932 Y15.5319
G01 X-7.0885 Y15.5706
G01 X-7.0856 Y15.6095
G01 X-7.0807 Y15.7091
G01 X-7.0797 Y15.7480
G01 X-7.0807 Y15.7869
G01 X-7.0868 Y15.9060
G01 X-7.0906 Y15.9447
G01 X-7.0932 Y15.9641
G01 X-7.1079 Y16.0627
G01 X-7.1145 Y16.1011
G01 X-7.1231 Y16.1391
G01 X-7.1473 Y16.2358
G01 X-7.1577 Y16.2733
G01 X-7.1699 Y16.3103
G01 X-7.2035 Y16.4042
G01 X-7.2175 Y16.4406
G01 X-7.2333 Y16.4762
G01 X-7.2759 Y16.5663
G01 X-7.2934 Y16.6011
G01 X-7.3126 Y16.6350
G01 X-7.3639 Y16.7205
G01 X-7.3847 Y16.7534
G01 X-7.4072 Y16.7853
G01 X-7.4666 Y16.8654
G01 X-7.4905 Y16.8961
G01 X-7.5160 Y16.9256
G01 X-7.5829 Y16.9995
G01 X-7.6098 Y17.0277
G01 X-7.6380 Y17.0546
G01 X-7.7119 Y17.1215
G01 X-7.7414 Y17.1470
G01 X-7.7721 Y17.1709
G01 X-7.8522 Y17.2303
G01 X-7.8841 Y17.2528
G01 X-7.9170 Y17.2736
G01 X-8.0025 Y17.3249
G01 X-8.0364 Y17.3441
G01 X-8.0712 Y17.3616
G01 X-8.1613 Y17.4042
G01 X-8.1969 Y17.4200
G01 X-8.2333 Y17.4340
G01 X-8.3272 Y17.4676
G01 X-8.3642 Y17.4798
G01 X-8.4017 Y17.4902
G01 X-8.4984 Y17.5144
G01 X-8.5364 Y17.5230
G01 X-8.5748 Y17.5296
G01 X-8.6734 Y17.5443
G01 X-8.7121 Y17.5490
G01 X-8.7510 Y17.5519
G01 X-8.8506 Y17.5568
G01 X-8.8895 Y17.5578
G01 X-8.9284 Y17.5568
G01 X-9.0475 Y17.5507
G01 X-9.0862 Y17.5469
G01 X-9.1056 Y17.5443
G01 X-9.2042 Y17.5296
G01 X-9.2426 Y17.5230
G01 X-9.2806 Y17.5144
G01 X-9.3773 Y17.4902
G01 X-9.4148 Y17.4798
G01 X-9.4518 Y17.4676
G01 X-9.5457 Y17.4340
G01 X-9.5821 Y17.4200
G01 X-9.6177 Y17.4042
G01 X-9.7078 Y17.3616
G01 X-9.7426 Y17.3441
G01 X-9.7765 Y17.3249
G01 X-9.8620 Y17.2736
G01 X-9.8949 Y17.2528
G01 X-9.9268 Y17.2303
G01 X-10.0069 Y17.1709
G01 X-10.0376 Y17.1470
G01 X-10.0671 Y17.1215
G01 X-10.1410 Y17.0546
G01 X-10.1692 Y17.0277
G01 X-10.1961 Y16.9995
G01 X-10.2759 Y16.9110
G01 X-10.2885 Y16.8961
G01 X-10.3124 Y16.8654
G01 X-10.3718 Y16.7853
G01 X-10.3943 Y16.7534
G01 X-10.4151 Y16.7205
G01 X-10.4664 Y16.6350
G01 X-10.4856 Y16.6011
G01 X-10.5031 Y16.5663
G01 X-10.5457 Y16.4762
G01 X-10.5615 Y16.4406
G01 X-10.5755 Y16.4042
G01 X-10.6154 Y16.2919
G01 X-10.6267 Y16.2546
G01 X-10.6317 Y16.2358
G01 X-10.6559 Y16.1391
G01 X-10.6645 Y16.1011
G01 X-10.6711 Y16.0627
G01 X-10.6884 Y15.9447
G01 X-10.6905 Y15.9254
G01 X-10.6934 Y15.8865
G01 X-10.6990 Y15.7675
G01 X-10.6990 Y15.7285
G01 X-10.6934 Y15.6095
G01 X-12.1928 Y19.0469
G01 X-12.1496 Y19.0996
G01 X-12.1187 Y19.1396
G01 X-11.9979 Y19.3023
G01 X-11.9594 Y19.3561
G01 X-11.9310 Y19.3981
G01 X-11.9037 Y19.4408
G01 X-11.8854 Y19.4707
G01 X-11.7893 Y19.6310
G01 X-11.7716 Y19.6613
G01 X-11.7468 Y19.7054
G01 X-11.7231 Y19.7502
G01 X-11.7006 Y19.7956
G01 X-11.6139 Y19.9786
G01 X-11.5992 Y20.0105
G01 X-11.5789 Y20.0569
G01 X-11.5597 Y20.1037
G01 X-11.5364 Y20.1657
G01 X-11.4734 Y20.3418
G01 X-11.4619 Y20.3749
G01 X-11.4463 Y20.4230
G01 X-11.4318 Y20.4716
G01 X-11.4146 Y20.5356
G01 X-11.3692 Y20.7169
G01 X-11.3542 Y20.7814
G01 X-11.3441 Y20.8310
G01 X-11.3321 Y20.9001
G01 X-11.3023 Y21.1005
G01 X-11.2936 Y21.1661
G01 X-11.2884 Y21.2165
G01 X-11.2845 Y21.2670
G01 X-11.2824 Y21.3020
G01 X-11.2765 Y21.4221
G01 X-11.2477 Y21.3873
G01 X-11.2144 Y21.3491
G01 X-11.1371 Y21.2636
G01 X-11.1133 Y21.2379
G01 X-11.0918 Y21.2153
G01 X-11.0561 Y21.1793
G01 X-11.0053 Y21.1310
G01 X-10.9200 Y21.0535
G01 X-10.8938 Y21.0302
G01 X-10.8553 Y20.9973
G01 X-10.8312 Y20.9775
G01 X-10.7914 Y20.9462
G01 X-10.7634 Y20.9250
G01 X-10.6708 Y20.8564
G01 X-10.6295 Y20.8270
G01 X-10.5875 Y20.7987
G01 X-10.5448 Y20.7714
G01 X-10.4294 Y20.7018
G01 X-10.3992 Y20.6841
G01 X-10.3550 Y20.6593
G01 X-10.3102 Y20.6357
G01 X-10.2824 Y20.6217
G01 X-10.2508 Y20.6064
G01 X-10.1465 Y20.5572
G01 X-10.0824 Y20.5287
G01 X-10.0536 Y20.5168
G01 X-10.0065 Y20.4984
G01 X-9.8797 Y20.4526
G01 X-9.8466 Y20.4411
G01 X-9.7984 Y20.4255
G01 X-9.7686 Y20.4164
G01 X-9.7198 Y20.4027
G01 X-9.6859 Y20.3938
G01 X-9.5740 Y20.3659
G01 X-9.5056 Y20.3506
G01 X-9.4559 Y20.3409
G01 X-9.4059 Y20.3325
G01 X-9.2919 Y20.3155
G01 X-9.2572 Y20.3107
G01 X-9.2069 Y20.3047
G01 X-9.1758 Y20.3016
G01 X-9.1059 Y20.2965
G01 X-8.9908 Y20.2907
G01 X-8.9557 Y20.2893
G01 X-8.9246 Y20.2886
G01 X-8.8739 Y20.2883
G01 X-8.8038 Y20.2901
G01 X-8.6887 Y20.2956
G01 X-8.6536 Y20.2977
G01 X-8.6226 Y20.3000
G01 X-8.5721 Y20.3047
G01 X-8.5218 Y20.3107
G01 X-8.4871 Y20.3155
G01 X-8.3538 Y20.3356
G01 X-8.3040 Y20.3445
G01 X-8.2543 Y20.3546
G01 X-8.2050 Y20.3659
G01 X-8.0931 Y20.3938
G01 X-8.0592 Y20.4027
G01 X-8.0104 Y20.4164
G01 X-7.9620 Y20.4314
G01 X-7.9324 Y20.4411
G01 X-7.8054 Y20.4862
G01 X-7.7725 Y20.4984
G01 X-7.7254 Y20.5168
G01 X-7.6787 Y20.5364
G01 X-7.6502 Y20.5490
G01 X-7.6183 Y20.5637
G01 X-7.5141 Y20.6131
G01 X-7.4515 Y20.6446
G01 X-7.4069 Y20.6687
G01 X-7.3630 Y20.6939
G01 X-7.2641 Y20.7531
G01 X-7.2342 Y20.7714
G01 X-7.1915 Y20.7987
G01 X-7.1656 Y20.8160
G01 X-7.1082 Y20.8564
G01 X-7.0156 Y20.9250
G01 X-6.9876 Y20.9462
G01 X-6.9630 Y20.9653
G01 X-6.9237 Y20.9973
G01 X-6.8852 Y21.0302
G01 X-6.8590 Y21.0535
G01 X-6.7737 Y21.1310
G01 X-6.7368 Y21.1657
G01 X-6.7008 Y21.2014
G01 X-6.6657 Y21.2379
G01 X-6.5750 Y21.3375
G01 X-6.5517 Y21.3637
G01 X-6.5188 Y21.4022
G01 X-6.4990 Y21.4263
G01 X-6.4677 Y21.4661
G01 X-6.4465 Y21.4941
G01 X-6.3779 Y21.5867
G01 X-6.3375 Y21.6441
G01 X-6.3096 Y21.6863
G01 X-6.2827 Y21.7292
G01 X-6.2233 Y21.8281
G01 X-6.2056 Y21.8583
G01 X-6.1808 Y21.9025
G01 X-6.1661 Y21.9300
G01 X-6.1432 Y21.9751
G01 X-6.1279 Y22.0067
G01 X-6.0705 Y22.1287
G01 X-6.0502 Y22.1751
G01 X-6.0311 Y22.2220
G01 X-6.0077 Y22.2839
G01 X-5.9690 Y22.3925
G01 X-5.9529 Y22.4405
G01 X-5.9325 Y22.5076
G01 X-5.9192 Y22.5565
G01 X-5.9050 Y22.6129
G01 X-5.8908 Y22.5565
G01 X-5.8775 Y22.5076
G01 X-5.8630 Y22.4591
G01 X-5.8474 Y22.4109
G01 X-5.8023 Y22.2839
G01 X-5.7901 Y22.2510
G01 X-5.7717 Y22.2039
G01 X-5.7521 Y22.1572
G01 X-5.7313 Y22.1110
G01 X-5.6821 Y22.0067
G01 X-5.6668 Y21.9751
G01 X-5.6439 Y21.9300
G01 X-5.6198 Y21.8854
G01 X-5.5946 Y21.8415
G01 X-5.5354 Y21.7426
G01 X-5.5171 Y21.7127
G01 X-5.4898 Y21.6700
G01 X-5.4615 Y21.6280
G01 X-5.4321 Y21.5867
G01 X-5.3635 Y21.4941
G01 X-5.3423 Y21.4661
G01 X-5.3110 Y21.4263
G01 X-5.2912 Y21.4022
G01 X-5.2583 Y21.3637
G01 X-5.2350 Y21.3375
G01 X-5.1575 Y21.2522
G01 X-5.1228 Y21.2153
G01 X-5.0871 Y21.1793
G01 X-5.0506 Y21.1442
G01 X-5.0249 Y21.1204
G01 X-4.9394 Y21.0431
G01 X-4.9012 Y21.0098
G01 X-4.8622 Y20.9775
G01 X-4.8224 Y20.9462
G01 X-4.7143 Y20.8656
G01 X-4.6860 Y20.8450
G01 X-4.6605 Y20.8270
G01 X-4.6185 Y20.7987
G01 X-4.5758 Y20.7714
G01 X-4.5459 Y20.7531
G01 X-4.4302 Y20.6841
G01 X-4.3860 Y20.6593
G01 X-4.3412 Y20.6357
G01 X-4.2818 Y20.6064
G01 X-4.1775 Y20.5572
G01 X-4.1313 Y20.5364
G01 X-4.0846 Y20.5168
G01 X-4.0192 Y20.4916
G01 X-3.9107 Y20.4526
G01 X-3.8776 Y20.4411
G01 X-3.8294 Y20.4255
G01 X-3.7809 Y20.4110
G01 X-3.7320 Y20.3977
G01 X-3.6202 Y20.3696
G01 X-3.5861 Y20.3614
G01 X-3.5366 Y20.3506
G01 X-3.4869 Y20.3409
G01 X-3.4369 Y20.3325
G01 X-3.3229 Y20.3155
G01 X-3.2882 Y20.3107
G01 X-3.2379 Y20.3047
G01 X-3.1874 Y20.3000
G01 X-3.1556 Y20.2976
G01 X-3.1741 Y20.2123
G01 X-3.1800 Y20.1827
G01 X-3.1922 Y20.1153
G01 X-3.2024 Y20.0489
G01 X-3.2132 Y19.9696
G01 X-3.2198 Y19.9165
G01 X-3.2256 Y19.8576
G01 X-3.2296 Y19.8076
G01 X-3.2355 Y19.7042
G01 X-3.2377 Y19.6545
G01 X-3.2387 Y19.6093
G01 X-3.2391 Y19.5730
G01 X-3.2389 Y19.5392
G01 X-3.2369 Y19.4459
G01 X-3.2363 Y19.4243
G01 X-3.2338 Y19.3683
G01 X-3.2309 Y19.3246
G01 X-3.2268 Y19.2746
G01 X-3.2151 Y19.1597
G01 X-3.2067 Y19.0941
G01 X-3.1997 Y19.0470
G01 X-3.1944 Y19.0149
G01 X-3.1727 Y18.8969
G01 X-3.1666 Y18.8667
G01 X-3.1561 Y18.8183
G01 X-3.1874 Y18.8160
G01 X-3.2379 Y18.8113
G01 X-3.2882 Y18.8053
G01 X-3.3229 Y18.8005
G01 X-3.4369 Y18.7835
G01 X-3.4869 Y18.7751
G01 X-3.5366 Y18.7654
G01 X-3.5861 Y18.7546
G01 X-3.6202 Y18.7464
G01 X-3.7320 Y18.7183
G01 X-3.7809 Y18.7050
G01 X-3.8294 Y18.6905
G01 X-3.8776 Y18.6749
G01 X-3.9107 Y18.6634
G01 X-4.0192 Y18.6244
G01 X-4.0846 Y18.5992
G01 X-4.1313 Y18.5796
G01 X-4.1775 Y18.5588
G01 X-4.2818 Y18.5096
G01 X-4.3412 Y18.4803
G01 X-4.3860 Y18.4567
G01 X-4.4302 Y18.4319
G01 X-4.5459 Y18.3629
G01 X-4.5758 Y18.3446
G01 X-4.6185 Y18.3173
G01 X-4.6444 Y18.3000
G01 X-4.6860 Y18.2710
G01 X-4.7143 Y18.2504
G01 X-4.8224 Y18.1698
G01 X-4.8622 Y18.1385
G01 X-4.9012 Y18.1062
G01 X-4.9394 Y18.0729
G01 X-5.0249 Y17.9956
G01 X-5.0506 Y17.9718
G01 X-5.0871 Y17.9367
G01 X-5.1228 Y17.9007
G01 X-5.1575 Y17.8638
G01 X-5.2350 Y17.7785
G01 X-5.2583 Y17.7523
G01 X-5.2787 Y17.7287
G01 X-5.3110 Y17.6897
G01 X-5.3423 Y17.6499
G01 X-5.3635 Y17.6219
G01 X-5.4321 Y17.5293
G01 X-5.4615 Y17.4880
G01 X-5.4898 Y17.4460
G01 X-5.5171 Y17.4033
G01 X-5.5354 Y17.3734
G01 X-5.5946 Y17.2745
G01 X-5.6198 Y17.2306
G01 X-5.6439 Y17.1860
G01 X-5.6668 Y17.1409
G01 X-5.6821 Y17.1093
G01 X-5.7313 Y17.0050
G01 X-5.7521 Y16.9588
G01 X-5.7717 Y16.9121
G01 X-5.7901 Y16.8650
G01 X-5.8359 Y16.7382
G01 X-5.8474 Y16.7051
G01 X-5.8630 Y16.6569
G01 X-5.8775 Y16.6084
G01 X-5.8908 Y16.5595
G01 X-5.9050 Y16.5031
G01 X-5.9192 Y16.5595
G01 X-5.9325 Y16.6084
G01 X-5.9529 Y16.6755
G01 X-5.9690 Y16.7235
G01 X-6.0077 Y16.8321
G01 X-6.0311 Y16.8940
G01 X-6.0579 Y16.9588
G01 X-6.0852 Y17.0192
G01 X-6.1432 Y17.1409
G01 X-6.1661 Y17.1860
G01 X-6.1902 Y17.2306
G01 X-6.2154 Y17.2745
G01 X-6.2746 Y17.3734
G01 X-6.2929 Y17.4033
G01 X-6.3202 Y17.4460
G01 X-6.3485 Y17.4880
G01 X-6.3665 Y17.5135
G01 X-6.4465 Y17.6219
G01 X-6.4677 Y17.6499
G01 X-6.4990 Y17.6897
G01 X-6.5313 Y17.7287
G01 X-6.5517 Y17.7523
G01 X-6.6419 Y17.8524
G01 X-6.6872 Y17.9007
G01 X-6.7368 Y17.9503
G01 X-6.7851 Y17.9956
G01 X-6.8852 Y18.0858
G01 X-6.9237 Y18.1187
G01 X-6.9478 Y18.1385
G01 X-7.0031 Y18.1816
G01 X-7.0957 Y18.2504
G01 X-7.1240 Y18.2710
G01 X-7.1495 Y18.2890
G01 X-7.1915 Y18.3173
G01 X-7.2342 Y18.3446
G01 X-7.2641 Y18.3629
G01 X-7.3798 Y18.4319
G01 X-7.4069 Y18.4473
G01 X-7.4515 Y18.4714
G01 X-7.5141 Y18.5029
G01 X-7.6183 Y18.5523
G01 X-7.6502 Y18.5670
G01 X-7.6787 Y18.5796
G01 X-7.7254 Y18.5992
G01 X-7.7908 Y18.6244
G01 X-7.8993 Y18.6634
G01 X-7.9324 Y18.6749
G01 X-7.9806 Y18.6905
G01 X-8.0104 Y18.6996
G01 X-8.0780 Y18.7183
G01 X-8.1898 Y18.7464
G01 X-8.2239 Y18.7546
G01 X-8.2734 Y18.7654
G01 X-8.3040 Y18.7715
G01 X-8.3731 Y18.7835
G01 X-8.4871 Y18.8005
G01 X-8.5218 Y18.8053
G01 X-8.5528 Y18.8092
G01 X-8.6032 Y18.8144
G01 X-8.6731 Y18.8195
G01 X-8.7882 Y18.8253
G01 X-8.8233 Y18.8267
G01 X-8.8544 Y18.8274
G01 X-8.9051 Y18.8277
G01 X-8.9557 Y18.8267
G01 X-8.9908 Y18.8253
G01 X-9.1059 Y18.8195
G01 X-9.1758 Y18.8144
G01 X-9.2262 Y18.8092
G01 X-9.2572 Y18.8053
G01 X-9.2919 Y18.8005
G01 X-9.4059 Y18.7835
G01 X-9.4750 Y18.7715
G01 X-9.5056 Y18.7654
G01 X-9.5551 Y18.7546
G01 X-9.5892 Y18.7464
G01 X-9.7010 Y18.7183
G01 X-9.7686 Y18.6996
G01 X-9.8170 Y18.6846
G01 X-9.8466 Y18.6749
G01 X-9.8797 Y18.6634
G01 X-9.9882 Y18.6244
G01 X-10.0536 Y18.5992
G01 X-10.1003 Y18.5796
G01 X-10.1288 Y18.5670
G01 X-10.1607 Y18.5523
G01 X-10.2649 Y18.5029
G01 X-10.3275 Y18.4714
G01 X-10.3721 Y18.4473
G01 X-10.3992 Y18.4319
G01 X-10.4294 Y18.4142
G01 X-10.5283 Y18.3548
G01 X-10.5875 Y18.3173
G01 X-10.6134 Y18.3000
G01 X-10.6550 Y18.2710
G01 X-10.6833 Y18.2504
G01 X-10.7759 Y18.1816
G01 X-10.8312 Y18.1385
G01 X-10.8702 Y18.1062
G01 X-10.8938 Y18.0858
G01 X-10.9891 Y17.9998
G01 X-11.0175 Y18.0394
G01 X-11.0510 Y18.0852
G01 X-11.1184 Y18.1717
G01 X-11.1522 Y18.2128
G01 X-11.1856 Y18.2523
G01 X-11.2213 Y18.2935
G01 X-11.2685 Y18.3453
G01 X-11.3058 Y18.3853
G01 X-11.3636 Y18.4440
G01 X-11.3881 Y18.4685
G01 X-11.4289 Y18.5073
G01 X-11.4793 Y18.5541
G01 X-11.5219 Y18.5918
G01 X-11.5603 Y18.6248
G01 X-11.5991 Y18.6574
G01 X-11.6602 Y18.7062
G01 X-11.6868 Y18.7270
G01 X-11.7308 Y18.7600
G01 X-11.7929 Y18.8051
G01 X-11.8398 Y18.8374
G01 X-11.9012 Y18.8784
G01 X-11.9192 Y18.8900
G01 X-12.0152 Y18.9492
G01 X-12.0624 Y18.9764
G01 X-12.1285 Y19.0134
G01 X-12.1478 Y19.0238
G01 X-12.1928 Y19.0469
G01 X-10.6934 Y23.2295
G01 X-10.6905 Y23.1906
G01 X-10.6884 Y23.1713
G01 X-10.6680 Y23.0341
G01 X-10.6604 Y22.9959
G01 X-10.6559 Y22.9769
G01 X-10.6267 Y22.8614
G01 X-10.6213 Y22.8427
G01 X-10.6091 Y22.8057
G01 X-10.5755 Y22.7118
G01 X-10.5615 Y22.6754
G01 X-10.5457 Y22.6398
G01 X-10.4945 Y22.5322
G01 X-10.4856 Y22.5149
G01 X-10.4664 Y22.4810
G01 X-10.4151 Y22.3955
G01 X-10.3943 Y22.3626
G01 X-10.3718 Y22.3307
G01 X-10.3124 Y22.2506
G01 X-10.2885 Y22.2199
G01 X-10.2630 Y22.1904
G01 X-10.1961 Y22.1165
G01 X-10.1692 Y22.0883
G01 X-10.1410 Y22.0614
G01 X-10.0525 Y21.9816
G01 X-10.0224 Y21.9569
G01 X-10.0069 Y21.9451
G01 X-9.9268 Y21.8857
G01 X-9.8949 Y21.8632
G01 X-9.8620 Y21.8424
G01 X-9.7765 Y21.7911
G01 X-9.7426 Y21.7719
G01 X-9.7078 Y21.7544
G01 X-9.6177 Y21.7118
G01 X-9.5821 Y21.6960
G01 X-9.5457 Y21.6820
G01 X-9.4518 Y21.6484
G01 X-9.4148 Y21.6362
G01 X-9.3773 Y21.6258
G01 X-9.2806 Y21.6016
G01 X-9.2426 Y21.5930
G01 X-9.2042 Y21.5864
G01 X-9.1056 Y21.5717
G01 X-9.0669 Y21.5670
G01 X-9.0280 Y21.5641
G01 X-8.9284 Y21.5592
G01 X-8.8895 Y21.5582
G01 X-8.8506 Y21.5592
G01 X-8.7315 Y21.5653
G01 X-8.7121 Y21.5670
G01 X-8.6734 Y21.5717
G01 X-8.5748 Y21.5864
G01 X-8.5364 Y21.5930
G01 X-8.4984 Y21.6016
G01 X-8.4017 Y21.6258
G01 X-8.3642 Y21.6362
G01 X-8.3272 Y21.6484
G01 X-8.2333 Y21.6820
G01 X-8.1969 Y21.6960
G01 X-8.1613 Y21.7118
G01 X-8.0712 Y21.7544
G01 X-8.0364 Y21.7719
G01 X-8.0025 Y21.7911
G01 X-7.9170 Y21.8424
G01 X-7.8841 Y21.8632
G01 X-7.8522 Y21.8857
G01 X-7.7721 Y21.9451
G01 X-7.7414 Y21.9690
G01 X-7.7119 Y21.9945
G01 X-7.6380 Y22.0614
G01 X-7.6098 Y22.0883
G01 X-7.5829 Y22.1165
G01 X-7.5160 Y22.1904
G01 X-7.4905 Y22.2199
G01 X-7.4666 Y22.2506
G01 X-7.4072 Y22.3307
G01 X-7.3847 Y22.3626
G01 X-7.3639 Y22.3955
G01 X-7.3126 Y22.4810
G01 X-7.2934 Y22.5149
G01 X-7.2759 Y22.5497
G01 X-7.2333 Y22.6398
G01 X-7.2175 Y22.6754
G01 X-7.2035 Y22.7118
G01 X-7.1699 Y22.8057
G01 X-7.1577 Y22.8427
G01 X-7.1473 Y22.8802
G01 X-7.1231 Y22.9769
G01 X-7.1145 Y23.0149
G01 X-7.1079 Y23.0533
G01 X-7.0932 Y23.1519
G01 X-7.0885 Y23.1906
G01 X-7.0856 Y23.2295
G01 X-7.0807 Y23.3291
G01 X-7.0797 Y23.3680
G01 X-7.0807 Y23.4069
G01 X-7.0868 Y23.5260
G01 X-7.0906 Y23.5647
G01 X-7.0932 Y23.5841
G01 X-7.1079 Y23.6827
G01 X-7.1145 Y23.7211
G01 X-7.1231 Y23.7591
G01 X-7.1473 Y23.8558
G01 X-7.1577 Y23.8933
G01 X-7.1699 Y23.9303
G01 X-7.2035 Y24.0242
G01 X-7.2175 Y24.0606
G01 X-7.2333 Y24.0962
G01 X-7.2759 Y24.1863
G01 X-7.2934 Y24.2211
G01 X-7.3126 Y24.2550
G01 X-7.3639 Y24.3405
G01 X-7.3847 Y24.3734
G01 X-7.4072 Y24.4053
G01 X-7.4666 Y24.4854
G01 X-7.4905 Y24.5161
G01 X-7.5160 Y24.5456
G01 X-7.5829 Y24.6195
G01 X-7.6098 Y24.6477
G01 X-7.6380 Y24.6746
G01 X-7.7119 Y24.7415
G01 X-7.7414 Y24.7670
G01 X-7.7721 Y24.7909
G01 X-7.8522 Y24.8503
G01 X-7.8841 Y24.8728
G01 X-7.9170 Y24.8936
G01 X-8.0025 Y24.9449
G01 X-8.0364 Y24.9641
G01 X-8.0712 Y24.9816
G01 X-8.1613 Y25.0242
G01 X-8.1969 Y25.0400
G01 X-8.2333 Y25.0540
G01 X-8.3272 Y25.0876
G01 X-8.3642 Y25.0998
G01 X-8.4017 Y25.1102
G01 X-8.4984 Y25.1344
G01 X-8.5364 Y25.1430
G01 X-8.5748 Y25.1496
G01 X-8.6734 Y25.1643
G01 X-8.7121 Y25.1690
G01 X-8.7510 Y25.1719
G01 X-8.8506 Y25.1768
G01 X-8.8895 Y25.1778
G01 X-8.9284 Y25.1768
G01 X-9.0475 Y25.1707
G01 X-9.0862 Y25.1669
G01 X-9.1056 Y25.1643
G01 X-9.2042 Y25.1496
G01 X-9.2426 Y25.1430
G01 X-9.2806 Y25.1344
G01 X-9.3773 Y25.1102
G01 X-9.4148 Y25.0998
G01 X-9.4518 Y25.0876
G01 X-9.5457 Y25.0540
G01 X-9.5821 Y25.0400
G01 X-9.6177 Y25.0242
G01 X-9.7078 Y24.9816
G01 X-9.7426 Y24.9641
G01 X-9.7765 Y24.9449
G01 X-9.8620 Y24.8936
G01 X-9.8949 Y24.8728
G01 X-9.9268 Y24.8503
G01 X-10.0069 Y24.7909
G01 X-10.0376 Y24.7670
G01 X-10.0671 Y24.7415
G01 X-10.1410 Y24.6746
G01 X-10.1692 Y24.6477
G01 X-10.1961 Y24.6195
G01 X-10.2759 Y24.5310
G01 X-10.2885 Y24.5161
G01 X-10.3124 Y24.4854
G01 X-10.3718 Y24.4053
G01 X-10.3943 Y24.3734
G01 X-10.4151 Y24.3405
G01 X-10.4664 Y24.2550
G01 X-10.4856 Y24.2211
G01 X-10.5031 Y24.1863
G01 X-10.5457 Y24.0962
G01 X-10.5615 Y24.0606
G01 X-10.5755 Y24.0242
G01 X-10.6154 Y23.9119
G01 X-10.6267 Y23.8746
G01 X-10.6317 Y23.8558
G01 X-10.6559 Y23.7591
G01 X-10.6645 Y23.7211
G01 X-10.6711 Y23.6827
G01 X-10.6884 Y23.5647
G01 X-10.6905 Y23.5454
G01 X-10.6934 Y23.5065
G01 X-10.6990 Y23.3875
G01 X-10.6990 Y23.3485
G01 X-10.6934 Y23.2295
G00 Z5.0000
G00 X-6.7912 Y19.5580
G01 F190.00
G01 Z-0.2200
G01 F400.00
G01 X-6.7403 Y19.5868
G01 X-6.7034 Y19.6085
G01 X-6.6045 Y19.6678
G01 X-6.5547 Y19.6984
G01 X-6.4989 Y19.7342
G01 X-6.4471 Y19.7688
G01 X-6.3928 Y19.8067
G01 X-6.3580 Y19.8317
G01 X-6.2590 Y19.9049
G01 X-6.2186 Y19.9354
G01 X-6.1695 Y19.9738
G01 X-6.1181 Y20.0156
G01 X-6.0793 Y20.0482
G01 X-6.0294 Y20.0917
G01 X-5.9050 Y20.2045
G01 X-5.7806 Y20.0917
G01 X-5.7307 Y20.0482
G01 X-5.6919 Y20.0156
G01 X-5.6405 Y19.9738
G01 X-5.5914 Y19.9354
G01 X-5.5510 Y19.9049
G01 X-5.4520 Y19.8317
G01 X-5.4172 Y19.8067
G01 X-5.3629 Y19.7688
G01 X-5.3111 Y19.7342
G01 X-5.2553 Y19.6984
G01 X-5.2055 Y19.6678
G01 X-5.1066 Y19.6085
G01 X-5.0697 Y19.5868
G01 X-5.0188 Y19.5580
G01 X-5.0697 Y19.5292
G01 X-5.1066 Y19.5075
G01 X-5.2055 Y19.4482
G01 X-5.2553 Y19.4176
G01 X-5.3111 Y19.3818
G01 X-5.3629 Y19.3472
G01 X-5.4172 Y19.3093
G01 X-5.4520 Y19.2843
G01 X-5.5510 Y19.2111
G01 X-5.5914 Y19.1806
G01 X-5.6405 Y19.1422
G01 X-5.6919 Y19.1004
G01 X-5.7307 Y19.0678
G01 X-5.7806 Y19.0243
G01 X-5.9050 Y18.9115
G01 X-6.0294 Y19.0243
G01 X-6.0793 Y19.0678
G01 X-6.1181 Y19.1004
G01 X-6.1695 Y19.1422
G01 X-6.2186 Y19.1806
G01 X-6.2590 Y19.2111
G01 X-6.3580 Y19.2843
G01 X-6.3928 Y19.3093
G01 X-6.4471 Y19.3472
G01 X-6.4989 Y19.3818
G01 X-6.5547 Y19.4176
G01 X-6.6045 Y19.4482
G01 X-6.7034 Y19.5075
G01 X-6.7403 Y19.5292
G01 X-6.7912 Y19.5580
G01 X-4.7244 Y23.2295
G01 X-4.7232 Y23.2100
G01 X-4.7194 Y23.1713
G01 X-4.6990 Y23.0341
G01 X-4.6914 Y22.9959
G01 X-4.6869 Y22.9769
G01 X-4.6577 Y22.8614
G01 X-4.6523 Y22.8427
G01 X-4.6401 Y22.8057
G01 X-4.6065 Y22.7118
G01 X-4.5925 Y22.6754
G01 X-4.5767 Y22.6398
G01 X-4.5255 Y22.5322
G01 X-4.5072 Y22.4978
G01 X-4.4974 Y22.4810
G01 X-4.4461 Y22.3955
G01 X-4.4253 Y22.3626
G01 X-4.4028 Y22.3307
G01 X-4.3434 Y22.2506
G01 X-4.3195 Y22.2199
G01 X-4.2940 Y22.1904
G01 X-4.2271 Y22.1165
G01 X-4.2002 Y22.0883
G01 X-4.1720 Y22.0614
G01 X-4.0835 Y21.9816
G01 X-4.0534 Y21.9569
G01 X-4.0379 Y21.9451
G01 X-3.9578 Y21.8857
G01 X-3.9259 Y21.8632
G01 X-3.8930 Y21.8424
G01 X-3.8075 Y21.7911
G01 X-3.7736 Y21.7719
G01 X-3.7388 Y21.7544
G01 X-3.6487 Y21.7118
G01 X-3.6131 Y21.6960
G01 X-3.5767 Y21.6820
G01 X-3.4828 Y21.6484
G01 X-3.4458 Y21.6362
G01 X-3.4083 Y21.6258
G01 X-3.3116 Y21.6016
G01 X-3.2736 Y21.5930
G01 X-3.2352 Y21.5864
G01 X-3.1366 Y21.5717
G01 X-3.0979 Y21.5670
G01 X-3.0590 Y21.5641
G01 X-2.9594 Y21.5592
G01 X-2.9205 Y21.5582
G01 X-2.8816 Y21.5592
G01 X-2.7625 Y21.5653
G01 X-2.7238 Y21.5691
G01 X-2.7044 Y21.5717
G01 X-2.6058 Y21.5864
G01 X-2.5674 Y21.5930
G01 X-2.5294 Y21.6016
G01 X-2.4327 Y21.6258
G01 X-2.3952 Y21.6362
G01 X-2.3582 Y21.6484
G01 X-2.2643 Y21.6820
G01 X-2.2279 Y21.6960
G01 X-2.1923 Y21.7118
G01 X-2.1022 Y21.7544
G01 X-2.0674 Y21.7719
G01 X-2.0335 Y21.7911
G01 X-1.9480 Y21.8424
G01 X-1.9151 Y21.8632
G01 X-1.8832 Y21.8857
G01 X-1.8031 Y21.9451
G01 X-1.7724 Y21.9690
G01 X-1.7429 Y21.9945
G01 X-1.6690 Y22.0614
G01 X-1.6408 Y22.0883
G01 X-1.6139 Y22.1165
G01 X-1.5470 Y22.1904
G01 X-1.5215 Y22.2199
G01 X-1.4976 Y22.2506
G01 X-1.4382 Y22.3307
G01 X-1.4157 Y22.3626
G01 X-1.3949 Y22.3955
G01 X-1.3436 Y22.4810
G01 X-1.3244 Y22.5149
G01 X-1.3069 Y22.5497
G01 X-1.2643 Y22.6398
G01 X-1.2485 Y22.6754
G01 X-1.2345 Y22.7118
G01 X-1.2009 Y22.8057
G01 X-1.1887 Y22.8427
G01 X-1.1783 Y22.8802
G01 X-1.1541 Y22.9769
G01 X-1.1455 Y23.0149
G01 X-1.1389 Y23.0533
G01 X-1.1242 Y23.1519
G01 X-1.1195 Y23.1906
G01 X-1.1166 Y23.2295
G01 X-1.1117 Y23.3291
G01 X-1.1107 Y23.3680
G01 X-1.1117 Y23.4069
G01 X-1.1178 Y23.5260
G01 X-1.1216 Y23.5647
G01 X-1.1242 Y23.5841
G01 X-1.1389 Y23.6827
G01 X-1.1455 Y23.7211
G01 X-1.1541 Y23.7591
G01 X-1.1783 Y23.8558
G01 X-1.1887 Y23.8933
G01 X-1.2009 Y23.9303
G01 X-1.2345 Y24.0242
G01 X-1.2485 Y24.0606
G01 X-1.2643 Y24.0962
G01 X-1.3069 Y24.1863
G01 X-1.3244 Y24.2211
G01 X-1.3436 Y24.2550
G01 X-1.3949 Y24.3405
G01 X-1.4157 Y24.3734
G01 X-1.4382 Y24.4053
G01 X-1.4976 Y24.4854
G01 X-1.5215 Y24.5161
G01 X-1.5470 Y24.5456
G01 X-1.6139 Y24.6195
G01 X-1.6408 Y24.6477
G01 X-1.6690 Y24.6746
G01 X-1.7429 Y24.7415
G01 X-1.7724 Y24.7670
G01 X-1.8031 Y24.7909
G01 X-1.8832 Y24.8503
G01 X-1.9151 Y24.8728
G01 X-1.9480 Y24.8936
G01 X-2.0335 Y24.9449
G01 X-2.0674 Y24.9641
G01 X-2.1022 Y24.9816
G01 X-2.1923 Y25.0242
G01 X-2.2279 Y25.0400
G01 X-2.2643 Y25.0540
G01 X-2.3582 Y25.0876
G01 X-2.3952 Y25.0998
G01 X-2.4327 Y25.1102
G01 X-2.5294 Y25.1344
G01 X-2.5674 Y25.1430
G01 X-2.6058 Y25.1496
G01 X-2.7044 Y25.1643
G01 X-2.7431 Y25.1690
G01 X-2.7820 Y25.1719
G01 X-2.8816 Y25.1768
G01 X-2.9205 Y25.1778
G01 X-2.9594 Y25.1768
G01 X-3.0785 Y25.1707
G01 X-3.1172 Y25.1669
G01 X-3.1366 Y25.1643
G01 X-3.2352 Y25.1496
G01 X-3.2736 Y25.1430
G01 X-3.3116 Y25.1344
G01 X-3.4083 Y25.1102
G01 X-3.4458 Y25.0998
G01 X-3.4828 Y25.0876
G01 X-3.5767 Y25.0540
G01 X-3.6131 Y25.0400
G01 X-3.6487 Y25.0242
G01 X-3.7388 Y24.9816
G01 X-3.7736 Y24.9641
G01 X-3.8075 Y24.9449
G01 X-3.8930 Y24.8936
G01 X-3.9259 Y24.8728
G01 X-3.9578 Y24.8503
G01 X-4.0379 Y24.7909
G01 X-4.0686 Y24.7670
G01 X-4.0981 Y24.7415
G01 X-4.1720 Y24.6746
G01 X-4.2002 Y24.6477
G01 X-4.2271 Y24.6195
G01 X-4.3069 Y24.5310
G01 X-4.3316 Y24.5009
G01 X-4.3434 Y24.4854
G01 X-4.4028 Y24.4053
G01 X-4.4253 Y24.3734
G01 X-4.4461 Y24.3405
G01 X-4.4974 Y24.2550
G01 X-4.5166 Y24.2211
G01 X-4.5341 Y24.1863
G01 X-4.5767 Y24.0962
G01 X-4.5925 Y24.0606
G01 X-4.6065 Y24.0242
G01 X-4.6464 Y23.9119
G01 X-4.6577 Y23.8746
G01 X-4.6627 Y23.8558
G01 X-4.6869 Y23.7591
G01 X-4.6955 Y23.7211
G01 X-4.7021 Y23.6827
G01 X-4.7194 Y23.5647
G01 X-4.7215 Y23.5454
G01 X-4.7244 Y23.5065
G01 X-4.7300 Y23.3875
G01 X-4.7300 Y23.3485
G01 X-4.7244 Y23.2295
G00 Z5.0000
G00 X-4.7244 Y15.6095
G01 F190.00
G01 Z-0.2200
G01 F400.00
G01 X-4.7215 Y15.5706
G01 X-4.7194 Y15.5513
G01 X-4.6990 Y15.4141
G01 X-4.6955 Y15.3949
G01 X-4.6869 Y15.3569
G01 X-4.6577 Y15.2414
G01 X-4.6464 Y15.2041
G01 X-4.6401 Y15.1857
G01 X-4.6065 Y15.0918
G01 X-4.5925 Y15.0554
G01 X-4.5767 Y15.0198
G01 X-4.5255 Y14.9122
G01 X-4.5166 Y14.8949
G01 X-4.4974 Y14.8610
G01 X-4.4461 Y14.7755
G01 X-4.4253 Y14.7426
G01 X-4.4028 Y14.7107
G01 X-4.3434 Y14.6306
G01 X-4.3195 Y14.5999
G01 X-4.2940 Y14.5704
G01 X-4.2271 Y14.4965
G01 X-4.2002 Y14.4683
G01 X-4.1720 Y14.4414
G01 X-4.0835 Y14.3616
G01 X-4.0534 Y14.3369
G01 X-4.0379 Y14.3251
G01 X-3.9578 Y14.2657
G01 X-3.9259 Y14.2432
G01 X-3.8930 Y14.2224
G01 X-3.8075 Y14.1711
G01 X-3.7736 Y14.1519
G01 X-3.7388 Y14.1344
G01 X-3.6487 Y14.0918
G01 X-3.6131 Y14.0760
G01 X-3.5767 Y14.0620
G01 X-3.4828 Y14.0284
G01 X-3.4458 Y14.0162
G01 X-3.4083 Y14.0058
G01 X-3.3116 Y13.9816
G01 X-3.2736 Y13.9730
G01 X-3.2352 Y13.9664
G01 X-3.1366 Y13.9517
G01 X-3.0979 Y13.9470
G01 X-3.0590 Y13.9441
G01 X-2.9594 Y13.9392
G01 X-2.9205 Y13.9382
G01 X-2.8816 Y13.9392
G01 X-2.7625 Y13.9453
G01 X-2.7238 Y13.9491
G01 X-2.7044 Y13.9517
G01 X-2.6058 Y13.9664
G01 X-2.5674 Y13.9730
G01 X-2.5294 Y13.9816
G01 X-2.4327 Y14.0058
G01 X-2.3952 Y14.0162
G01 X-2.3582 Y14.0284
G01 X-2.2643 Y14.0620
G01 X-2.2279 Y14.0760
G01 X-2.1923 Y14.0918
G01 X-2.1022 Y14.1344
G01 X-2.0674 Y14.1519
G01 X-2.0335 Y14.1711
G01 X-1.9480 Y14.2224
G01 X-1.9151 Y14.2432
G01 X-1.8832 Y14.2657
G01 X-1.8031 Y14.3251
G01 X-1.7724 Y14.3490
G01 X-1.7429 Y14.3745
G01 X-1.6690 Y14.4414
G01 X-1.6408 Y14.4683
G01 X-1.6139 Y14.4965
G01 X-1.5470 Y14.5704
G01 X-1.5215 Y14.5999
G01 X-1.4976 Y14.6306
G01 X-1.4382 Y14.7107
G01 X-1.4157 Y14.7426
G01 X-1.3949 Y14.7755
G01 X-1.3436 Y14.8610
G01 X-1.3244 Y14.8949
G01 X-1.3069 Y14.9297
G01 X-1.2643 Y15.0198
G01 X-1.2485 Y15.0554
G01 X-1.2345 Y15.0918
G01 X-1.2009 Y15.1857
G01 X-1.1887 Y15.2227
G01 X-1.1783 Y15.2602
G01 X-1.1541 Y15.3569
G01 X-1.1455 Y15.3949
G01 X-1.1389 Y15.4333
G01 X-1.1242 Y15.5319
G01 X-1.1195 Y15.5706
G01 X-1.1166 Y15.6095
G01 X-1.1117 Y15.7091
G01 X-1.1107 Y15.7480
G01 X-1.1117 Y15.7869
G01 X-1.1178 Y15.9060
G01 X-1.1216 Y15.9447
G01 X-1.1242 Y15.9641
G01 X-1.1389 Y16.0627
G01 X-1.1455 Y16.1011
G01 X-1.1541 Y16.1391
G01 X-1.1783 Y16.2358
G01 X-1.1887 Y16.2733
G01 X-1.2009 Y16.3103
G01 X-1.2345 Y16.4042
G01 X-1.2485 Y16.4406
G01 X-1.2643 Y16.4762
G01 X-1.3069 Y16.5663
G01 X-1.3244 Y16.6011
G01 X-1.3436 Y16.6350
G01 X-1.3949 Y16.7205
G01 X-1.4157 Y16.7534
G01 X-1.4382 Y16.7853
G01 X-1.4976 Y16.8654
G01 X-1.5215 Y16.8961
G01 X-1.5470 Y16.9256
G01 X-1.6139 Y16.9995
G01 X-1.6408 Y17.0277
G01 X-1.6690 Y17.0546
G01 X-1.7429 Y17.1215
G01 X-1.7724 Y17.1470
G01 X-1.8031 Y17.1709
G01 X-1.8832 Y17.2303
G01 X-1.9151 Y17.2528
G01 X-1.9480 Y17.2736
G01 X-2.0335 Y17.3249
G01 X-2.0674 Y17.3441
G01 X-2.1022 Y17.3616
G01 X-2.1923 Y17.4042
G01 X-2.2279 Y17.4200
G01 X-2.2643 Y17.4340
G01 X-2.3582 Y17.4676
G01 X-2.3952 Y17.4798
G01 X-2.4327 Y17.4902
G01 X-2.5294 Y17.5144
G01 X-2.5674 Y17.5230
G01 X-2.6058 Y17.5296
G01 X-2.7044 Y17.5443
G01 X-2.7431 Y17.5490
G01 X-2.7820 Y17.5519
G01 X-2.8816 Y17.5568
G01 X-2.9205 Y17.5578
G01 X-2.9594 Y17.5568
G01 X-3.0785 Y17.5507
G01 X-3.1172 Y17.5469
G01 X-3.1366 Y17.5443
G01 X-3.2352 Y17.5296
G01 X-3.2736 Y17.5230
G01 X-3.3116 Y17.5144
G01 X-3.4083 Y17.4902
G01 X-3.4458 Y17.4798
G01 X-3.4828 Y17.4676
G01 X-3.5767 Y17.4340
G01 X-3.6131 Y17.4200
G01 X-3.6487 Y17.4042
G01 X-3.7388 Y17.3616
G01 X-3.7736 Y17.3441
G01 X-3.8075 Y17.3249
G01 X-3.8930 Y17.2736
G01 X-3.9259 Y17.2528
G01 X-3.9578 Y17.2303
G01 X-4.0379 Y17.1709
G01 X-4.0686 Y17.1470
G01 X-4.0981 Y17.1215
G01 X-4.1720 Y17.0546
G01 X-4.2002 Y17.0277
G01 X-4.2271 Y16.9995
G01 X-4.3069 Y16.9110
G01 X-4.3316 Y16.8809
G01 X-4.3434 Y16.8654
G01 X-4.4028 Y16.7853
G01 X-4.4253 Y16.7534
G01 X-4.4461 Y16.7205
G01 X-4.4974 Y16.6350
G01 X-4.5166 Y16.6011
G01 X-4.5341 Y16.5663
G01 X-4.5767 Y16.4762
G01 X-4.5925 Y16.4406
G01 X-4.6065 Y16.4042
G01 X-4.6464 Y16.2919
G01 X-4.6577 Y16.2546
G01 X-4.6627 Y16.2358
G01 X-4.6869 Y16.1391
G01 X-4.6955 Y16.1011
G01 X-4.7021 Y16.0627
G01 X-4.7194 Y15.9447
G01 X-4.7215 Y15.9254
G01 X-4.7244 Y15.8865
G01 X-4.7300 Y15.7675
G01 X-4.7300 Y15.7285
G01 X-4.7244 Y15.6095
G00 Z5.0000
G00 X4.6736 Y13.7045
G01 F190.00
G01 Z-0.2200
G01 F400.00
G01 X4.6765 Y13.6656
G01 X4.6786 Y13.6463
G01 X4.6990 Y13.5091
G01 X4.7025 Y13.4899
G01 X4.7111 Y13.4519
G01 X4.7403 Y13.3364
G01 X4.7516 Y13.2991
G01 X4.7579 Y13.2807
G01 X4.7915 Y13.1868
G01 X4.8055 Y13.1504
G01 X4.8213 Y13.1148
G01 X4.8725 Y13.0072
G01 X4.8814 Y12.9899
G01 X4.9006 Y12.9560
G01 X4.9519 Y12.8705
G01 X4.9727 Y12.8376
G01 X4.9952 Y12.8057
G01 X5.0546 Y12.7256
G01 X5.0785 Y12.6949
G01 X5.1040 Y12.6654
G01 X5.1709 Y12.5915
G01 X5.1978 Y12.5633
G01 X5.2260 Y12.5364
G01 X5.3145 Y12.4566
G01 X5.3446 Y12.4319
G01 X5.3601 Y12.4201
G01 X5.4402 Y12.3607
G01 X5.4721 Y12.3382
G01 X5.5050 Y12.3174
G01 X5.5905 Y12.2661
G01 X5.6244 Y12.2469
G01 X5.6592 Y12.2294
G01 X5.7493 Y12.1868
G01 X5.7849 Y12.1710
G01 X5.8213 Y12.1570
G01 X5.9152 Y12.1234
G01 X5.9522 Y12.1112
G01 X5.9897 Y12.1008
G01 X6.0864 Y12.0766
G01 X6.1244 Y12.0680
G01 X6.1628 Y12.0614
G01 X6.2614 Y12.0467
G01 X6.3001 Y12.0420
G01 X6.3390 Y12.0391
G01 X6.4386 Y12.0342
G01 X6.4775 Y12.0332
G01 X6.5164 Y12.0342
G01 X6.6355 Y12.0403
G01 X6.6742 Y12.0441
G01 X6.6936 Y12.0467
G01 X6.7922 Y12.0614
G01 X6.8306 Y12.0680
G01 X6.8686 Y12.0766
G01 X6.9653 Y12.1008
G01 X7.0028 Y12.1112
G01 X7.0398 Y12.1234
G01 X7.1337 Y12.1570
G01 X7.1701 Y12.1710
G01 X7.2057 Y12.1868
G01 X7.2958 Y12.2294
G01 X7.3306 Y12.2469
G01 X7.3645 Y12.2661
G01 X7.4500 Y12.3174
G01 X7.4829 Y12.3382
G01 X7.5148 Y12.3607
G01 X7.5949 Y12.4201
G01 X7.6256 Y12.4440
G01 X7.6551 Y12.4695
G01 X7.7290 Y12.5364
G01 X7.7572 Y12.5633
G01 X7.7841 Y12.5915
G01 X7.8510 Y12.6654
G01 X7.8765 Y12.6949
G01 X7.9004 Y12.7256
G01 X7.9598 Y12.8057
G01 X7.9823 Y12.8376
G01 X8.0031 Y12.8705
G01 X8.0544 Y12.9560
G01 X8.0736 Y12.9899
G01 X8.0911 Y13.0247
G01 X8.1337 Y13.1148
G01 X8.1495 Y13.1504
G01 X8.1635 Y13.1868
G01 X8.1971 Y13.2807
G01 X8.2093 Y13.3177
G01 X8.2197 Y13.3552
G01 X8.2439 Y13.4519
G01 X8.2525 Y13.4899
G01 X8.2591 Y13.5283
G01 X8.2738 Y13.6269
G01 X8.2785 Y13.6656
G01 X8.2814 Y13.7045
G01 X8.2863 Y13.8041
G01 X8.2873 Y13.8430
G01 X8.2863 Y13.8819
G01 X8.2802 Y14.0010
G01 X8.2785 Y14.0204
G01 X8.2738 Y14.0591
G01 X8.2591 Y14.1577
G01 X8.2525 Y14.1961
G01 X8.2439 Y14.2341
G01 X8.2197 Y14.3308
G01 X8.2093 Y14.3683
G01 X8.1971 Y14.4053
G01 X8.1635 Y14.4992
G01 X8.1495 Y14.5356
G01 X8.1337 Y14.5712
G01 X8.0911 Y14.6613
G01 X8.0736 Y14.6961
G01 X8.0544 Y14.7300
G01 X8.0031 Y14.8155
G01 X7.9823 Y14.8484
G01 X7.9598 Y14.8803
G01 X7.9004 Y14.9604
G01 X7.8765 Y14.9911
G01 X7.8510 Y15.0206
G01 X7.7841 Y15.0945
G01 X7.7572 Y15.1227
G01 X7.7290 Y15.1496
G01 X7.6551 Y15.2165
G01 X7.6256 Y15.2420
G01 X7.5949 Y15.2659
G01 X7.5148 Y15.3253
G01 X7.4829 Y15.3478
G01 X7.4500 Y15.3686
G01 X7.3645 Y15.4199
G01 X7.3306 Y15.4391
G01 X7.2958 Y15.4566
G01 X7.2057 Y15.4992
G01 X7.1701 Y15.5150
G01 X7.1337 Y15.5290
G01 X7.0398 Y15.5626
G01 X7.0028 Y15.5748
G01 X6.9653 Y15.5852
G01 X6.8686 Y15.6094
G01 X6.8306 Y15.6180
G01 X6.7922 Y15.6246
G01 X6.6936 Y15.6393
G01 X6.6549 Y15.6440
G01 X6.6160 Y15.6469
G01 X6.5164 Y15.6518
G01 X6.4775 Y15.6528
G01 X6.4386 Y15.6518
G01 X6.3195 Y15.6457
G01 X6.3001 Y15.6440
G01 X6.2614 Y15.6393
G01 X6.1628 Y15.6246
G01 X6.1244 Y15.6180
G01 X6.0864 Y15.6094
G01 X5.9897 Y15.5852
G01 X5.9522 Y15.5748
G01 X5.9152 Y15.5626
G01 X5.8213 Y15.5290
G01 X5.7849 Y15.5150
G01 X5.7493 Y15.4992
G01 X5.6592 Y15.4566
G01 X5.6244 Y15.4391
G01 X5.5905 Y15.4199
G01 X5.5050 Y15.3686
G01 X5.4721 Y15.3478
G01 X5.4402 Y15.3253
G01 X5.3601 Y15.2659
G01 X5.3294 Y15.2420
G01 X5.2999 Y15.2165
G01 X5.2260 Y15.1496
G01 X5.1978 Y15.1227
G01 X5.1709 Y15.0945
G01 X5.0911 Y15.0060
G01 X5.0785 Y14.9911
G01 X5.0546 Y14.9604
G01 X4.9952 Y14.8803
G01 X4.9727 Y14.8484
G01 X4.9519 Y14.8155
G01 X4.9006 Y14.7300
G01 X4.8814 Y14.6961
G01 X4.8639 Y14.6613
G01 X4.8213 Y14.5712
G01 X4.8055 Y14.5356
G01 X4.7915 Y14.4992
G01 X4.7516 Y14.3869
G01 X4.7457 Y14.3683
G01 X4.7353 Y14.3308
G01 X4.7111 Y14.2341
G01 X4.7025 Y14.1961
G01 X4.6959 Y14.1577
G01 X4.6786 Y14.0397
G01 X4.6748 Y14.0010
G01 X4.6736 Y13.9815
G01 X4.6680 Y13.8625
G01 X4.6680 Y13.8235
G01 X4.6736 Y13.7045
G00 Z5.0000
G00 X10.2875 Y15.9413
G01 F190.00
G01 Z-0.2200
G01 F400.00
G01 X10.2587 Y15.9922
G01 X10.2370 Y16.0291
G01 X10.1777 Y16.1280
G01 X10.1471 Y16.1778
G01 X10.1113 Y16.2336
G01 X10.0854 Y16.2725
G01 X10.0568 Y16.3143
G01 X10.0287 Y16.3539
G01 X10.0943 Y16.3520
G01 X10.1449 Y16.3513
G01 X10.2111 Y16.3517
G01 X10.2579 Y16.3527
G01 X10.3241 Y16.3553
G01 X10.5108 Y16.3644
G01 X10.5557 Y16.3670
G01 X10.5182 Y16.3143
G01 X10.4896 Y16.2725
G01 X10.4637 Y16.2336
G01 X10.4279 Y16.1778
G01 X10.3973 Y16.1280
G01 X10.3380 Y16.0291
G01 X10.3163 Y15.9922
G01 X10.2875 Y15.9413
G01 X12.2936 Y13.7045
G01 X12.2948 Y13.6850
G01 X12.2986 Y13.6463
G01 X12.3159 Y13.5283
G01 X12.3225 Y13.4899
G01 X12.3311 Y13.4519
G01 X12.3553 Y13.3552
G01 X12.3657 Y13.3177
G01 X12.3779 Y13.2807
G01 X12.4115 Y13.1868
G01 X12.4255 Y13.1504
G01 X12.4413 Y13.1148
G01 X12.4839 Y13.0247
G01 X12.5014 Y12.9899
G01 X12.5206 Y12.9560
G01 X12.5719 Y12.8705
G01 X12.5927 Y12.8376
G01 X12.6152 Y12.8057
G01 X12.6864 Y12.7101
G01 X12.7111 Y12.6800
G01 X12.7909 Y12.5915
G01 X12.8178 Y12.5633
G01 X12.8460 Y12.5364
G01 X12.9199 Y12.4695
G01 X12.9345 Y12.4566
G01 X12.9646 Y12.4319
G01 X13.0602 Y12.3607
G01 X13.0921 Y12.3382
G01 X13.1250 Y12.3174
G01 X13.2273 Y12.2563
G01 X13.2617 Y12.2380
G01 X13.2792 Y12.2294
G01 X13.3693 Y12.1868
G01 X13.4049 Y12.1710
G01 X13.4413 Y12.1570
G01 X13.5352 Y12.1234
G01 X13.5722 Y12.1112
G01 X13.5909 Y12.1058
G01 X13.7064 Y12.0766
G01 X13.7444 Y12.0680
G01 X13.7828 Y12.0614
G01 X13.8814 Y12.0467
G01 X13.9201 Y12.0420
G01 X13.9395 Y12.0403
G01 X14.0780 Y12.0335
G01 X14.0975 Y12.0332
G01 X14.1364 Y12.0342
G01 X14.2360 Y12.0391
G01 X14.2749 Y12.0420
G01 X14.3136 Y12.0467
G01 X14.4314 Y12.0645
G01 X14.4506 Y12.0680
G01 X14.4886 Y12.0766
G01 X14.5853 Y12.1008
G01 X14.6228 Y12.1112
G01 X14.6598 Y12.1234
G01 X14.7720 Y12.1638
G01 X14.8080 Y12.1787
G01 X14.8257 Y12.1868
G01 X14.9158 Y12.2294
G01 X14.9506 Y12.2469
G01 X14.9845 Y12.2661
G01 X15.0700 Y12.3174
G01 X15.1029 Y12.3382
G01 X15.1190 Y12.3493
G01 X15.2304 Y12.4319
G01 X15.2456 Y12.4440
G01 X15.2751 Y12.4695
G01 X15.3490 Y12.5364
G01 X15.3772 Y12.5633
G01 X15.4041 Y12.5915
G01 X15.4839 Y12.6800
G01 X15.5086 Y12.7101
G01 X15.5204 Y12.7256
G01 X15.5798 Y12.8057
G01 X15.6023 Y12.8376
G01 X15.6231 Y12.8705
G01 X15.6744 Y12.9560
G01 X15.6936 Y12.9899
G01 X15.7025 Y13.0072
G01 X15.7537 Y13.1148
G01 X15.7695 Y13.1504
G01 X15.7835 Y13.1868
G01 X15.8171 Y13.2807
G01 X15.8293 Y13.3177
G01 X15.8397 Y13.3552
G01 X15.8684 Y13.4709
G01 X15.8725 Y13.4899
G01 X15.8791 Y13.5283
G01 X15.8938 Y13.6269
G01 X15.8985 Y13.6656
G01 X15.9014 Y13.7045
G01 X15.9063 Y13.8041
G01 X15.9073 Y13.8430
G01 X15.9070 Y13.8625
G01 X15.9002 Y14.0010
G01 X15.8964 Y14.0397
G01 X15.8938 Y14.0591
G01 X15.8791 Y14.1577
G01 X15.8725 Y14.1961
G01 X15.8639 Y14.2341
G01 X15.8397 Y14.3308
G01 X15.8293 Y14.3683
G01 X15.8171 Y14.4053
G01 X15.7835 Y14.4992
G01 X15.7695 Y14.5356
G01 X15.7537 Y14.5712
G01 X15.7111 Y14.6613
G01 X15.6936 Y14.6961
G01 X15.6744 Y14.7300
G01 X15.6231 Y14.8155
G01 X15.6023 Y14.8484
G01 X15.5798 Y14.8803
G01 X15.5204 Y14.9604
G01 X15.4965 Y14.9911
G01 X15.4710 Y15.0206
G01 X15.4041 Y15.0945
G01 X15.3772 Y15.1227
G01 X15.3490 Y15.1496
G01 X15.2751 Y15.2165
G01 X15.2456 Y15.2420
G01 X15.2149 Y15.2659
G01 X15.1348 Y15.3253
G01 X15.1029 Y15.3478
G01 X15.0700 Y15.3686
G01 X14.9845 Y15.4199
G01 X14.9506 Y15.4391
G01 X14.9158 Y15.4566
G01 X14.8257 Y15.4992
G01 X14.7901 Y15.5150
G01 X14.7537 Y15.5290
G01 X14.6598 Y15.5626
G01 X14.6228 Y15.5748
G01 X14.5853 Y15.5852
G01 X14.4886 Y15.6094
G01 X14.4506 Y15.6180
G01 X14.4122 Y15.6246
G01 X14.3136 Y15.6393
G01 X14.2749 Y15.6440
G01 X14.2360 Y15.6469
G01 X14.1364 Y15.6518
G01 X14.0975 Y15.6528
G01 X14.0586 Y15.6518
G01 X13.9395 Y15.6457
G01 X13.9008 Y15.6419
G01 X13.8814 Y15.6393
G01 X13.7828 Y15.6246
G01 X13.7444 Y15.6180
G01 X13.7064 Y15.6094
G01 X13.6097 Y15.5852
G01 X13.5722 Y15.5748
G01 X13.5352 Y15.5626
G01 X13.4413 Y15.5290
G01 X13.4049 Y15.5150
G01 X13.3693 Y15.4992
G01 X13.2792 Y15.4566
G01 X13.2444 Y15.4391
G01 X13.2105 Y15.4199
G01 X13.1250 Y15.3686
G01 X13.0921 Y15.3478
G01 X13.0602 Y15.3253
G01 X12.9801 Y15.2659
G01 X12.9494 Y15.2420
G01 X12.9199 Y15.2165
G01 X12.8460 Y15.1496
G01 X12.8178 Y15.1227
G01 X12.7909 Y15.0945
G01 X12.7111 Y15.0060
G01 X12.6985 Y14.9911
G01 X12.6746 Y14.9604
G01 X12.6152 Y14.8803
G01 X12.5927 Y14.8484
G01 X12.5719 Y14.8155
G01 X12.5206 Y14.7300
G01 X12.5014 Y14.6961
G01 X12.4839 Y14.6613
G01 X12.4413 Y14.5712
G01 X12.4255 Y14.5356
G01 X12.4115 Y14.4992
G01 X12.3716 Y14.3869
G01 X12.3603 Y14.3496
G01 X12.3553 Y14.3308
G01 X12.3311 Y14.2341
G01 X12.3225 Y14.1961
G01 X12.3159 Y14.1577
G01 X12.2986 Y14.0397
G01 X12.2965 Y14.0204
G01 X12.2936 Y13.9815
G01 X12.2880 Y13.8625
G01 X12.2880 Y13.8235
G01 X12.2936 Y13.7045
G00 Z5.0000
G00 X7.4719 Y21.3643
G01 F190.00
G01 Z-0.2200
G01 F400.00
G01 X7.4747 Y21.3255
G01 X7.4769 Y21.3061
G01 X7.5069 Y21.1019
G01 X7.5136 Y21.0635
G01 X7.5221 Y21.0255
G01 X7.5676 Y20.8441
G01 X7.5780 Y20.8066
G01 X7.5902 Y20.7696
G01 X7.6532 Y20.5936
G01 X7.6672 Y20.5572
G01 X7.6830 Y20.5216
G01 X7.7629 Y20.3526
G01 X7.7804 Y20.3178
G01 X7.7996 Y20.2839
G01 X7.8957 Y20.1236
G01 X7.9166 Y20.0907
G01 X7.9276 Y20.0746
G01 X8.0504 Y19.9086
G01 X8.0743 Y19.8779
G01 X8.0998 Y19.8484
G01 X8.2253 Y19.7099
G01 X8.2522 Y19.6817
G01 X8.2804 Y19.6548
G01 X8.4189 Y19.5293
G01 X8.4484 Y19.5038
G01 X8.4791 Y19.4799
G01 X8.6293 Y19.3685
G01 X8.6612 Y19.3461
G01 X8.6941 Y19.3252
G01 X8.8544 Y19.2291
G01 X8.8883 Y19.2099
G01 X8.9056 Y19.2009
G01 X9.0921 Y19.1125
G01 X9.1277 Y19.0967
G01 X9.1641 Y19.0827
G01 X9.3401 Y19.0197
G01 X9.3771 Y19.0075
G01 X9.4146 Y18.9971
G01 X9.5960 Y18.9516
G01 X9.6340 Y18.9431
G01 X9.6724 Y18.9364
G01 X9.8573 Y18.9090
G01 X9.8960 Y18.9042
G01 X9.9348 Y18.9014
G01 X10.1216 Y18.8922
G01 X10.1605 Y18.8912
G01 X10.1994 Y18.8922
G01 X10.4056 Y18.9026
G01 X10.4444 Y18.9064
G01 X10.4637 Y18.9090
G01 X10.6486 Y18.9364
G01 X10.6870 Y18.9431
G01 X10.7250 Y18.9516
G01 X10.9064 Y18.9971
G01 X10.9439 Y19.0075
G01 X10.9809 Y19.0197
G01 X11.1569 Y19.0827
G01 X11.1933 Y19.0967
G01 X11.2289 Y19.1125
G01 X11.3979 Y19.1924
G01 X11.4154 Y19.2009
G01 X11.4497 Y19.2193
G01 X11.6269 Y19.3252
G01 X11.6598 Y19.3461
G01 X11.6917 Y19.3685
G01 X11.8419 Y19.4799
G01 X11.8726 Y19.5038
G01 X11.9021 Y19.5293
G01 X12.0406 Y19.6548
G01 X12.0688 Y19.6817
G01 X12.0957 Y19.7099
G01 X12.2212 Y19.8484
G01 X12.2467 Y19.8779
G01 X12.2706 Y19.9086
G01 X12.3820 Y20.0588
G01 X12.4044 Y20.0907
G01 X12.4253 Y20.1236
G01 X12.5214 Y20.2839
G01 X12.5312 Y20.3008
G01 X12.5496 Y20.3351
G01 X12.6380 Y20.5216
G01 X12.6538 Y20.5572
G01 X12.6678 Y20.5936
G01 X12.7308 Y20.7696
G01 X12.7430 Y20.8066
G01 X12.7534 Y20.8441
G01 X12.7989 Y21.0255
G01 X12.8074 Y21.0635
G01 X12.8141 Y21.1019
G01 X12.8415 Y21.2868
G01 X12.8463 Y21.3255
G01 X12.8491 Y21.3643
G01 X12.8583 Y21.5511
G01 X12.8593 Y21.5900
G01 X12.8583 Y21.6289
G01 X12.8491 Y21.8157
G01 X12.8463 Y21.8545
G01 X12.8441 Y21.8739
G01 X12.8141 Y22.0781
G01 X12.8074 Y22.1165
G01 X12.7989 Y22.1545
G01 X12.7534 Y22.3359
G01 X12.7430 Y22.3734
G01 X12.7308 Y22.4104
G01 X12.6611 Y22.6047
G01 X12.6538 Y22.6228
G01 X12.6380 Y22.6584
G01 X12.5581 Y22.8274
G01 X12.5406 Y22.8622
G01 X12.5214 Y22.8961
G01 X12.4253 Y23.0564
G01 X12.4044 Y23.0893
G01 X12.3820 Y23.1212
G01 X12.2706 Y23.2714
G01 X12.2467 Y23.3021
G01 X12.2212 Y23.3316
G01 X12.0957 Y23.4701
G01 X12.0688 Y23.4983
G01 X12.0549 Y23.5119
G01 X11.9021 Y23.6507
G01 X11.8726 Y23.6762
G01 X11.8419 Y23.7001
G01 X11.6917 Y23.8115
G01 X11.6598 Y23.8339
G01 X11.6435 Y23.8446
G01 X11.4666 Y23.9509
G01 X11.4497 Y23.9607
G01 X11.4154 Y23.9791
G01 X11.2112 Y24.0756
G01 X11.1752 Y24.0906
G01 X11.0656 Y24.1300
G01 X11.1752 Y24.1694
G01 X11.2112 Y24.1844
G01 X11.3979 Y24.2724
G01 X11.4154 Y24.2809
G01 X11.4497 Y24.2993
G01 X11.6269 Y24.4052
G01 X11.6598 Y24.4261
G01 X11.6917 Y24.4485
G01 X11.8574 Y24.5717
G01 X11.8726 Y24.5838
G01 X11.9021 Y24.6093
G01 X12.0406 Y24.7348
G01 X12.0688 Y24.7617
G01 X12.0957 Y24.7899
G01 X12.2212 Y24.9284
G01 X12.2467 Y24.9579
G01 X12.2706 Y24.9886
G01 X12.3820 Y25.1388
G01 X12.4044 Y25.1707
G01 X12.4151 Y25.1870
G01 X12.5214 Y25.3639
G01 X12.5406 Y25.3978
G01 X12.5581 Y25.4326
G01 X12.6380 Y25.6016
G01 X12.6538 Y25.6372
G01 X12.6678 Y25.6736
G01 X12.7308 Y25.8496
G01 X12.7430 Y25.8866
G01 X12.7534 Y25.9241
G01 X12.7989 Y26.1055
G01 X12.8074 Y26.1435
G01 X12.8110 Y26.1627
G01 X12.8415 Y26.3668
G01 X12.8463 Y26.4055
G01 X12.8491 Y26.4443
G01 X12.8583 Y26.6311
G01 X12.8593 Y26.6700
G01 X12.8583 Y26.7089
G01 X12.8491 Y26.8957
G01 X12.8463 Y26.9345
G01 X12.8441 Y26.9539
G01 X12.8110 Y27.1773
G01 X12.8034 Y27.2156
G01 X12.7989 Y27.2345
G01 X12.7534 Y27.4159
G01 X12.7430 Y27.4534
G01 X12.7308 Y27.4904
G01 X12.6678 Y27.6664
G01 X12.6538 Y27.7028
G01 X12.6380 Y27.7384
G01 X12.5581 Y27.9074
G01 X12.5406 Y27.9422
G01 X12.5214 Y27.9761
G01 X12.4253 Y28.1364
G01 X12.4044 Y28.1693
G01 X12.3820 Y28.2012
G01 X12.2706 Y28.3514
G01 X12.2467 Y28.3821
G01 X12.2212 Y28.4116
G01 X12.0957 Y28.5501
G01 X12.0688 Y28.5783
G01 X12.0406 Y28.6052
G01 X11.9021 Y28.7307
G01 X11.8726 Y28.7562
G01 X11.8419 Y28.7801
G01 X11.6917 Y28.8915
G01 X11.6598 Y28.9139
G01 X11.6269 Y28.9348
G01 X11.4666 Y29.0309
G01 X11.4497 Y29.0407
G01 X11.4154 Y29.0591
G01 X11.2289 Y29.1475
G01 X11.1933 Y29.1633
G01 X11.1569 Y29.1773
G01 X10.9809 Y29.2403
G01 X10.9439 Y29.2525
G01 X10.9064 Y29.2629
G01 X10.7250 Y29.3084
G01 X10.6870 Y29.3169
G01 X10.6486 Y29.3236
G01 X10.4637 Y29.3510
G01 X10.4250 Y29.3558
G01 X10.3862 Y29.3586
G01 X10.1994 Y29.3678
G01 X10.1605 Y29.3688
G01 X10.1216 Y29.3678
G01 X9.9348 Y29.3586
G01 X9.8960 Y29.3558
G01 X9.8573 Y29.3510
G01 X9.6724 Y29.3236
G01 X9.6340 Y29.3169
G01 X9.5960 Y29.3084
G01 X9.4146 Y29.2629
G01 X9.3771 Y29.2525
G01 X9.3401 Y29.2403
G01 X9.1641 Y29.1773
G01 X9.1277 Y29.1633
G01 X9.0921 Y29.1475
G01 X8.9231 Y29.0676
G01 X8.8883 Y29.0501
G01 X8.8544 Y29.0309
G01 X8.6941 Y28.9348
G01 X8.6612 Y28.9139
G01 X8.6293 Y28.8915
G01 X8.4791 Y28.7801
G01 X8.4484 Y28.7562
G01 X8.4189 Y28.7307
G01 X8.2804 Y28.6052
G01 X8.2522 Y28.5783
G01 X8.2253 Y28.5501
G01 X8.0998 Y28.4116
G01 X8.0743 Y28.3821
G01 X8.0504 Y28.3514
G01 X7.9390 Y28.2012
G01 X7.9166 Y28.1693
G01 X7.8957 Y28.1364
G01 X7.7996 Y27.9761
G01 X7.7804 Y27.9422
G01 X7.7714 Y27.9249
G01 X7.6830 Y27.7384
G01 X7.6672 Y27.7028
G01 X7.6532 Y27.6664
G01 X7.5902 Y27.4904
G01 X7.5780 Y27.4534
G01 X7.5676 Y27.4159
G01 X7.5221 Y27.2345
G01 X7.5136 Y27.1965
G01 X7.5069 Y27.1581
G01 X7.4795 Y26.9732
G01 X7.4747 Y26.9345
G01 X7.4731 Y26.9151
G01 X7.4627 Y26.7089
G01 X7.4617 Y26.6700
G01 X7.4627 Y26.6311
G01 X7.4719 Y26.4443
G01 X7.4747 Y26.4055
G01 X7.4795 Y26.3668
G01 X7.5069 Y26.1819
G01 X7.5136 Y26.1435
G01 X7.5221 Y26.1055
G01 X7.5676 Y25.9241
G01 X7.5780 Y25.8866
G01 X7.5902 Y25.8496
G01 X7.6599 Y25.6553
G01 X7.6749 Y25.6193
G01 X7.6830 Y25.6016
G01 X7.7629 Y25.4326
G01 X7.7804 Y25.3978
G01 X7.7996 Y25.3639
G01 X7.8957 Y25.2036
G01 X7.9166 Y25.1707
G01 X7.9390 Y25.1388
G01 X8.0504 Y24.9886
G01 X8.0743 Y24.9579
G01 X8.0998 Y24.9284
G01 X8.2253 Y24.7899
G01 X8.2522 Y24.7617
G01 X8.2661 Y24.7481
G01 X8.4189 Y24.6093
G01 X8.4484 Y24.5838
G01 X8.4791 Y24.5599
G01 X8.6293 Y24.4485
G01 X8.6612 Y24.4261
G01 X8.6775 Y24.4154
G01 X8.8544 Y24.3091
G01 X8.8713 Y24.2993
G01 X8.9056 Y24.2809
G01 X9.1098 Y24.1844
G01 X9.1458 Y24.1694
G01 X9.2554 Y24.1300
G01 X9.1458 Y24.0906
G01 X9.1098 Y24.0756
G01 X8.9231 Y23.9876
G01 X8.9056 Y23.9791
G01 X8.8713 Y23.9607
G01 X8.6941 Y23.8548
G01 X8.6612 Y23.8339
G01 X8.6293 Y23.8115
G01 X8.4636 Y23.6883
G01 X8.4335 Y23.6636
G01 X8.4189 Y23.6507
G01 X8.2804 Y23.5252
G01 X8.2522 Y23.4983
G01 X8.2253 Y23.4701
G01 X8.0998 Y23.3316
G01 X8.0743 Y23.3021
G01 X8.0504 Y23.2714
G01 X7.9390 Y23.1212
G01 X7.9276 Y23.1054
G01 X7.9059 Y23.0730
G01 X7.7996 Y22.8961
G01 X7.7804 Y22.8622
G01 X7.7629 Y22.8274
G01 X7.6830 Y22.6584
G01 X7.6672 Y22.6228
G01 X7.6532 Y22.5864
G01 X7.5838 Y22.3920
G01 X7.5725 Y22.3547
G01 X7.5676 Y22.3359
G01 X7.5221 Y22.1545
G01 X7.5136 Y22.1165
G01 X7.5069 Y22.0781
G01 X7.4795 Y21.8932
G01 X7.4747 Y21.8545
G01 X7.4719 Y21.8157
G01 X7.4627 Y21.6289
G01 X7.4617 Y21.5900
G01 X7.4627 Y21.5511
G01 X7.4719 Y21.3643
G00 Z5.0000
G00 X5.4184 Y30.9627
G01 F190.00
G01 Z-0.2200
G01 F400.00
G01 X5.4386 Y30.9714
G01 X5.4738 Y30.9885
G01 X5.4911 Y30.9976
G01 X5.5250 Y31.0172
G01 X5.5495 Y31.0327
G01 X5.5799 Y31.0534
G01 X5.5947 Y31.0642
G01 X5.6236 Y31.0869
G01 X5.6514 Y31.1109
G01 X5.6744 Y31.1324
G01 X5.6888 Y31.1464
G01 X5.7029 Y31.1608
G01 X5.7166 Y31.1755
G01 X5.7299 Y31.1906
G01 X5.7428 Y31.2060
G01 X5.7554 Y31.2217
G01 X5.7731 Y31.2453
G01 X5.7950 Y31.2765
G01 X5.8053 Y31.2925
G01 X5.8249 Y31.3252
G01 X5.8428 Y31.3588
G01 X5.8568 Y31.3871
G01 X5.8719 Y31.4207
G01 X5.8788 Y31.4378
G01 X5.8854 Y31.4550
G01 X5.8972 Y31.4900
G01 X5.9106 Y31.5365
G01 X5.9156 Y31.5566
G01 X5.9200 Y31.5768
G01 X5.9239 Y31.5971
G01 X5.9273 Y31.6175
G01 X5.9302 Y31.6380
G01 X5.9325 Y31.6585
G01 X5.9355 Y31.6912
G01 X5.9374 Y31.7304
G01 X5.9377 Y58.4200
G01 X5.9367 Y58.4593
G01 X5.9348 Y58.4883
G01 X5.9311 Y58.5257
G01 X5.9256 Y58.5629
G01 X5.9223 Y58.5814
G01 X5.9164 Y58.6089
G01 X5.9075 Y58.6454
G01 X5.8968 Y58.6815
G01 X5.8845 Y58.7170
G01 X5.8705 Y58.7519
G01 X5.8576 Y58.7813
G01 X5.8494 Y58.7985
G01 X5.8320 Y58.8322
G01 X5.8130 Y58.8650
G01 X5.8029 Y58.8811
G01 X5.7876 Y58.9043
G01 X5.7663 Y58.9342
G01 X5.7551 Y58.9488
G01 X5.7318 Y58.9772
G01 X5.7071 Y59.0044
G01 X5.6841 Y59.0283
G01 X5.6697 Y59.0424
G01 X5.6550 Y59.0561
G01 X5.6399 Y59.0694
G01 X5.6245 Y59.0823
G01 X5.6088 Y59.0949
G01 X5.5852 Y59.1126
G01 X5.5540 Y59.1345
G01 X5.5380 Y59.1448
G01 X5.5053 Y59.1644
G01 X5.4886 Y59.1736
G01 X5.4600 Y59.1882
G01 X5.4267 Y59.2041
G01 X5.3927 Y59.2183
G01 X5.3581 Y59.2310
G01 X5.3229 Y59.2421
G01 X5.2940 Y59.2501
G01 X5.2739 Y59.2551
G01 X5.2537 Y59.2595
G01 X5.2334 Y59.2634
G01 X5.2130 Y59.2668
G01 X5.1925 Y59.2697
G01 X5.1720 Y59.2720
G01 X5.1393 Y59.2750
G01 X5.1197 Y59.2762
G01 X5.0805 Y59.2772
G01 X-5.0795 Y59.2772
G01 X-5.1188 Y59.2762
G01 X-5.1478 Y59.2743
G01 X-5.1852 Y59.2706
G01 X-5.2224 Y59.2651
G01 X-5.2409 Y59.2618
G01 X-5.2684 Y59.2559
G01 X-5.3049 Y59.2470
G01 X-5.3410 Y59.2363
G01 X-5.3765 Y59.2240
G01 X-5.4114 Y59.2100
G01 X-5.4408 Y59.1971
G01 X-5.4750 Y59.1804
G01 X-5.4917 Y59.1715
G01 X-5.5245 Y59.1525
G01 X-5.5485 Y59.1373
G01 X-5.5789 Y59.1166
G01 X-5.6083 Y59.0946
G01 X-5.6226 Y59.0831
G01 X-5.6504 Y59.0591
G01 X-5.6734 Y59.0376
G01 X-5.6878 Y59.0236
G01 X-5.7019 Y59.0092
G01 X-5.7156 Y58.9945
G01 X-5.7289 Y58.9794
G01 X-5.7418 Y58.9640
G01 X-5.7544 Y58.9483
G01 X-5.7665 Y58.9323
G01 X-5.7832 Y58.9092
G01 X-5.7940 Y58.8935
G01 X-5.8143 Y58.8612
G01 X-5.8331 Y58.8281
G01 X-5.8477 Y58.7995
G01 X-5.8558 Y58.7829
G01 X-5.8709 Y58.7493
G01 X-5.8844 Y58.7150
G01 X-5.8962 Y58.6800
G01 X-5.9096 Y58.6335
G01 X-5.9146 Y58.6134
G01 X-5.9190 Y58.5932
G01 X-5.9229 Y58.5729
G01 X-5.9263 Y58.5525
G01 X-5.9292 Y58.5320
G01 X-5.9315 Y58.5115
G01 X-5.9345 Y58.4788
G01 X-5.9364 Y58.4396
G01 X-5.9367 Y31.7500
G01 X-5.9357 Y31.7107
G01 X-5.9338 Y31.6817
G01 X-5.9301 Y31.6443
G01 X-5.9246 Y31.6071
G01 X-5.9213 Y31.5886
G01 X-5.9154 Y31.5611
G01 X-5.9065 Y31.5246
G01 X-5.8958 Y31.4885
G01 X-5.8835 Y31.4530
G01 X-5.8695 Y31.4181
G01 X-5.8566 Y31.3887
G01 X-5.8399 Y31.3545
G01 X-5.8310 Y31.3378
G01 X-5.8120 Y31.3050
G01 X-5.8019 Y31.2889
G01 X-5.7866 Y31.2657
G01 X-5.7653 Y31.2358
G01 X-5.7541 Y31.2212
G01 X-5.7308 Y31.1928
G01 X-5.7061 Y31.1656
G01 X-5.6831 Y31.1417
G01 X-5.6687 Y31.1276
G01 X-5.6540 Y31.1139
G01 X-5.6389 Y31.1006
G01 X-5.6235 Y31.0877
G01 X-5.6078 Y31.0751
G01 X-5.5842 Y31.0574
G01 X-5.5530 Y31.0355
G01 X-5.5370 Y31.0252
G01 X-5.5207 Y31.0152
G01 X-5.4876 Y30.9964
G01 X-5.4590 Y30.9818
G01 X-5.4257 Y30.9659
G01 X-5.3917 Y30.9517
G01 X-5.3571 Y30.9390
G01 X-5.3219 Y30.9279
G01 X-5.2930 Y30.9199
G01 X-5.2729 Y30.9149
G01 X-5.2527 Y30.9105
G01 X-5.2324 Y30.9066
G01 X-5.2120 Y30.9032
G01 X-5.1915 Y30.9003
G01 X-5.1710 Y30.8980
G01 X-5.1383 Y30.8950
G01 X-5.1187 Y30.8938
G01 X-5.0795 Y30.8928
G01 X5.0805 Y30.8928
G01 X5.1198 Y30.8938
G01 X5.1676 Y30.8974
G01 X5.2049 Y30.9019
G01 X5.2419 Y30.9082
G01 X5.2882 Y30.9184
G01 X5.3254 Y30.9285
G01 X5.3621 Y30.9404
G01 X5.3803 Y30.9471
G01 X5.3982 Y30.9541
G01 X5.4184 Y30.9627
G00 Z5.0000
G00 X-9.3023 Y35.5882
G01 F190.00
G01 Z-0.2200
G01 F400.00
G01 X-9.3023 Y54.5821
G01 X-9.2479 Y54.5773
G01 X-9.2081 Y54.5743
G01 X-9.0911 Y54.5677
G01 X-9.0160 Y54.5652
G01 X-8.9352 Y54.5638
G01 X-8.8829 Y54.5633
G01 X-8.8437 Y54.5635
G01 X-8.7879 Y54.5646
G01 X-8.7381 Y54.5659
G01 X-8.6862 Y54.5679
G01 X-8.5687 Y54.5747
G01 X-8.5172 Y54.5784
G01 X-8.4791 Y54.5816
G01 X-8.4769 Y35.5879
G01 X-8.5304 Y35.5926
G01 X-8.5703 Y35.5956
G01 X-8.6879 Y35.6023
G01 X-8.7630 Y35.6048
G01 X-8.8444 Y35.6063
G01 X-8.8967 Y35.6067
G01 X-8.9360 Y35.6065
G01 X-8.9883 Y35.6055
G01 X-9.0408 Y35.6041
G01 X-9.0928 Y35.6021
G01 X-9.2103 Y35.5953
G01 X-9.2618 Y35.5916
G01 X-9.3023 Y35.5882
G01 X-10.5723 Y33.8805
G01 X-10.5723 Y56.2894
G01 X-10.5285 Y56.2640
G01 X-10.4985 Y56.2474
G01 X-10.4336 Y56.2127
G01 X-10.3871 Y56.1887
G01 X-10.3386 Y56.1649
G01 X-10.2906 Y56.1420
G01 X-10.2596 Y56.1281
G01 X-10.1687 Y56.0885
G01 X-10.1179 Y56.0680
G01 X-10.0627 Y56.0466
G01 X-10.0144 Y56.0291
G01 X-9.9532 Y56.0077
G01 X-9.9188 Y55.9961
G01 X-9.8624 Y55.9786
G01 X-9.8180 Y55.9652
G01 X-9.7639 Y55.9502
G01 X-9.6954 Y55.9324
G01 X-9.6436 Y55.9197
G01 X-9.5886 Y55.9076
G01 X-9.5387 Y55.8971
G01 X-9.5064 Y55.8910
G01 X-9.4044 Y55.8733
G01 X-9.3516 Y55.8656
G01 X-9.2964 Y55.8582
G01 X-9.2432 Y55.8523
G01 X-9.1749 Y55.8457
G01 X-9.1176 Y55.8411
G01 X-9.0380 Y55.8366
G01 X-9.0159 Y55.8357
G01 X-8.9806 Y55.8347
G01 X-8.9103 Y55.8335
G01 X-8.8754 Y55.8333
G01 X-8.8188 Y55.8342
G01 X-8.7510 Y55.8362
G01 X-8.6451 Y55.8424
G01 X-8.6108 Y55.8449
G01 X-8.5550 Y55.8503
G01 X-8.5068 Y55.8554
G01 X-8.4530 Y55.8622
G01 X-8.3813 Y55.8724
G01 X-8.3472 Y55.8777
G01 X-8.2919 Y55.8875
G01 X-8.2269 Y55.8999
G01 X-8.1948 Y55.9067
G01 X-8.1206 Y55.9234
G01 X-8.0896 Y55.9307
G01 X-8.0396 Y55.9437
G01 X-7.9879 Y55.9576
G01 X-7.9382 Y55.9721
G01 X-7.8676 Y55.9940
G01 X-7.8178 Y56.0103
G01 X-7.7873 Y56.0209
G01 X-7.7163 Y56.0466
G01 X-7.6170 Y56.0859
G01 X-7.5878 Y56.0980
G01 X-7.5246 Y56.1257
G01 X-7.4733 Y56.1490
G01 X-7.4414 Y56.1644
G01 X-7.3789 Y56.1954
G01 X-7.3309 Y56.2201
G01 X-7.2854 Y56.2448
G01 X-7.2386 Y56.2708
G01 X-7.2067 Y56.2895
G01 X-7.2067 Y33.8806
G01 X-7.2520 Y33.9069
G01 X-7.2827 Y33.9237
G01 X-7.3431 Y33.9561
G01 X-7.3906 Y33.9807
G01 X-7.4397 Y34.0048
G01 X-7.4865 Y34.0271
G01 X-7.5168 Y34.0408
G01 X-7.6120 Y34.0822
G01 X-7.6619 Y34.1023
G01 X-7.7145 Y34.1227
G01 X-7.7614 Y34.1398
G01 X-7.8294 Y34.1635
G01 X-7.8817 Y34.1807
G01 X-7.9312 Y34.1958
G01 X-7.9831 Y34.2111
G01 X-8.0158 Y34.2200
G01 X-8.0846 Y34.2379
G01 X-8.1352 Y34.2502
G01 X-8.1904 Y34.2624
G01 X-8.2403 Y34.2729
G01 X-8.2726 Y34.2790
G01 X-8.3746 Y34.2967
G01 X-8.4274 Y34.3044
G01 X-8.4828 Y34.3118
G01 X-8.5362 Y34.3177
G01 X-8.6035 Y34.3243
G01 X-8.6611 Y34.3289
G01 X-8.7410 Y34.3334
G01 X-8.7631 Y34.3343
G01 X-8.7984 Y34.3353
G01 X-8.8691 Y34.3365
G01 X-8.9040 Y34.3367
G01 X-8.9607 Y34.3358
G01 X-9.0280 Y34.3338
G01 X-9.1339 Y34.3276
G01 X-9.1682 Y34.3251
G01 X-9.2240 Y34.3197
G01 X-9.2722 Y34.3146
G01 X-9.3260 Y34.3078
G01 X-9.3977 Y34.2976
G01 X-9.4318 Y34.2923
G01 X-9.4871 Y34.2825
G01 X-9.5521 Y34.2701
G01 X-9.5842 Y34.2633
G01 X-9.6584 Y34.2466
G01 X-9.6894 Y34.2393
G01 X-9.7394 Y34.2263
G01 X-9.7911 Y34.2124
G01 X-9.8408 Y34.1979
G01 X-9.9114 Y34.1760
G01 X-9.9612 Y34.1597
G01 X-9.9917 Y34.1491
G01 X-10.0660 Y34.1221
G01 X-10.1574 Y34.0859
G01 X-10.1879 Y34.0734
G01 X-10.2068 Y34.0653
G01 X-10.2869 Y34.0297
G01 X-10.3398 Y34.0045
G01 X-10.3981 Y33.9756
G01 X-10.4470 Y33.9505
G01 X-10.4936 Y33.9252
G01 X-10.5404 Y33.8992
G01 X-10.5723 Y33.8805
G00 Z5.0000
G00 X-12.3616 Y30.9627
G01 F190.00
G01 Z-0.2200
G01 F400.00
G01 X-12.3414 Y30.9714
G01 X-12.3062 Y30.9885
G01 X-12.2889 Y30.9976
G01 X-12.2550 Y31.0172
G01 X-12.2305 Y31.0327
G01 X-12.2001 Y31.0534
G01 X-12.1707 Y31.0754
G01 X-12.1564 Y31.0869
G01 X-12.1286 Y31.1109
G01 X-12.1056 Y31.1324
G01 X-12.0912 Y31.1464
G01 X-12.0771 Y31.1608
G01 X-12.0634 Y31.1755
G01 X-12.0501 Y31.1906
G01 X-12.0372 Y31.2060
G01 X-12.0246 Y31.2217
G01 X-12.0069 Y31.2453
G01 X-11.9850 Y31.2765
G01 X-11.9647 Y31.3088
G01 X-11.9551 Y31.3252
G01 X-11.9372 Y31.3588
G01 X-11.9232 Y31.3871
G01 X-11.9081 Y31.4207
G01 X-11.9012 Y31.4378
G01 X-11.8946 Y31.4550
G01 X-11.8828 Y31.4900
G01 X-11.8694 Y31.5365
G01 X-11.8644 Y31.5566
G01 X-11.8600 Y31.5768
G01 X-11.8561 Y31.5971
G01 X-11.8527 Y31.6175
G01 X-11.8498 Y31.6380
G01 X-11.8475 Y31.6585
G01 X-11.8445 Y31.6912
G01 X-11.8426 Y31.7304
G01 X-11.8423 Y58.4200
G01 X-11.8433 Y58.4593
G01 X-11.8452 Y58.4883
G01 X-11.8489 Y58.5257
G01 X-11.8544 Y58.5629
G01 X-11.8577 Y58.5814
G01 X-11.8636 Y58.6089
G01 X-11.8725 Y58.6454
G01 X-11.8832 Y58.6815
G01 X-11.8955 Y58.7170
G01 X-11.9095 Y58.7519
G01 X-11.9224 Y58.7813
G01 X-11.9306 Y58.7985
G01 X-11.9480 Y58.8322
G01 X-11.9670 Y58.8650
G01 X-11.9771 Y58.8811
G01 X-11.9924 Y58.9043
G01 X-12.0137 Y58.9342
G01 X-12.0249 Y58.9488
G01 X-12.0482 Y58.9772
G01 X-12.0729 Y59.0044
G01 X-12.0959 Y59.0283
G01 X-12.1103 Y59.0424
G01 X-12.1250 Y59.0561
G01 X-12.1401 Y59.0694
G01 X-12.1555 Y59.0823
G01 X-12.1712 Y59.0949
G01 X-12.1948 Y59.1126
G01 X-12.2260 Y59.1345
G01 X-12.2420 Y59.1448
G01 X-12.2747 Y59.1644
G01 X-12.2914 Y59.1736
G01 X-12.3200 Y59.1882
G01 X-12.3533 Y59.2041
G01 X-12.3873 Y59.2183
G01 X-12.4219 Y59.2310
G01 X-12.4571 Y59.2421
G01 X-12.4860 Y59.2501
G01 X-12.5061 Y59.2551
G01 X-12.5263 Y59.2595
G01 X-12.5466 Y59.2634
G01 X-12.5670 Y59.2668
G01 X-12.5875 Y59.2697
G01 X-12.6080 Y59.2720
G01 X-12.6407 Y59.2750
G01 X-12.6603 Y59.2762
G01 X-12.6995 Y59.2772
G01 X-22.8595 Y59.2772
G01 X-22.8988 Y59.2762
G01 X-22.9278 Y59.2743
G01 X-22.9652 Y59.2706
G01 X-23.0024 Y59.2651
G01 X-23.0209 Y59.2618
G01 X-23.0484 Y59.2559
G01 X-23.0849 Y59.2470
G01 X-23.1210 Y59.2363
G01 X-23.1565 Y59.2240
G01 X-23.1914 Y59.2100
G01 X-23.2208 Y59.1971
G01 X-23.2550 Y59.1804
G01 X-23.2717 Y59.1715
G01 X-23.3045 Y59.1525
G01 X-23.3285 Y59.1373
G01 X-23.3589 Y59.1166
G01 X-23.3883 Y59.0946
G01 X-23.4167 Y59.0713
G01 X-23.4304 Y59.0591
G01 X-23.4534 Y59.0376
G01 X-23.4678 Y59.0236
G01 X-23.4819 Y59.0092
G01 X-23.4956 Y58.9945
G01 X-23.5089 Y58.9794
G01 X-23.5218 Y58.9640
G01 X-23.5344 Y58.9483
G01 X-23.5465 Y58.9323
G01 X-23.5632 Y58.9092
G01 X-23.5740 Y58.8935
G01 X-23.5943 Y58.8612
G01 X-23.6131 Y58.8281
G01 X-23.6277 Y58.7995
G01 X-23.6436 Y58.7662
G01 X-23.6578 Y58.7322
G01 X-23.6644 Y58.7150
G01 X-23.6762 Y58.6800
G01 X-23.6896 Y58.6335
G01 X-23.6946 Y58.6134
G01 X-23.6990 Y58.5932
G01 X-23.7029 Y58.5729
G01 X-23.7063 Y58.5525
G01 X-23.7092 Y58.5320
G01 X-23.7115 Y58.5115
G01 X-23.7145 Y58.4788
G01 X-23.7164 Y58.4396
G01 X-23.7167 Y31.7500
G01 X-23.7157 Y31.7107
G01 X-23.7138 Y31.6817
G01 X-23.7101 Y31.6443
G01 X-23.7046 Y31.6071
G01 X-23.7013 Y31.5886
G01 X-23.6954 Y31.5611
G01 X-23.6865 Y31.5246
G01 X-23.6758 Y31.4885
G01 X-23.6635 Y31.4530
G01 X-23.6495 Y31.4181
G01 X-23.6366 Y31.3887
G01 X-23.6284 Y31.3715
G01 X-23.6110 Y31.3378
G01 X-23.6017 Y31.3213
G01 X-23.5819 Y31.2889
G01 X-23.5666 Y31.2657
G01 X-23.5453 Y31.2358
G01 X-23.5226 Y31.2069
G01 X-23.5108 Y31.1928
G01 X-23.4861 Y31.1656
G01 X-23.4631 Y31.1417
G01 X-23.4487 Y31.1276
G01 X-23.4340 Y31.1139
G01 X-23.4189 Y31.1006
G01 X-23.4035 Y31.0877
G01 X-23.3878 Y31.0751
G01 X-23.3642 Y31.0574
G01 X-23.3487 Y31.0463
G01 X-23.3170 Y31.0252
G01 X-23.3007 Y31.0152
G01 X-23.2676 Y30.9964
G01 X-23.2390 Y30.9818
G01 X-23.2057 Y30.9659
G01 X-23.1717 Y30.9517
G01 X-23.1371 Y30.9390
G01 X-23.1019 Y30.9279
G01 X-23.0730 Y30.9199
G01 X-23.0529 Y30.9149
G01 X-23.0327 Y30.9105
G01 X-23.0124 Y30.9066
G01 X-22.9920 Y30.9032
G01 X-22.9715 Y30.9003
G01 X-22.9510 Y30.8980
G01 X-22.9183 Y30.8950
G01 X-22.8987 Y30.8938
G01 X-22.8595 Y30.8928
G01 X-12.6995 Y30.8928
G01 X-12.6602 Y30.8938
G01 X-12.6124 Y30.8974
G01 X-12.5751 Y30.9019
G01 X-12.5381 Y30.9082
G01 X-12.4918 Y30.9184
G01 X-12.4546 Y30.9285
G01 X-12.4179 Y30.9404
G01 X-12.3997 Y30.9471
G01 X-12.3818 Y30.9541
G01 X-12.3616 Y30.9627
G00 Z5.0000
G00 X-17.9281 Y21.3643
G01 F190.00
G01 Z-0.2200
G01 F400.00
G01 X-17.9253 Y21.3255
G01 X-17.9205 Y21.2868
G01 X-17.8931 Y21.1019
G01 X-17.8864 Y21.0635
G01 X-17.8779 Y21.0255
G01 X-17.8324 Y20.8441
G01 X-17.8220 Y20.8066
G01 X-17.8098 Y20.7696
G01 X-17.7468 Y20.5936
G01 X-17.7328 Y20.5572
G01 X-17.7170 Y20.5216
G01 X-17.6371 Y20.3526
G01 X-17.6196 Y20.3178
G01 X-17.6004 Y20.2839
G01 X-17.5043 Y20.1236
G01 X-17.4834 Y20.0907
G01 X-17.4610 Y20.0588
G01 X-17.3496 Y19.9086
G01 X-17.3257 Y19.8779
G01 X-17.3002 Y19.8484
G01 X-17.1747 Y19.7099
G01 X-17.1478 Y19.6817
G01 X-17.1196 Y19.6548
G01 X-16.9811 Y19.5293
G01 X-16.9516 Y19.5038
G01 X-16.9209 Y19.4799
G01 X-16.7707 Y19.3685
G01 X-16.7388 Y19.3461
G01 X-16.7059 Y19.3252
G01 X-16.5456 Y19.2291
G01 X-16.5117 Y19.2099
G01 X-16.4769 Y19.1924
G01 X-16.3079 Y19.1125
G01 X-16.2723 Y19.0967
G01 X-16.2359 Y19.0827
G01 X-16.0599 Y19.0197
G01 X-16.0229 Y19.0075
G01 X-15.9854 Y18.9971
G01 X-15.8040 Y18.9516
G01 X-15.7660 Y18.9431
G01 X-15.7276 Y18.9364
G01 X-15.5427 Y18.9090
G01 X-15.5040 Y18.9042
G01 X-15.4652 Y18.9014
G01 X-15.2784 Y18.8922
G01 X-15.2395 Y18.8912
G01 X-15.2006 Y18.8922
G01 X-15.0138 Y18.9014
G01 X-14.9750 Y18.9042
G01 X-14.9363 Y18.9090
G01 X-14.7514 Y18.9364
G01 X-14.7130 Y18.9431
G01 X-14.6750 Y18.9516
G01 X-14.4936 Y18.9971
G01 X-14.4561 Y19.0075
G01 X-14.4191 Y19.0197
G01 X-14.2431 Y19.0827
G01 X-14.2067 Y19.0967
G01 X-14.1711 Y19.1125
G01 X-14.0021 Y19.1924
G01 X-13.9673 Y19.2099
G01 X-13.9334 Y19.2291
G01 X-13.7731 Y19.3252
G01 X-13.7402 Y19.3461
G01 X-13.7083 Y19.3685
G01 X-13.5581 Y19.4799
G01 X-13.5274 Y19.5038
G01 X-13.4979 Y19.5293
G01 X-13.3594 Y19.6548
G01 X-13.3312 Y19.6817
G01 X-13.3043 Y19.7099
G01 X-13.1788 Y19.8484
G01 X-13.1533 Y19.8779
G01 X-13.1294 Y19.9086
G01 X-13.0180 Y20.0588
G01 X-12.9956 Y20.0907
G01 X-12.9747 Y20.1236
G01 X-12.8786 Y20.2839
G01 X-12.8594 Y20.3178
G01 X-12.8419 Y20.3526
G01 X-12.7620 Y20.5216
G01 X-12.7462 Y20.5572
G01 X-12.7322 Y20.5936
G01 X-12.6692 Y20.7696
G01 X-12.6570 Y20.8066
G01 X-12.6466 Y20.8441
G01 X-12.6011 Y21.0255
G01 X-12.5926 Y21.0635
G01 X-12.5859 Y21.1019
G01 X-12.5585 Y21.2868
G01 X-12.5537 Y21.3255
G01 X-12.5509 Y21.3643
G01 X-12.5417 Y21.5511
G01 X-12.5407 Y21.5900
G01 X-12.5417 Y21.6289
G01 X-12.5509 Y21.8157
G01 X-12.5537 Y21.8545
G01 X-12.5585 Y21.8932
G01 X-12.5859 Y22.0781
G01 X-12.5926 Y22.1165
G01 X-12.6011 Y22.1545
G01 X-12.6466 Y22.3359
G01 X-12.6570 Y22.3734
G01 X-12.6692 Y22.4104
G01 X-12.7389 Y22.6047
G01 X-12.7462 Y22.6228
G01 X-12.7620 Y22.6584
G01 X-12.8419 Y22.8274
G01 X-12.8594 Y22.8622
G01 X-12.8786 Y22.8961
G01 X-12.9747 Y23.0564
G01 X-12.9956 Y23.0893
G01 X-13.0180 Y23.1212
G01 X-13.1294 Y23.2714
G01 X-13.1533 Y23.3021
G01 X-13.1788 Y23.3316
G01 X-13.3043 Y23.4701
G01 X-13.3312 Y23.4983
G01 X-13.3594 Y23.5252
G01 X-13.4979 Y23.6507
G01 X-13.5274 Y23.6762
G01 X-13.5581 Y23.7001
G01 X-13.7083 Y23.8115
G01 X-13.7402 Y23.8339
G01 X-13.7731 Y23.8548
G01 X-13.9503 Y23.9607
G01 X-13.9673 Y23.9701
G01 X-14.0021 Y23.9876
G01 X-14.1711 Y24.0675
G01 X-14.2067 Y24.0833
G01 X-14.2431 Y24.0973
G01 X-14.4191 Y24.1603
G01 X-14.4561 Y24.1725
G01 X-14.4936 Y24.1829
G01 X-14.6750 Y24.2284
G01 X-14.7130 Y24.2369
G01 X-14.7514 Y24.2436
G01 X-14.9363 Y24.2710
G01 X-14.9750 Y24.2758
G01 X-15.0138 Y24.2786
G01 X-15.2006 Y24.2878
G01 X-15.2395 Y24.2888
G01 X-15.2784 Y24.2878
G01 X-15.4652 Y24.2786
G01 X-15.5040 Y24.2758
G01 X-15.5427 Y24.2710
G01 X-15.7276 Y24.2436
G01 X-15.7660 Y24.2369
G01 X-15.8040 Y24.2284
G01 X-15.9854 Y24.1829
G01 X-16.0229 Y24.1725
G01 X-16.0415 Y24.1667
G01 X-16.2542 Y24.0906
G01 X-16.2723 Y24.0833
G01 X-16.3079 Y24.0675
G01 X-16.4769 Y23.9876
G01 X-16.5117 Y23.9701
G01 X-16.5456 Y23.9509
G01 X-16.7059 Y23.8548
G01 X-16.7388 Y23.8339
G01 X-16.7707 Y23.8115
G01 X-16.9209 Y23.7001
G01 X-16.9516 Y23.6762
G01 X-16.9811 Y23.6507
G01 X-17.1196 Y23.5252
G01 X-17.1478 Y23.4983
G01 X-17.1747 Y23.4701
G01 X-17.3002 Y23.3316
G01 X-17.3257 Y23.3021
G01 X-17.3496 Y23.2714
G01 X-17.4724 Y23.1054
G01 X-17.4941 Y23.0730
G01 X-17.5043 Y23.0564
G01 X-17.6004 Y22.8961
G01 X-17.6196 Y22.8622
G01 X-17.6371 Y22.8274
G01 X-17.7170 Y22.6584
G01 X-17.7328 Y22.6228
G01 X-17.7468 Y22.5864
G01 X-17.8098 Y22.4104
G01 X-17.8220 Y22.3734
G01 X-17.8324 Y22.3359
G01 X-17.8779 Y22.1545
G01 X-17.8864 Y22.1165
G01 X-17.8931 Y22.0781
G01 X-17.9205 Y21.8932
G01 X-17.9253 Y21.8545
G01 X-17.9269 Y21.8351
G01 X-17.9373 Y21.6289
G01 X-17.9383 Y21.5900
G01 X-17.9373 Y21.5511
G01 X-17.9281 Y21.3643
G01 X-20.5925 Y18.8184
G01 X-20.5743 Y18.9020
G01 X-20.5682 Y18.9320
G01 X-20.5558 Y19.0010
G01 X-20.5455 Y19.0677
G01 X-20.5322 Y19.1662
G01 X-20.5283 Y19.1991
G01 X-20.5224 Y19.2584
G01 X-20.5184 Y19.3084
G01 X-20.5125 Y19.4118
G01 X-20.5103 Y19.4615
G01 X-20.5093 Y19.5067
G01 X-20.5089 Y19.5432
G01 X-20.5091 Y19.5770
G01 X-20.5111 Y19.6700
G01 X-20.5117 Y19.6916
G01 X-20.5142 Y19.7476
G01 X-20.5171 Y19.7917
G01 X-20.5212 Y19.8419
G01 X-20.5329 Y19.9560
G01 X-20.5413 Y20.0218
G01 X-20.5484 Y20.0696
G01 X-20.5537 Y20.1018
G01 X-20.5751 Y20.2185
G01 X-20.5812 Y20.2488
G01 X-20.5919 Y20.2977
G01 X-20.5412 Y20.3016
G01 X-20.5101 Y20.3047
G01 X-20.4598 Y20.3107
G01 X-20.4251 Y20.3155
G01 X-20.3111 Y20.3325
G01 X-20.2420 Y20.3445
G01 X-20.2114 Y20.3506
G01 X-20.1619 Y20.3614
G01 X-20.1278 Y20.3696
G01 X-20.0160 Y20.3977
G01 X-19.9484 Y20.4164
G01 X-19.9000 Y20.4314
G01 X-19.8704 Y20.4411
G01 X-19.8373 Y20.4526
G01 X-19.7288 Y20.4916
G01 X-19.6634 Y20.5168
G01 X-19.6167 Y20.5364
G01 X-19.5882 Y20.5490
G01 X-19.5563 Y20.5637
G01 X-19.4521 Y20.6131
G01 X-19.3895 Y20.6446
G01 X-19.3449 Y20.6687
G01 X-19.3178 Y20.6841
G01 X-19.2876 Y20.7018
G01 X-19.1887 Y20.7612
G01 X-19.1458 Y20.7881
G01 X-19.1286 Y20.7993
G01 X-19.1135 Y20.7320
G01 X-19.0644 Y20.5356
G01 X-19.0555 Y20.5016
G01 X-19.0418 Y20.4529
G01 X-19.0269 Y20.4045
G01 X-19.0107 Y20.3565
G01 X-19.0056 Y20.3418
G01 X-18.9426 Y20.1657
G01 X-18.9373 Y20.1511
G01 X-18.9193 Y20.1037
G01 X-18.9001 Y20.0569
G01 X-18.8798 Y20.0105
G01 X-18.8651 Y19.9786
G01 X-18.7852 Y19.8096
G01 X-18.7699 Y19.7781
G01 X-18.7469 Y19.7329
G01 X-18.7322 Y19.7054
G01 X-18.7074 Y19.6613
G01 X-18.6897 Y19.6310
G01 X-18.5855 Y19.4573
G01 X-18.5586 Y19.4144
G01 X-18.5307 Y19.3722
G01 X-18.5017 Y19.3306
G01 X-18.4811 Y19.3023
G01 X-18.3603 Y19.1396
G01 X-18.3172 Y19.0844
G01 X-18.2849 Y19.0454
G01 X-18.2412 Y18.9956
G01 X-18.1157 Y18.8570
G01 X-18.0704 Y18.8087
G01 X-18.0347 Y18.7727
G01 X-17.9982 Y18.7376
G01 X-17.9725 Y18.7138
G01 X-17.8807 Y18.6306
G01 X-17.9259 Y18.5997
G01 X-17.9682 Y18.5690
G01 X-18.0307 Y18.5225
G01 X-18.0734 Y18.4889
G01 X-18.1093 Y18.4601
G01 X-18.1510 Y18.4256
G01 X-18.2332 Y18.3540
G01 X-18.2741 Y18.3163
G01 X-18.3307 Y18.2625
G01 X-18.3674 Y18.2259
G01 X-18.4238 Y18.1679
G01 X-18.4613 Y18.1273
G01 X-18.5112 Y18.0718
G01 X-18.5463 Y18.0308
G01 X-18.5988 Y17.9673
G01 X-18.6395 Y17.9152
G01 X-18.6748 Y17.9503
G01 X-18.7231 Y17.9956
G01 X-18.8086 Y18.0729
G01 X-18.8617 Y18.1187
G01 X-18.9010 Y18.1507
G01 X-18.9411 Y18.1816
G01 X-19.0337 Y18.2504
G01 X-19.0875 Y18.2890
G01 X-19.1458 Y18.3279
G01 X-19.1887 Y18.3548
G01 X-19.2876 Y18.4142
G01 X-19.3449 Y18.4473
G01 X-19.3895 Y18.4714
G01 X-19.4346 Y18.4943
G01 X-19.4662 Y18.5096
G01 X-19.5705 Y18.5588
G01 X-19.6167 Y18.5796
G01 X-19.6815 Y18.6064
G01 X-19.7288 Y18.6244
G01 X-19.8373 Y18.6634
G01 X-19.9000 Y18.6846
G01 X-19.9484 Y18.6996
G01 X-19.9972 Y18.7133
G01 X-20.0311 Y18.7222
G01 X-20.1430 Y18.7501
G01 X-20.1923 Y18.7614
G01 X-20.2420 Y18.7715
G01 X-20.2918 Y18.7804
G01 X-20.4251 Y18.8005
G01 X-20.4598 Y18.8053
G01 X-20.5101 Y18.8113
G01 X-20.5412 Y18.8144
G01 X-20.5925 Y18.8184
G00 Z5.0000
G00 X-22.6314 Y15.6095
G01 F190.00
G01 Z-0.2200
G01 F400.00
G01 X-22.6285 Y15.5706
G01 X-22.6264 Y15.5513
G01 X-22.6060 Y15.4141
G01 X-22.6025 Y15.3949
G01 X-22.5939 Y15.3569
G01 X-22.5647 Y15.2414
G01 X-22.5593 Y15.2227
G01 X-22.5471 Y15.1857
G01 X-22.5135 Y15.0918
G01 X-22.4995 Y15.0554
G01 X-22.4837 Y15.0198
G01 X-22.4325 Y14.9122
G01 X-22.4236 Y14.8949
G01 X-22.4044 Y14.8610
G01 X-22.3531 Y14.7755
G01 X-22.3323 Y14.7426
G01 X-22.3098 Y14.7107
G01 X-22.2504 Y14.6306
G01 X-22.2265 Y14.5999
G01 X-22.2010 Y14.5704
G01 X-22.1341 Y14.4965
G01 X-22.1072 Y14.4683
G01 X-22.0790 Y14.4414
G01 X-21.9905 Y14.3616
G01 X-21.9604 Y14.3369
G01 X-21.9449 Y14.3251
G01 X-21.8648 Y14.2657
G01 X-21.8329 Y14.2432
G01 X-21.8000 Y14.2224
G01 X-21.7145 Y14.1711
G01 X-21.6806 Y14.1519
G01 X-21.6458 Y14.1344
G01 X-21.5557 Y14.0918
G01 X-21.5201 Y14.0760
G01 X-21.4837 Y14.0620
G01 X-21.3898 Y14.0284
G01 X-21.3528 Y14.0162
G01 X-21.3153 Y14.0058
G01 X-21.2186 Y13.9816
G01 X-21.1806 Y13.9730
G01 X-21.1422 Y13.9664
G01 X-21.0436 Y13.9517
G01 X-21.0049 Y13.9470
G01 X-20.9660 Y13.9441
G01 X-20.8664 Y13.9392
G01 X-20.8275 Y13.9382
G01 X-20.7886 Y13.9392
G01 X-20.6695 Y13.9453
G01 X-20.6308 Y13.9491
G01 X-20.6114 Y13.9517
G01 X-20.5128 Y13.9664
G01 X-20.4744 Y13.9730
G01 X-20.4364 Y13.9816
G01 X-20.3397 Y14.0058
G01 X-20.3022 Y14.0162
G01 X-20.2652 Y14.0284
G01 X-20.1713 Y14.0620
G01 X-20.1349 Y14.0760
G01 X-20.0993 Y14.0918
G01 X-20.0092 Y14.1344
G01 X-19.9744 Y14.1519
G01 X-19.9405 Y14.1711
G01 X-19.8550 Y14.2224
G01 X-19.8221 Y14.2432
G01 X-19.7902 Y14.2657
G01 X-19.7101 Y14.3251
G01 X-19.6794 Y14.3490
G01 X-19.6499 Y14.3745
G01 X-19.5760 Y14.4414
G01 X-19.5478 Y14.4683
G01 X-19.5209 Y14.4965
G01 X-19.4540 Y14.5704
G01 X-19.4285 Y14.5999
G01 X-19.4046 Y14.6306
G01 X-19.3452 Y14.7107
G01 X-19.3227 Y14.7426
G01 X-19.3019 Y14.7755
G01 X-19.2506 Y14.8610
G01 X-19.2314 Y14.8949
G01 X-19.2139 Y14.9297
G01 X-19.1713 Y15.0198
G01 X-19.1555 Y15.0554
G01 X-19.1415 Y15.0918
G01 X-19.1079 Y15.1857
G01 X-19.0957 Y15.2227
G01 X-19.0853 Y15.2602
G01 X-19.0611 Y15.3569
G01 X-19.0525 Y15.3949
G01 X-19.0459 Y15.4333
G01 X-19.0312 Y15.5319
G01 X-19.0265 Y15.5706
G01 X-19.0236 Y15.6095
G01 X-19.0187 Y15.7091
G01 X-19.0177 Y15.7480
G01 X-19.0187 Y15.7869
G01 X-19.0248 Y15.9060
G01 X-19.0265 Y15.9254
G01 X-19.0312 Y15.9641
G01 X-19.0459 Y16.0627
G01 X-19.0525 Y16.1011
G01 X-19.0611 Y16.1391
G01 X-19.0853 Y16.2358
G01 X-19.0957 Y16.2733
G01 X-19.1079 Y16.3103
G01 X-19.1415 Y16.4042
G01 X-19.1555 Y16.4406
G01 X-19.1713 Y16.4762
G01 X-19.2139 Y16.5663
G01 X-19.2314 Y16.6011
G01 X-19.2506 Y16.6350
G01 X-19.3019 Y16.7205
G01 X-19.3227 Y16.7534
G01 X-19.3452 Y16.7853
G01 X-19.4046 Y16.8654
G01 X-19.4285 Y16.8961
G01 X-19.4540 Y16.9256
G01 X-19.5209 Y16.9995
G01 X-19.5478 Y17.0277
G01 X-19.5760 Y17.0546
G01 X-19.6499 Y17.1215
G01 X-19.6794 Y17.1470
G01 X-19.7101 Y17.1709
G01 X-19.7902 Y17.2303
G01 X-19.8221 Y17.2528
G01 X-19.8550 Y17.2736
G01 X-19.9405 Y17.3249
G01 X-19.9744 Y17.3441
G01 X-20.0092 Y17.3616
G01 X-20.0993 Y17.4042
G01 X-20.1349 Y17.4200
G01 X-20.1713 Y17.4340
G01 X-20.2652 Y17.4676
G01 X-20.3022 Y17.4798
G01 X-20.3397 Y17.4902
G01 X-20.4364 Y17.5144
G01 X-20.4744 Y17.5230
G01 X-20.5128 Y17.5296
G01 X-20.6114 Y17.5443
G01 X-20.6501 Y17.5490
G01 X-20.6890 Y17.5519
G01 X-20.7886 Y17.5568
G01 X-20.8275 Y17.5578
G01 X-20.8664 Y17.5568
G01 X-20.9855 Y17.5507
G01 X-21.0049 Y17.5490
G01 X-21.0436 Y17.5443
G01 X-21.1422 Y17.5296
G01 X-21.1806 Y17.5230
G01 X-21.2186 Y17.5144
G01 X-21.3153 Y17.4902
G01 X-21.3528 Y17.4798
G01 X-21.3898 Y17.4676
G01 X-21.4837 Y17.4340
G01 X-21.5201 Y17.4200
G01 X-21.5557 Y17.4042
G01 X-21.6458 Y17.3616
G01 X-21.6806 Y17.3441
G01 X-21.7145 Y17.3249
G01 X-21.8000 Y17.2736
G01 X-21.8329 Y17.2528
G01 X-21.8648 Y17.2303
G01 X-21.9449 Y17.1709
G01 X-21.9756 Y17.1470
G01 X-22.0051 Y17.1215
G01 X-22.0790 Y17.0546
G01 X-22.1072 Y17.0277
G01 X-22.1341 Y16.9995
G01 X-22.2139 Y16.9110
G01 X-22.2265 Y16.8961
G01 X-22.2504 Y16.8654
G01 X-22.3098 Y16.7853
G01 X-22.3323 Y16.7534
G01 X-22.3531 Y16.7205
G01 X-22.4044 Y16.6350
G01 X-22.4236 Y16.6011
G01 X-22.4411 Y16.5663
G01 X-22.4837 Y16.4762
G01 X-22.4995 Y16.4406
G01 X-22.5135 Y16.4042
G01 X-22.5534 Y16.2919
G01 X-22.5647 Y16.2546
G01 X-22.5697 Y16.2358
G01 X-22.5939 Y16.1391
G01 X-22.6025 Y16.1011
G01 X-22.6091 Y16.0627
G01 X-22.6264 Y15.9447
G01 X-22.6285 Y15.9254
G01 X-22.6314 Y15.8865
G01 X-22.6370 Y15.7675
G01 X-22.6370 Y15.7285
G01 X-22.6314 Y15.6095
G00 Z5.0000
G00 X-16.3488 Y11.9073
G01 F190.00
G01 Z-0.2200
G01 F400.00
G01 X-16.3077 Y11.9063
G01 X-13.4005 Y11.9063
G01 X-13.3302 Y11.9079
G01 X-13.3066 Y11.9089
G01 X-13.2728 Y11.9114
G01 X-13.2419 Y11.9132
G01 X-13.2212 Y11.9150
G01 X-13.1918 Y11.9184
G01 X-13.1622 Y11.9212
G01 X-13.1414 Y11.9238
G01 X-13.1093 Y11.9288
G01 X-13.0783 Y11.9331
G01 X-13.0587 Y11.9364
G01 X-13.0295 Y11.9422
G01 X-12.9997 Y11.9474
G01 X-12.9799 Y11.9516
G01 X-12.9498 Y11.9588
G01 X-12.9184 Y11.9656
G01 X-12.8973 Y11.9709
G01 X-12.8691 Y11.9789
G01 X-12.8411 Y11.9862
G01 X-12.8207 Y11.9921
G01 X-12.7920 Y12.0015
G01 X-12.7619 Y12.0105
G01 X-12.7404 Y12.0178
G01 X-12.7135 Y12.0278
G01 X-12.6869 Y12.0369
G01 X-12.6661 Y12.0448
G01 X-12.6373 Y12.0568
G01 X-12.6084 Y12.0681
G01 X-12.5882 Y12.0768
G01 X-12.5607 Y12.0895
G01 X-12.5346 Y12.1010
G01 X-12.5162 Y12.1097
G01 X-12.4880 Y12.1241
G01 X-12.4602 Y12.1376
G01 X-12.4425 Y12.1469
G01 X-12.4161 Y12.1617
G01 X-12.3884 Y12.1766
G01 X-12.3701 Y12.1871
G01 X-12.3439 Y12.2033
G01 X-12.3177 Y12.2188
G01 X-12.3001 Y12.2298
G01 X-12.2756 Y12.2463
G01 X-12.2497 Y12.2629
G01 X-12.2316 Y12.2754
G01 X-12.2074 Y12.2932
G01 X-12.1830 Y12.3103
G01 X-12.1655 Y12.3233
G01 X-12.1416 Y12.3423
G01 X-12.1185 Y12.3600
G01 X-12.1026 Y12.3729
G01 X-12.0784 Y12.3936
G01 X-12.0541 Y12.4138
G01 X-12.0389 Y12.4272
G01 X-12.0176 Y12.4470
G01 X-11.9948 Y12.4674
G01 X-11.9790 Y12.4825
G01 X-11.9572 Y12.5045
G01 X-11.9350 Y12.5260
G01 X-11.9200 Y12.5416
G01 X-11.9009 Y12.5625
G01 X-11.8812 Y12.5831
G01 X-11.8665 Y12.5994
G01 X-11.8453 Y12.6247
G01 X-11.8244 Y12.6484
G01 X-11.8115 Y12.6641
G01 X-11.7943 Y12.6863
G01 X-11.7761 Y12.7086
G01 X-11.7633 Y12.7254
G01 X-11.7443 Y12.7518
G01 X-11.7252 Y12.7774
G01 X-11.7134 Y12.7941
G01 X-11.6969 Y12.8193
G01 X-11.6802 Y12.8437
G01 X-11.6694 Y12.8604
G01 X-11.6527 Y12.8881
G01 X-11.6354 Y12.9156
G01 X-11.6252 Y12.9330
G01 X-11.6116 Y12.9578
G01 X-11.5965 Y12.9839
G01 X-11.5862 Y13.0031
G01 X-11.5721 Y13.0315
G01 X-11.5582 Y13.0580
G01 X-11.5493 Y13.0763
G01 X-11.5370 Y13.1037
G01 X-11.5239 Y13.1310
G01 X-11.5156 Y13.1500
G01 X-11.5040 Y13.1788
G01 X-11.4916 Y13.2078
G01 X-11.4839 Y13.2275
G01 X-11.4738 Y13.2558
G01 X-11.4633 Y13.2832
G01 X-11.4566 Y13.3025
G01 X-11.4474 Y13.3320
G01 X-11.4372 Y13.3623
G01 X-11.4309 Y13.3829
G01 X-11.4233 Y13.4115
G01 X-11.4152 Y13.4391
G01 X-11.4099 Y13.4592
G01 X-11.4028 Y13.4904
G01 X-11.3950 Y13.5214
G01 X-11.3906 Y13.5416
G01 X-11.3853 Y13.5702
G01 X-11.3793 Y13.5990
G01 X-11.3756 Y13.6196
G01 X-11.3710 Y13.6515
G01 X-11.3659 Y13.6822
G01 X-11.3632 Y13.7020
G01 X-11.3600 Y13.7323
G01 X-11.3562 Y13.7623
G01 X-11.3543 Y13.7819
G01 X-11.3522 Y13.8133
G01 X-11.3495 Y13.8456
G01 X-11.3483 Y13.8660
G01 X-11.3476 Y13.8952
G01 X-11.3462 Y13.9250
G01 X-11.3459 Y13.9462
G01 X-11.3463 Y13.9775
G01 X-11.3461 Y14.0079
G01 X-11.3465 Y14.0281
G01 X-11.3481 Y14.0585
G01 X-11.3491 Y14.0892
G01 X-11.3504 Y14.1096
G01 X-11.3533 Y14.1400
G01 X-11.3556 Y14.1720
G01 X-11.3578 Y14.1938
G01 X-11.3618 Y14.2228
G01 X-11.3649 Y14.2509
G01 X-11.3679 Y14.2717
G01 X-11.3734 Y14.3035
G01 X-11.3781 Y14.3344
G01 X-11.3817 Y14.3539
G01 X-11.3881 Y14.3834
G01 X-11.3939 Y14.4134
G01 X-11.3984 Y14.4333
G01 X-11.4063 Y14.4641
G01 X-11.4160 Y14.5041
G01 X-11.6518 Y15.3843
G01 X-11.6518 Y16.0906
G01 X-11.6534 Y16.1609
G01 X-11.6544 Y16.1845
G01 X-11.6569 Y16.2183
G01 X-11.6587 Y16.2493
G01 X-11.6605 Y16.2702
G01 X-11.6639 Y16.2993
G01 X-11.6667 Y16.3287
G01 X-11.6693 Y16.3496
G01 X-11.6744 Y16.3820
G01 X-11.6786 Y16.4128
G01 X-11.6818 Y16.4320
G01 X-11.6876 Y16.4613
G01 X-11.6930 Y16.4916
G01 X-11.6972 Y16.5117
G01 X-11.7043 Y16.5413
G01 X-11.7110 Y16.5723
G01 X-11.7163 Y16.5936
G01 X-11.7244 Y16.6220
G01 X-11.7314 Y16.6490
G01 X-11.7370 Y16.6685
G01 X-11.7469 Y16.6991
G01 X-11.7563 Y16.7302
G01 X-11.7629 Y16.7498
G01 X-11.7732 Y16.7776
G01 X-11.7831 Y16.8061
G01 X-11.7907 Y16.8259
G01 X-11.8023 Y16.8538
G01 X-11.8138 Y16.8831
G01 X-11.8226 Y16.9038
G01 X-11.8350 Y16.9303
G01 X-11.8461 Y16.9557
G01 X-11.8550 Y16.9746
G01 X-11.8696 Y17.0031
G01 X-11.8831 Y17.0309
G01 X-11.8924 Y17.0486
G01 X-11.9072 Y17.0750
G01 X-11.9221 Y17.1027
G01 X-11.9326 Y17.1210
G01 X-11.9488 Y17.1472
G01 X-11.9643 Y17.1734
G01 X-11.9753 Y17.1910
G01 X-11.9918 Y17.2155
G01 X-12.0084 Y17.2414
G01 X-12.0209 Y17.2595
G01 X-12.0387 Y17.2837
G01 X-12.0558 Y17.3081
G01 X-12.0688 Y17.3256
G01 X-12.0878 Y17.3495
G01 X-12.1055 Y17.3726
G01 X-12.1184 Y17.3885
G01 X-12.1391 Y17.4127
G01 X-12.1598 Y17.4376
G01 X-12.1737 Y17.4533
G01 X-12.1933 Y17.4743
G01 X-12.2124 Y17.4957
G01 X-12.2269 Y17.5110
G01 X-12.2492 Y17.5331
G01 X-12.2715 Y17.5561
G01 X-12.2871 Y17.5711
G01 X-12.3080 Y17.5902
G01 X-12.3286 Y17.6099
G01 X-12.3449 Y17.6246
G01 X-12.3702 Y17.6458
G01 X-12.3933 Y17.6661
G01 X-12.4083 Y17.6785
G01 X-12.4318 Y17.6968
G01 X-12.4561 Y17.7165
G01 X-12.4729 Y17.7293
G01 X-12.4973 Y17.7468
G01 X-12.5220 Y17.7653
G01 X-12.5399 Y17.7778
G01 X-12.5649 Y17.7942
G01 X-12.5889 Y17.8107
G01 X-12.6069 Y17.8223
G01 X-12.6336 Y17.8384
G01 X-12.6596 Y17.8548
G01 X-12.6777 Y17.8654
G01 X-12.7033 Y17.8795
G01 X-12.7294 Y17.8946
G01 X-12.7486 Y17.9049
G01 X-12.7770 Y17.9190
G01 X-12.8035 Y17.9329
G01 X-12.8218 Y17.9418
G01 X-12.8492 Y17.9541
G01 X-12.8765 Y17.9672
G01 X-12.8955 Y17.9755
G01 X-12.9243 Y17.9871
G01 X-12.9533 Y17.9995
G01 X-12.9730 Y18.0072
G01 X-13.0013 Y18.0173
G01 X-13.0287 Y18.0278
G01 X-13.0480 Y18.0345
G01 X-13.0775 Y18.0437
G01 X-13.1078 Y18.0539
G01 X-13.1284 Y18.0602
G01 X-13.1570 Y18.0678
G01 X-13.1856 Y18.0762
G01 X-13.2066 Y18.0817
G01 X-13.2359 Y18.0883
G01 X-13.2650 Y18.0956
G01 X-13.2862 Y18.1003
G01 X-13.3157 Y18.1058
G01 X-13.3445 Y18.1118
G01 X-13.3651 Y18.1155
G01 X-13.3970 Y18.1201
G01 X-13.4277 Y18.1252
G01 X-13.4475 Y18.1279
G01 X-13.4778 Y18.1311
G01 X-13.5078 Y18.1349
G01 X-13.5275 Y18.1368
G01 X-13.5589 Y18.1389
G01 X-13.5909 Y18.1416
G01 X-13.6114 Y18.1427
G01 X-13.6407 Y18.1435
G01 X-13.6705 Y18.1449
G01 X-13.6917 Y18.1452
G01 X-13.7230 Y18.1448
G01 X-13.7534 Y18.1450
G01 X-13.7736 Y18.1446
G01 X-13.8040 Y18.1430
G01 X-13.8347 Y18.1420
G01 X-13.8551 Y18.1407
G01 X-13.8871 Y18.1377
G01 X-13.9185 Y18.1353
G01 X-13.9382 Y18.1333
G01 X-13.9668 Y18.1295
G01 X-13.9964 Y18.1262
G01 X-14.0172 Y18.1232
G01 X-14.0490 Y18.1177
G01 X-14.0809 Y18.1128
G01 X-14.1014 Y18.1090
G01 X-14.1288 Y18.1030
G01 X-14.1571 Y18.0976
G01 X-14.1783 Y18.0929
G01 X-14.2095 Y18.0848
G01 X-14.2497 Y18.0751
G01 X-14.7588 Y17.9387
G01 X-15.9027 Y17.9387
G01 X-15.9253 Y17.9392
G01 X-15.9569 Y17.9407
G01 X-15.9766 Y17.9410
G01 X-16.0066 Y17.9407
G01 X-16.0376 Y17.9409
G01 X-16.0583 Y17.9404
G01 X-16.0894 Y17.9388
G01 X-16.1202 Y17.9378
G01 X-16.1407 Y17.9365
G01 X-16.1698 Y17.9338
G01 X-16.2006 Y17.9316
G01 X-16.2227 Y17.9294
G01 X-16.2531 Y17.9252
G01 X-16.2822 Y17.9220
G01 X-16.3028 Y17.9191
G01 X-16.3327 Y17.9139
G01 X-16.3635 Y17.9092
G01 X-16.3847 Y17.9053
G01 X-16.4141 Y17.8990
G01 X-16.4439 Y17.8932
G01 X-16.4653 Y17.8884
G01 X-16.4938 Y17.8811
G01 X-16.5222 Y17.8744
G01 X-16.5430 Y17.8689
G01 X-16.5723 Y17.8601
G01 X-16.6027 Y17.8517
G01 X-16.6240 Y17.8451
G01 X-16.6521 Y17.8354
G01 X-16.6785 Y17.8269
G01 X-16.6977 Y17.8202
G01 X-16.7281 Y17.8084
G01 X-16.7578 Y17.7976
G01 X-16.7759 Y17.7903
G01 X-16.8039 Y17.7782
G01 X-16.8328 Y17.7664
G01 X-16.8512 Y17.7581
G01 X-16.8777 Y17.7453
G01 X-16.9017 Y17.7345
G01 X-16.9326 Y17.7192
G01 X-16.9530 Y17.7082
G01 X-16.9778 Y17.6957
G01 X-16.9968 Y17.6853
G01 X-17.0247 Y17.6690
G01 X-17.0518 Y17.6539
G01 X-17.0695 Y17.6433
G01 X-17.0948 Y17.6271
G01 X-17.1197 Y17.6119
G01 X-17.1362 Y17.6012
G01 X-17.1625 Y17.5830
G01 X-17.1896 Y17.5649
G01 X-17.2059 Y17.5533
G01 X-17.2297 Y17.5353
G01 X-17.2543 Y17.5175
G01 X-17.2708 Y17.5047
G01 X-17.2948 Y17.4849
G01 X-17.3192 Y17.4657
G01 X-17.3352 Y17.4524
G01 X-17.3572 Y17.4327
G01 X-17.3799 Y17.4133
G01 X-17.3958 Y17.3990
G01 X-17.4186 Y17.3769
G01 X-17.4409 Y17.3563
G01 X-17.4551 Y17.3423
G01 X-17.4758 Y17.3207
G01 X-17.4979 Y17.2987
G01 X-17.5124 Y17.2832
G01 X-17.5326 Y17.2603
G01 X-17.5529 Y17.2383
G01 X-17.5666 Y17.2226
G01 X-17.5860 Y17.1989
G01 X-17.6063 Y17.1750
G01 X-17.6196 Y17.1584
G01 X-17.6372 Y17.1349
G01 X-17.6561 Y17.1109
G01 X-17.6695 Y17.0927
G01 X-17.6865 Y17.0681
G01 X-17.7030 Y17.0453
G01 X-17.7146 Y17.0281
G01 X-17.7317 Y17.0012
G01 X-17.7491 Y16.9751
G01 X-17.7597 Y16.9579
G01 X-17.7751 Y16.9316
G01 X-17.7912 Y16.9050
G01 X-17.8014 Y16.8869
G01 X-17.8154 Y16.8605
G01 X-17.8304 Y16.8334
G01 X-17.8405 Y16.8139
G01 X-17.8532 Y16.7873
G01 X-17.8664 Y16.7611
G01 X-17.8756 Y16.7413
G01 X-17.8876 Y16.7136
G01 X-17.8999 Y16.6866
G01 X-17.9082 Y16.6670
G01 X-17.9196 Y16.6374
G01 X-17.9309 Y16.6096
G01 X-17.9378 Y16.5912
G01 X-17.9477 Y16.5621
G01 X-17.9589 Y16.5313
G01 X-17.9656 Y16.5107
G01 X-17.9737 Y16.4834
G01 X-17.9825 Y16.4557
G01 X-17.9887 Y16.4343
G01 X-17.9962 Y16.4042
G01 X-18.0042 Y16.3754
G01 X-18.0091 Y16.3551
G01 X-18.0155 Y16.3249
G01 X-18.0224 Y16.2955
G01 X-18.0264 Y16.2755
G01 X-18.0315 Y16.2455
G01 X-18.0375 Y16.2145
G01 X-18.0409 Y16.1931
G01 X-18.0447 Y16.1631
G01 X-18.0490 Y16.1346
G01 X-18.0515 Y16.1145
G01 X-18.0543 Y16.0826
G01 X-18.0578 Y16.0509
G01 X-18.0594 Y16.0307
G01 X-18.0608 Y16.0018
G01 X-18.0630 Y15.9719
G01 X-18.0639 Y15.9505
G01 X-18.0642 Y15.9187
G01 X-18.0652 Y15.8776
G01 X-18.0652 Y15.3843
G01 X-18.3010 Y14.5041
G01 X-18.3086 Y14.4747
G01 X-18.3252 Y14.4039
G01 X-18.3313 Y14.3715
G01 X-18.3375 Y14.3417
G01 X-18.3412 Y14.3211
G01 X-18.3457 Y14.2906
G01 X-18.3507 Y14.2609
G01 X-18.3535 Y14.2406
G01 X-18.3569 Y14.2085
G01 X-18.3609 Y14.1768
G01 X-18.3628 Y14.1568
G01 X-18.3647 Y14.1281
G01 X-18.3672 Y14.0991
G01 X-18.3684 Y14.0785
G01 X-18.3693 Y14.0462
G01 X-18.3708 Y14.0148
G01 X-18.3711 Y13.9949
G01 X-18.3708 Y13.9649
G01 X-18.3710 Y13.9337
G01 X-18.3705 Y13.9129
G01 X-18.3689 Y13.8820
G01 X-18.3679 Y13.8513
G01 X-18.3666 Y13.8308
G01 X-18.3638 Y13.8002
G01 X-18.3615 Y13.7699
G01 X-18.3595 Y13.7498
G01 X-18.3555 Y13.7197
G01 X-18.3520 Y13.6883
G01 X-18.3489 Y13.6669
G01 X-18.3438 Y13.6375
G01 X-18.3394 Y13.6089
G01 X-18.3357 Y13.5887
G01 X-18.3293 Y13.5586
G01 X-18.3233 Y13.5275
G01 X-18.3186 Y13.5066
G01 X-18.3113 Y13.4780
G01 X-18.3045 Y13.4492
G01 X-18.2990 Y13.4284
G01 X-18.2901 Y13.3988
G01 X-18.2817 Y13.3683
G01 X-18.2751 Y13.3472
G01 X-18.2656 Y13.3199
G01 X-18.2571 Y13.2931
G01 X-18.2501 Y13.2733
G01 X-18.2383 Y13.2428
G01 X-18.2273 Y13.2128
G01 X-18.1977 Y13.1414
G01 X-18.1886 Y13.1209
G01 X-18.1742 Y13.0912
G01 X-18.1615 Y13.0634
G01 X-18.1525 Y13.0454
G01 X-18.1385 Y13.0191
G01 X-18.1249 Y12.9922
G01 X-18.1152 Y12.9743
G01 X-18.0994 Y12.9472
G01 X-18.0838 Y12.9194
G01 X-18.0731 Y12.9015
G01 X-18.0576 Y12.8773
G01 X-18.0422 Y12.8520
G01 X-18.0302 Y12.8336
G01 X-18.0125 Y12.8083
G01 X-17.9955 Y12.7827
G01 X-17.9829 Y12.7649
G01 X-17.9651 Y12.7415
G01 X-17.9483 Y12.7182
G01 X-17.9352 Y12.7013
G01 X-17.9151 Y12.6768
G01 X-17.8958 Y12.6523
G01 X-17.8825 Y12.6363
G01 X-17.8627 Y12.6142
G01 X-17.8437 Y12.5918
G01 X-17.8299 Y12.5766
G01 X-17.8070 Y12.5529
G01 X-17.7854 Y12.5296
G01 X-17.7719 Y12.5159
G01 X-17.7508 Y12.4956
G01 X-17.7287 Y12.4735
G01 X-17.7132 Y12.4590
G01 X-17.6903 Y12.4388
G01 X-17.6678 Y12.4181
G01 X-17.6517 Y12.4040
G01 X-17.6281 Y12.3848
G01 X-17.6055 Y12.3656
G01 X-17.5894 Y12.3527
G01 X-17.5657 Y12.3349
G01 X-17.5417 Y12.3159
G01 X-17.5242 Y12.3030
G01 X-17.4984 Y12.2852
G01 X-17.4740 Y12.2675
G01 X-17.4570 Y12.2561
G01 X-17.4309 Y12.2395
G01 X-17.4047 Y12.2221
G01 X-17.3871 Y12.2112
G01 X-17.3621 Y12.1967
G01 X-17.3366 Y12.1811
G01 X-17.3177 Y12.1704
G01 X-17.2899 Y12.1558
G01 X-17.2636 Y12.1411
G01 X-17.2453 Y12.1317
G01 X-17.2167 Y12.1180
G01 X-17.1897 Y12.1044
G01 X-17.1725 Y12.0964
G01 X-17.1436 Y12.0839
G01 X-17.1141 Y12.0705
G01 X-17.0958 Y12.0628
G01 X-17.0688 Y12.0524
G01 X-17.0408 Y12.0410
G01 X-17.0208 Y12.0335
G01 X-16.9913 Y12.0234
G01 X-16.9621 Y12.0128
G01 X-16.9422 Y12.0063
G01 X-16.9130 Y11.9977
G01 X-16.8837 Y11.9884
G01 X-16.8633 Y11.9826
G01 X-16.8346 Y11.9754
G01 X-16.8058 Y11.9674
G01 X-16.7850 Y11.9623
G01 X-16.7546 Y11.9559
G01 X-16.7256 Y11.9492
G01 X-16.7058 Y11.9452
G01 X-16.6759 Y11.9400
G01 X-16.6444 Y11.9340
G01 X-16.6229 Y11.9306
G01 X-16.5930 Y11.9267
G01 X-16.5647 Y11.9225
G01 X-16.5447 Y11.9200
G01 X-16.5129 Y11.9172
G01 X-16.4809 Y11.9137
G01 X-16.4607 Y11.9121
G01 X-16.4316 Y11.9106
G01 X-16.4016 Y11.9085
G01 X-16.3803 Y11.9076
G01 X-16.3488 Y11.9073
G01 X-18.3371 Y7.1208
G01 X-18.2462 Y7.0944
G01 X-18.1562 Y7.0699
G01 X-18.0438 Y7.0406
G01 X-17.9898 Y7.0273
G01 X-17.9398 Y7.0154
G01 X-17.8179 Y6.9880
G01 X-17.7610 Y6.9758
G01 X-17.7095 Y6.9653
G01 X-17.6181 Y6.9478
G01 X-17.4885 Y6.9247
G01 X-17.5397 Y6.8848
G01 X-17.5886 Y6.8866
G01 X-17.6548 Y6.8884
G01 X-17.7172 Y6.8894
G01 X-17.7639 Y6.8897
G01 X-17.8302 Y6.8895
G01 X-17.8925 Y6.8886
G01 X-17.9548 Y6.8871
G01 X-18.0192 Y6.8848
G01 X-18.1166 Y6.9600
G01 X-18.1845 Y7.0111
G01 X-18.2466 Y7.0565
G01 X-18.3371 Y7.1208
G01 X-21.0349 Y8.2750
G01 X-20.9855 Y8.3129
G01 X-20.9241 Y8.3607
G01 X-20.8728 Y8.4014
G01 X-20.8274 Y8.4382
G01 X-20.7824 Y8.4015
G01 X-20.7338 Y8.3629
G01 X-20.6553 Y8.3020
G01 X-20.6006 Y8.2602
G01 X-20.5624 Y8.2316
G01 X-20.5135 Y8.1957
G01 X-20.4642 Y8.1603
G01 X-20.4061 Y8.1192
G01 X-20.4855 Y8.1423
G01 X-20.5595 Y8.1628
G01 X-20.6526 Y8.1874
G01 X-20.7278 Y8.2065
G01 X-20.7953 Y8.2227
G01 X-20.8590 Y8.2373
G01 X-20.9675 Y8.2611
G01 X-21.0349 Y8.2750
G01 X-28.0077 Y6.8263
G01 X-27.8717 Y6.8263
G01 X-27.9394 Y6.7708
G01 X-28.0077 Y6.8263
G00 Z5.0000
G00 X-33.8098 Y13.8557
G01 F190.00
G01 Z-0.2200
G01 F400.00
G01 X-33.8083 Y13.8298
G01 X-33.8066 Y13.8107
G01 X-33.7987 Y13.7265
G01 X-33.7967 Y13.7096
G01 X-33.7909 Y13.6680
G01 X-33.7875 Y13.6480
G01 X-33.7719 Y13.5595
G01 X-33.7652 Y13.5278
G01 X-33.7606 Y13.5072
G01 X-33.7554 Y13.4868
G01 X-33.7331 Y13.4009
G01 X-33.7179 Y13.3503
G01 X-33.6818 Y13.2455
G01 X-33.6620 Y13.1947
G01 X-33.6185 Y13.0952
G01 X-33.5943 Y13.0452
G01 X-33.5432 Y12.9496
G01 X-33.5323 Y12.9306
G01 X-33.5152 Y12.9019
G01 X-33.4684 Y12.8286
G01 X-33.4563 Y12.8100
G01 X-33.4249 Y12.7652
G01 X-33.3593 Y12.6788
G01 X-33.3247 Y12.6368
G01 X-33.2520 Y12.5554
G01 X-33.2123 Y12.5145
G01 X-33.1352 Y12.4408
G01 X-33.0927 Y12.4034
G01 X-33.0519 Y12.3705
G01 X-33.0138 Y12.3390
G01 X-32.9996 Y12.3280
G01 X-32.9663 Y12.3032
G01 X-32.9481 Y12.2906
G01 X-32.8748 Y12.2402
G01 X-32.8407 Y12.2184
G01 X-32.8258 Y12.2093
G01 X-32.7356 Y12.1572
G01 X-32.7042 Y12.1405
G01 X-32.6859 Y12.1311
G01 X-32.5927 Y12.0865
G01 X-32.5576 Y12.0712
G01 X-32.5377 Y12.0628
G01 X-32.4874 Y12.0438
G01 X-32.4408 Y12.0256
G01 X-32.3968 Y12.0104
G01 X-32.3799 Y12.0050
G01 X-32.2807 Y11.9759
G01 X-32.2251 Y11.9619
G01 X-32.1219 Y11.9403
G01 X-32.0653 Y11.9306
G01 X-31.9580 Y11.9169
G01 X-31.9015 Y11.9120
G01 X-31.7950 Y11.9069
G01 X-31.7495 Y11.9063
G01 X-25.3385 Y11.9063
G01 X-25.2682 Y11.9079
G01 X-25.2446 Y11.9089
G01 X-25.2108 Y11.9114
G01 X-25.1799 Y11.9132
G01 X-25.1592 Y11.9150
G01 X-25.1298 Y11.9184
G01 X-25.1002 Y11.9212
G01 X-25.0794 Y11.9238
G01 X-25.0473 Y11.9288
G01 X-25.0163 Y11.9331
G01 X-24.9967 Y11.9364
G01 X-24.9675 Y11.9422
G01 X-24.9377 Y11.9474
G01 X-24.9179 Y11.9516
G01 X-24.8878 Y11.9588
G01 X-24.8564 Y11.9656
G01 X-24.8353 Y11.9709
G01 X-24.8071 Y11.9789
G01 X-24.7791 Y11.9862
G01 X-24.7587 Y11.9921
G01 X-24.7300 Y12.0015
G01 X-24.6999 Y12.0105
G01 X-24.6784 Y12.0178
G01 X-24.6515 Y12.0278
G01 X-24.6249 Y12.0369
G01 X-24.6041 Y12.0448
G01 X-24.5753 Y12.0568
G01 X-24.5464 Y12.0681
G01 X-24.5262 Y12.0768
G01 X-24.4987 Y12.0895
G01 X-24.4726 Y12.1010
G01 X-24.4542 Y12.1097
G01 X-24.4260 Y12.1241
G01 X-24.3982 Y12.1376
G01 X-24.3805 Y12.1469
G01 X-24.3541 Y12.1617
G01 X-24.3264 Y12.1766
G01 X-24.3081 Y12.1871
G01 X-24.2819 Y12.2033
G01 X-24.2557 Y12.2188
G01 X-24.2381 Y12.2298
G01 X-24.2136 Y12.2463
G01 X-24.1877 Y12.2629
G01 X-24.1696 Y12.2754
G01 X-24.1454 Y12.2932
G01 X-24.1210 Y12.3103
G01 X-24.1035 Y12.3233
G01 X-24.0796 Y12.3423
G01 X-24.0565 Y12.3600
G01 X-24.0406 Y12.3729
G01 X-24.0164 Y12.3936
G01 X-23.9921 Y12.4138
G01 X-23.9769 Y12.4272
G01 X-23.9556 Y12.4470
G01 X-23.9328 Y12.4674
G01 X-23.9170 Y12.4825
G01 X-23.8952 Y12.5045
G01 X-23.8730 Y12.5260
G01 X-23.8580 Y12.5416
G01 X-23.8389 Y12.5625
G01 X-23.8192 Y12.5831
G01 X-23.8045 Y12.5994
G01 X-23.7833 Y12.6247
G01 X-23.7624 Y12.6484
G01 X-23.7495 Y12.6641
G01 X-23.7323 Y12.6863
G01 X-23.7141 Y12.7086
G01 X-23.7013 Y12.7254
G01 X-23.6823 Y12.7518
G01 X-23.6632 Y12.7774
G01 X-23.6514 Y12.7941
G01 X-23.6349 Y12.8193
G01 X-23.6182 Y12.8437
G01 X-23.6074 Y12.8604
G01 X-23.5907 Y12.8881
G01 X-23.5734 Y12.9156
G01 X-23.5632 Y12.9330
G01 X-23.5496 Y12.9578
G01 X-23.5345 Y12.9839
G01 X-23.5242 Y13.0031
G01 X-23.5101 Y13.0315
G01 X-23.4962 Y13.0580
G01 X-23.4873 Y13.0763
G01 X-23.4750 Y13.1037
G01 X-23.4619 Y13.1310
G01 X-23.4536 Y13.1500
G01 X-23.4420 Y13.1788
G01 X-23.4296 Y13.2078
G01 X-23.4219 Y13.2275
G01 X-23.4118 Y13.2558
G01 X-23.4013 Y13.2832
G01 X-23.3946 Y13.3025
G01 X-23.3854 Y13.3320
G01 X-23.3752 Y13.3623
G01 X-23.3689 Y13.3829
G01 X-23.3613 Y13.4115
G01 X-23.3532 Y13.4391
G01 X-23.3479 Y13.4592
G01 X-23.3408 Y13.4904
G01 X-23.3330 Y13.5214
G01 X-23.3286 Y13.5416
G01 X-23.3233 Y13.5702
G01 X-23.3173 Y13.5990
G01 X-23.3136 Y13.6196
G01 X-23.3090 Y13.6515
G01 X-23.3039 Y13.6822
G01 X-23.3012 Y13.7020
G01 X-23.2980 Y13.7323
G01 X-23.2942 Y13.7623
G01 X-23.2923 Y13.7819
G01 X-23.2902 Y13.8133
G01 X-23.2875 Y13.8456
G01 X-23.2863 Y13.8660
G01 X-23.2856 Y13.8952
G01 X-23.2842 Y13.9250
G01 X-23.2839 Y13.9462
G01 X-23.2843 Y13.9775
G01 X-23.2841 Y14.0079
G01 X-23.2845 Y14.0281
G01 X-23.2861 Y14.0585
G01 X-23.2871 Y14.0892
G01 X-23.2884 Y14.1096
G01 X-23.2913 Y14.1400
G01 X-23.2936 Y14.1720
G01 X-23.2958 Y14.1938
G01 X-23.2998 Y14.2228
G01 X-23.3029 Y14.2509
G01 X-23.3059 Y14.2717
G01 X-23.3114 Y14.3035
G01 X-23.3161 Y14.3344
G01 X-23.3197 Y14.3539
G01 X-23.3261 Y14.3834
G01 X-23.3319 Y14.4134
G01 X-23.3364 Y14.4333
G01 X-23.3443 Y14.4641
G01 X-23.3540 Y14.5041
G01 X-23.5898 Y15.3843
G01 X-23.5898 Y16.1117
G01 X-23.4015 Y16.8142
G01 X-23.0379 Y17.4441
G01 X-22.3833 Y18.0987
G01 X-22.3186 Y18.1664
G01 X-22.2880 Y18.2006
G01 X-22.2739 Y18.2175
G01 X-22.2532 Y18.2430
G01 X-22.2186 Y18.2845
G01 X-22.1982 Y18.3110
G01 X-22.1851 Y18.3285
G01 X-22.1236 Y18.4161
G01 X-22.0921 Y18.4649
G01 X-22.0376 Y18.5574
G01 X-22.0212 Y18.5877
G01 X-22.0119 Y18.6054
G01 X-22.0030 Y18.6234
G01 X-21.9657 Y18.6999
G01 X-21.9586 Y18.7154
G01 X-21.9421 Y18.7537
G01 X-21.9023 Y18.8550
G01 X-21.8840 Y18.9076
G01 X-21.8531 Y19.0094
G01 X-21.8436 Y19.0449
G01 X-21.8384 Y19.0658
G01 X-21.8337 Y19.0868
G01 X-21.8272 Y19.1185
G01 X-21.8160 Y19.1686
G01 X-21.8057 Y19.2266
G01 X-21.7913 Y19.3322
G01 X-21.7876 Y19.3684
G01 X-21.7847 Y19.4069
G01 X-21.7798 Y19.4954
G01 X-21.7793 Y19.5146
G01 X-21.7789 Y19.5523
G01 X-21.7803 Y19.6050
G01 X-21.7813 Y19.6584
G01 X-21.7824 Y19.6799
G01 X-21.7850 Y19.7167
G01 X-21.7958 Y19.8216
G01 X-21.8007 Y19.8579
G01 X-21.8038 Y19.8781
G01 X-21.8074 Y19.8982
G01 X-21.8231 Y19.9831
G01 X-21.8357 Y20.0390
G01 X-21.8631 Y20.1415
G01 X-21.8743 Y20.1784
G01 X-21.8868 Y20.2157
G01 X-21.8980 Y20.2462
G01 X-21.9143 Y20.2932
G01 X-21.9204 Y20.3093
G01 X-21.9362 Y20.3484
G01 X-21.9449 Y20.3683
G01 X-21.9803 Y20.4471
G01 X-21.9879 Y20.4629
G01 X-22.0059 Y20.4990
G01 X-22.0578 Y20.5940
G01 X-22.0793 Y20.6304
G01 X-22.0979 Y20.6596
G01 X-22.1160 Y20.6867
G01 X-22.1445 Y20.7306
G01 X-22.1771 Y20.7765
G01 X-22.2306 Y20.8461
G01 X-22.2440 Y20.8632
G01 X-22.2578 Y20.8799
G01 X-22.2789 Y20.9047
G01 X-22.3156 Y20.9449
G01 X-22.3372 Y20.9691
G01 X-22.3510 Y20.9842
G01 X-22.3833 Y21.0173
G01 X-23.0379 Y21.6719
G01 X-23.4015 Y22.3018
G01 X-23.5898 Y23.0043
G01 X-23.5898 Y23.7317
G01 X-23.4015 Y24.4342
G01 X-23.0379 Y25.0641
G01 X-22.5236 Y25.5784
G01 X-21.8032 Y25.9943
G01 X-21.7740 Y26.0070
G01 X-21.7295 Y26.0284
G01 X-21.7099 Y26.0382
G01 X-21.6689 Y26.0607
G01 X-21.6280 Y26.0824
G01 X-21.5844 Y26.1079
G01 X-21.5669 Y26.1185
G01 X-21.5286 Y26.1436
G01 X-21.4885 Y26.1692
G01 X-21.4482 Y26.1973
G01 X-21.4313 Y26.2095
G01 X-21.3943 Y26.2382
G01 X-21.3571 Y26.2663
G01 X-21.3178 Y26.2986
G01 X-21.3022 Y26.3120
G01 X-21.2684 Y26.3427
G01 X-21.2338 Y26.3734
G01 X-21.1988 Y26.4071
G01 X-21.1837 Y26.4222
G01 X-21.1508 Y26.4572
G01 X-21.1188 Y26.4906
G01 X-21.0847 Y26.5291
G01 X-21.0717 Y26.5444
G01 X-21.0436 Y26.5797
G01 X-21.0138 Y26.6160
G01 X-21.0004 Y26.6335
G01 X-20.9717 Y26.6727
G01 X-20.9457 Y26.7111
G01 X-20.9189 Y26.7496
G01 X-20.9074 Y26.7676
G01 X-20.8817 Y26.8090
G01 X-20.8588 Y26.8494
G01 X-20.8343 Y26.8915
G01 X-20.8271 Y26.9050
G01 X-20.8084 Y26.8692
G01 X-20.7976 Y26.8502
G01 X-20.7730 Y26.8084
G01 X-20.7478 Y26.7694
G01 X-20.7230 Y26.7297
G01 X-20.7110 Y26.7121
G01 X-20.6820 Y26.6708
G01 X-20.6537 Y26.6338
G01 X-20.6264 Y26.5972
G01 X-20.6141 Y26.5817
G01 X-20.5818 Y26.5426
G01 X-20.5511 Y26.5084
G01 X-20.5194 Y26.4722
G01 X-20.5046 Y26.4565
G01 X-20.4716 Y26.4225
G01 X-20.4038 Y26.3573
G01 X-20.3648 Y26.3223
G01 X-20.3503 Y26.3098
G01 X-20.3152 Y26.2813
G01 X-20.2953 Y26.2646
G01 X-20.2790 Y26.2513
G01 X-20.2623 Y26.2384
G01 X-20.2230 Y26.2090
G01 X-20.1844 Y26.1825
G01 X-20.1452 Y26.1549
G01 X-20.1274 Y26.1433
G01 X-20.0872 Y26.1180
G01 X-20.0052 Y26.0703
G01 X-19.9444 Y26.0379
G01 X-19.8565 Y25.9958
G01 X-19.1310 Y25.5781
G01 X-18.9587 Y25.4060
G01 X-18.9075 Y25.3572
G01 X-18.8794 Y25.3323
G01 X-18.8119 Y25.2751
G01 X-18.7921 Y25.2588
G01 X-18.7687 Y25.2405
G01 X-18.6649 Y25.1658
G01 X-18.6404 Y25.1496
G01 X-18.6175 Y25.1353
G01 X-18.5267 Y25.0805
G01 X-18.5021 Y25.0668
G01 X-18.4763 Y25.0533
G01 X-18.3982 Y25.0141
G01 X-18.3820 Y25.0061
G01 X-18.3575 Y24.9949
G01 X-18.3290 Y24.9827
G01 X-18.2467 Y24.9493
G01 X-18.2164 Y24.9376
G01 X-18.1920 Y24.9290
G01 X-18.1758 Y24.9237
G01 X-18.0912 Y24.8970
G01 X-18.0663 Y24.8895
G01 X-18.0377 Y24.8817
G01 X-18.0176 Y24.8769
G01 X-17.9161 Y24.8536
G01 X-17.8891 Y24.8483
G01 X-17.8576 Y24.8431
G01 X-17.7574 Y24.8284
G01 X-17.7149 Y24.8236
G01 X-17.6960 Y24.8221
G01 X-17.6076 Y24.8162
G01 X-17.5706 Y24.8144
G01 X-17.5315 Y24.8140
G01 X-17.4464 Y24.8150
G01 X-17.4265 Y24.8153
G01 X-17.3978 Y24.8167
G01 X-17.3688 Y24.8189
G01 X-17.2668 Y24.8283
G01 X-17.2238 Y24.8338
G01 X-17.1205 Y24.8514
G01 X-17.0892 Y24.8573
G01 X-17.0625 Y24.8631
G01 X-17.0446 Y24.8675
G01 X-16.9454 Y24.8929
G01 X-16.9037 Y24.9052
G01 X-16.7877 Y24.9448
G01 X-16.7478 Y24.9603
G01 X-16.7129 Y24.9753
G01 X-15.7202 Y25.2413
G01 X-14.7588 Y25.2413
G01 X-13.8302 Y24.9924
G01 X-13.5159 Y24.8111
G01 X-13.4597 Y24.7799
G01 X-13.4189 Y24.7586
G01 X-13.3273 Y24.7151
G01 X-13.3097 Y24.7070
G01 X-13.2839 Y24.6959
G01 X-13.2554 Y24.6846
G01 X-13.1583 Y24.6479
G01 X-13.1172 Y24.6342
G01 X-13.0173 Y24.6051
G01 X-12.9821 Y24.5956
G01 X-12.9625 Y24.5909
G01 X-12.9427 Y24.5866
G01 X-12.8577 Y24.5691
G01 X-12.8216 Y24.5624
G01 X-12.8016 Y24.5592
G01 X-12.7815 Y24.5565
G01 X-12.6956 Y24.5459
G01 X-12.6585 Y24.5420
G01 X-12.6194 Y24.5394
G01 X-12.5328 Y24.5356
G01 X-12.4948 Y24.5346
G01 X-12.4549 Y24.5353
G01 X-12.3480 Y24.5392
G01 X-12.3113 Y24.5420
G01 X-12.2921 Y24.5440
G01 X-12.1876 Y24.5561
G01 X-12.1591 Y24.5604
G01 X-12.1309 Y24.5655
G01 X-12.0439 Y24.5826
G01 X-12.0151 Y24.5887
G01 X-11.9877 Y24.5953
G01 X-11.9689 Y24.6004
G01 X-11.8708 Y24.6280
G01 X-11.8465 Y24.6356
G01 X-11.8126 Y24.6474
G01 X-11.7157 Y24.6831
G01 X-11.6909 Y24.6932
G01 X-11.6602 Y24.7067
G01 X-11.5670 Y24.7497
G01 X-11.5449 Y24.7607
G01 X-11.5121 Y24.7783
G01 X-11.4230 Y24.8285
G01 X-11.3859 Y24.8513
G01 X-11.3003 Y24.9085
G01 X-11.2852 Y24.9187
G01 X-11.2633 Y24.9345
G01 X-11.2375 Y24.9542
G01 X-11.1694 Y25.0082
G01 X-11.1459 Y25.0274
G01 X-11.1248 Y25.0457
G01 X-11.1107 Y25.0586
G01 X-11.0478 Y25.1170
G01 X-11.0249 Y25.1391
G01 X-10.5856 Y25.5784
G01 X-9.9557 Y25.9420
G01 X-9.2532 Y26.1303
G01 X-8.5258 Y26.1303
