(G-CODE GENERATED BY FLATCAM v8.994 - www.flatcam.org - Version Date: 2020/11/7)

(Name: copper_bottom.gbr_iso_combined_cnc)
(Type: G-code from Geometry)
(Units: MM)

(Created on Friday, 25 March 2022 at 14:02)

(This preprocessor is the default preprocessor used by FlatCAM.)
(It is made to work with MACH3 compatible motion controllers.)

(TOOL DIAMETER: 0.508 mm)
(Feedrate_XY: 400.0 mm/min)
(Feedrate_Z: 100.0 mm/min)
(Feedrate rapids 400.0 mm/min)

(Z_Cut: -0.22 mm)
(Z_Move: 3.0 mm)
(Z Start: None mm)
(Z End: 15.0 mm)
(X,Y End: None mm)
(Steps per circle: 64)
(Preprocessor Geometry: default)

(X range:  -91.1854 ...   23.8759  mm)
(Y range:  -73.4054 ...   88.6454  mm)

(Spindle Speed: 29000.0 RPM)
G21
G90
G94

G01 F400.00

M5
G00 Z15.0000
G00 X0.0000 Y0.0000
T1
M6    
(MSG, Change to Tool Dia = 0.5080)
M0
G00 Z15.0000

M03 S29000.0
G01 F400.00
G00 X-1.2619 Y0.1369
G01 F100.00
G01 Z-0.2200
G01 F400.00
G01 X-1.2634 Y0.1245
G01 X-1.2643 Y0.1120
G01 X-1.2692 Y0.0125
G01 X-1.2695 Y0.0000
G01 X-1.2692 Y-0.0125
G01 X-1.2643 Y-0.1120
G01 X-1.2634 Y-0.1245
G01 X-1.2619 Y-0.1369
G01 X-1.2472 Y-0.2355
G01 X-1.2451 Y-0.2478
G01 X-1.2424 Y-0.2599
G01 X-1.2181 Y-0.3566
G01 X-1.2148 Y-0.3687
G01 X-1.2109 Y-0.3805
G01 X-1.1773 Y-0.4744
G01 X-1.1728 Y-0.4860
G01 X-1.1678 Y-0.4974
G01 X-1.1251 Y-0.5875
G01 X-1.1195 Y-0.5987
G01 X-1.1134 Y-0.6095
G01 X-1.0621 Y-0.6950
G01 X-1.0555 Y-0.7056
G01 X-1.0483 Y-0.7158
G01 X-0.9889 Y-0.7959
G01 X-0.9812 Y-0.8057
G01 X-0.9731 Y-0.8151
G01 X-0.9061 Y-0.8890
G01 X-0.8975 Y-0.8980
G01 X-0.8885 Y-0.9066
G01 X-0.8146 Y-0.9736
G01 X-0.8052 Y-0.9817
G01 X-0.7954 Y-0.9894
G01 X-0.7153 Y-1.0488
G01 X-0.7051 Y-1.0560
G01 X-0.6945 Y-1.0626
G01 X-0.6090 Y-1.1139
G01 X-0.5982 Y-1.1200
G01 X-0.5870 Y-1.1256
G01 X-0.4969 Y-1.1683
G01 X-0.4855 Y-1.1733
G01 X-0.4739 Y-1.1778
G01 X-0.3800 Y-1.2114
G01 X-0.3682 Y-1.2153
G01 X-0.3561 Y-1.2186
G01 X-0.2594 Y-1.2429
G01 X-0.2473 Y-1.2456
G01 X-0.2350 Y-1.2477
G01 X-0.1364 Y-1.2624
G01 X-0.1240 Y-1.2639
G01 X-0.1115 Y-1.2648
G01 X-0.0120 Y-1.2697
G01 X0.0005 Y-1.2700
G01 X0.0130 Y-1.2697
G01 X0.1125 Y-1.2648
G01 X0.1250 Y-1.2639
G01 X0.1374 Y-1.2624
G01 X0.2360 Y-1.2477
G01 X0.2483 Y-1.2456
G01 X0.2604 Y-1.2429
G01 X0.3571 Y-1.2186
G01 X0.3692 Y-1.2153
G01 X0.3810 Y-1.2114
G01 X0.4749 Y-1.1778
G01 X0.4865 Y-1.1733
G01 X0.4979 Y-1.1683
G01 X0.5880 Y-1.1256
G01 X0.5992 Y-1.1200
G01 X0.6100 Y-1.1139
G01 X0.6955 Y-1.0626
G01 X0.7061 Y-1.0560
G01 X0.7163 Y-1.0488
G01 X0.7964 Y-0.9894
G01 X0.8062 Y-0.9817
G01 X0.8156 Y-0.9736
G01 X0.8895 Y-0.9066
G01 X0.8985 Y-0.8980
G01 X0.9071 Y-0.8890
G01 X0.9741 Y-0.8151
G01 X0.9822 Y-0.8057
G01 X0.9899 Y-0.7959
G01 X1.0493 Y-0.7158
G01 X1.0565 Y-0.7056
G01 X1.0631 Y-0.6950
G01 X1.1144 Y-0.6095
G01 X1.1205 Y-0.5987
G01 X1.1261 Y-0.5875
G01 X1.1688 Y-0.4974
G01 X1.1738 Y-0.4860
G01 X1.1783 Y-0.4744
G01 X1.2119 Y-0.3805
G01 X1.2158 Y-0.3687
G01 X1.2191 Y-0.3566
G01 X1.2434 Y-0.2599
G01 X1.2461 Y-0.2478
G01 X1.2482 Y-0.2355
G01 X1.2629 Y-0.1369
G01 X1.2644 Y-0.1245
G01 X1.2653 Y-0.1120
G01 X1.2702 Y-0.0125
G01 X1.2705 Y-0.0000
G01 X1.2702 Y0.0125
G01 X1.2653 Y0.1120
G01 X1.2644 Y0.1245
G01 X1.2629 Y0.1369
G01 X1.2482 Y0.2355
G01 X1.2461 Y0.2478
G01 X1.2434 Y0.2599
G01 X1.2191 Y0.3566
G01 X1.2158 Y0.3687
G01 X1.2119 Y0.3805
G01 X1.1783 Y0.4744
G01 X1.1738 Y0.4860
G01 X1.1688 Y0.4974
G01 X1.1261 Y0.5875
G01 X1.1205 Y0.5987
G01 X1.1144 Y0.6095
G01 X1.0631 Y0.6950
G01 X1.0565 Y0.7056
G01 X1.0493 Y0.7158
G01 X0.9899 Y0.7959
G01 X0.9822 Y0.8057
G01 X0.9741 Y0.8151
G01 X0.9071 Y0.8890
G01 X0.8985 Y0.8980
G01 X0.8895 Y0.9066
G01 X0.8156 Y0.9736
G01 X0.8062 Y0.9817
G01 X0.7964 Y0.9894
G01 X0.7163 Y1.0488
G01 X0.7061 Y1.0560
G01 X0.6955 Y1.0626
G01 X0.6100 Y1.1139
G01 X0.5992 Y1.1200
G01 X0.5880 Y1.1256
G01 X0.4979 Y1.1683
G01 X0.4865 Y1.1733
G01 X0.4749 Y1.1778
G01 X0.3810 Y1.2114
G01 X0.3692 Y1.2153
G01 X0.3571 Y1.2186
G01 X0.2604 Y1.2429
G01 X0.2483 Y1.2456
G01 X0.2360 Y1.2477
G01 X0.1374 Y1.2624
G01 X0.1250 Y1.2639
G01 X0.1125 Y1.2648
G01 X0.0130 Y1.2697
G01 X0.0005 Y1.2700
G01 X-0.0120 Y1.2697
G01 X-0.1115 Y1.2648
G01 X-0.1240 Y1.2639
G01 X-0.1364 Y1.2624
G01 X-0.2350 Y1.2477
G01 X-0.2473 Y1.2456
G01 X-0.2594 Y1.2429
G01 X-0.3561 Y1.2186
G01 X-0.3682 Y1.2153
G01 X-0.3800 Y1.2114
G01 X-0.4739 Y1.1778
G01 X-0.4855 Y1.1733
G01 X-0.4969 Y1.1683
G01 X-0.5870 Y1.1256
G01 X-0.5982 Y1.1200
G01 X-0.6090 Y1.1139
G01 X-0.6945 Y1.0626
G01 X-0.7051 Y1.0560
G01 X-0.7153 Y1.0488
G01 X-0.7954 Y0.9894
G01 X-0.8052 Y0.9817
G01 X-0.8146 Y0.9736
G01 X-0.8885 Y0.9066
G01 X-0.8975 Y0.8980
G01 X-0.9061 Y0.8890
G01 X-0.9731 Y0.8151
G01 X-0.9812 Y0.8057
G01 X-0.9889 Y0.7959
G01 X-1.0483 Y0.7158
G01 X-1.0555 Y0.7056
G01 X-1.0621 Y0.6950
G01 X-1.1134 Y0.6095
G01 X-1.1195 Y0.5987
G01 X-1.1251 Y0.5875
G01 X-1.1678 Y0.4974
G01 X-1.1728 Y0.4860
G01 X-1.1773 Y0.4744
G01 X-1.2109 Y0.3805
G01 X-1.2148 Y0.3687
G01 X-1.2181 Y0.3566
G01 X-1.2424 Y0.2599
G01 X-1.2451 Y0.2478
G01 X-1.2472 Y0.2355
G01 X-1.2619 Y0.1369
G00 Z3.0000
G00 X-1.5131 Y0.1741
G01 F100.00
G01 Z-0.2200
G01 F400.00
G01 X-1.5162 Y0.1494
G01 X-1.5180 Y0.1245
G01 X-1.5229 Y0.0249
G01 X-1.5235 Y0.0000
G01 X-1.5229 Y-0.0249
G01 X-1.5180 Y-0.1245
G01 X-1.5162 Y-0.1494
G01 X-1.5131 Y-0.1741
G01 X-1.4985 Y-0.2728
G01 X-1.4942 Y-0.2973
G01 X-1.4888 Y-0.3216
G01 X-1.4645 Y-0.4184
G01 X-1.4579 Y-0.4424
G01 X-1.4501 Y-0.4661
G01 X-1.4165 Y-0.5599
G01 X-1.4075 Y-0.5832
G01 X-1.3974 Y-0.6060
G01 X-1.3548 Y-0.6961
G01 X-1.3435 Y-0.7184
G01 X-1.3313 Y-0.7401
G01 X-1.2800 Y-0.8256
G01 X-1.2667 Y-0.8467
G01 X-1.2523 Y-0.8671
G01 X-1.1929 Y-0.9472
G01 X-1.1776 Y-0.9668
G01 X-1.1613 Y-0.9857
G01 X-1.0943 Y-1.0596
G01 X-1.0771 Y-1.0776
G01 X-1.0591 Y-1.0948
G01 X-0.9852 Y-1.1618
G01 X-0.9663 Y-1.1781
G01 X-0.9467 Y-1.1934
G01 X-0.8666 Y-1.2528
G01 X-0.8462 Y-1.2672
G01 X-0.8251 Y-1.2805
G01 X-0.7396 Y-1.3318
G01 X-0.7179 Y-1.3440
G01 X-0.6956 Y-1.3553
G01 X-0.6055 Y-1.3979
G01 X-0.5827 Y-1.4080
G01 X-0.5594 Y-1.4170
G01 X-0.4656 Y-1.4506
G01 X-0.4419 Y-1.4584
G01 X-0.4179 Y-1.4650
G01 X-0.3211 Y-1.4893
G01 X-0.2968 Y-1.4947
G01 X-0.2723 Y-1.4990
G01 X-0.1736 Y-1.5136
G01 X-0.1489 Y-1.5167
G01 X-0.1240 Y-1.5185
G01 X-0.0244 Y-1.5234
G01 X0.0005 Y-1.5240
G01 X0.0254 Y-1.5234
G01 X0.1250 Y-1.5185
G01 X0.1499 Y-1.5167
G01 X0.1746 Y-1.5136
G01 X0.2733 Y-1.4990
G01 X0.2978 Y-1.4947
G01 X0.3221 Y-1.4893
G01 X0.4189 Y-1.4650
G01 X0.4429 Y-1.4584
G01 X0.4666 Y-1.4506
G01 X0.5604 Y-1.4170
G01 X0.5837 Y-1.4080
G01 X0.6065 Y-1.3979
G01 X0.6966 Y-1.3553
G01 X0.7189 Y-1.3440
G01 X0.7406 Y-1.3318
G01 X0.8261 Y-1.2805
G01 X0.8472 Y-1.2672
G01 X0.8676 Y-1.2528
G01 X0.9477 Y-1.1934
G01 X0.9673 Y-1.1781
G01 X0.9862 Y-1.1618
G01 X1.0601 Y-1.0948
G01 X1.0781 Y-1.0776
G01 X1.0953 Y-1.0596
G01 X1.1623 Y-0.9857
G01 X1.1786 Y-0.9668
G01 X1.1939 Y-0.9472
G01 X1.2533 Y-0.8671
G01 X1.2677 Y-0.8467
G01 X1.2810 Y-0.8256
G01 X1.3323 Y-0.7401
G01 X1.3445 Y-0.7184
G01 X1.3558 Y-0.6961
G01 X1.3984 Y-0.6060
G01 X1.4085 Y-0.5832
G01 X1.4175 Y-0.5599
G01 X1.4511 Y-0.4661
G01 X1.4589 Y-0.4424
G01 X1.4655 Y-0.4184
G01 X1.4898 Y-0.3216
G01 X1.4952 Y-0.2973
G01 X1.4995 Y-0.2728
G01 X1.5141 Y-0.1741
G01 X1.5172 Y-0.1494
G01 X1.5190 Y-0.1245
G01 X1.5239 Y-0.0249
G01 X1.5245 Y-0.0000
G01 X1.5239 Y0.0249
G01 X1.5190 Y0.1245
G01 X1.5172 Y0.1494
G01 X1.5141 Y0.1741
G01 X1.4995 Y0.2728
G01 X1.4952 Y0.2973
G01 X1.4898 Y0.3216
G01 X1.4655 Y0.4184
G01 X1.4589 Y0.4424
G01 X1.4511 Y0.4661
G01 X1.4175 Y0.5599
G01 X1.4085 Y0.5832
G01 X1.3984 Y0.6060
G01 X1.3558 Y0.6961
G01 X1.3445 Y0.7184
G01 X1.3323 Y0.7401
G01 X1.2810 Y0.8256
G01 X1.2677 Y0.8467
G01 X1.2533 Y0.8671
G01 X1.1939 Y0.9472
G01 X1.1786 Y0.9668
G01 X1.1623 Y0.9857
G01 X1.0953 Y1.0596
G01 X1.0781 Y1.0776
G01 X1.0601 Y1.0948
G01 X0.9862 Y1.1618
G01 X0.9673 Y1.1781
G01 X0.9477 Y1.1934
G01 X0.8676 Y1.2528
G01 X0.8472 Y1.2672
G01 X0.8261 Y1.2805
G01 X0.7406 Y1.3318
G01 X0.7189 Y1.3440
G01 X0.6966 Y1.3553
G01 X0.6065 Y1.3979
G01 X0.5837 Y1.4080
G01 X0.5604 Y1.4170
G01 X0.4666 Y1.4506
G01 X0.4429 Y1.4584
G01 X0.4189 Y1.4650
G01 X0.3221 Y1.4893
G01 X0.2978 Y1.4947
G01 X0.2733 Y1.4990
G01 X0.1746 Y1.5136
G01 X0.1499 Y1.5167
G01 X0.1250 Y1.5185
G01 X0.0254 Y1.5234
G01 X0.0005 Y1.5240
G01 X-0.0244 Y1.5234
G01 X-0.1240 Y1.5185
G01 X-0.1489 Y1.5167
G01 X-0.1736 Y1.5136
G01 X-0.2723 Y1.4990
G01 X-0.2968 Y1.4947
G01 X-0.3211 Y1.4893
G01 X-0.4179 Y1.4650
G01 X-0.4419 Y1.4584
G01 X-0.4656 Y1.4506
G01 X-0.5594 Y1.4170
G01 X-0.5827 Y1.4080
G01 X-0.6055 Y1.3979
G01 X-0.6956 Y1.3553
G01 X-0.7179 Y1.3440
G01 X-0.7396 Y1.3318
G01 X-0.8251 Y1.2805
G01 X-0.8462 Y1.2672
G01 X-0.8666 Y1.2528
G01 X-0.9467 Y1.1934
G01 X-0.9663 Y1.1781
G01 X-0.9852 Y1.1618
G01 X-1.0591 Y1.0948
G01 X-1.0771 Y1.0776
G01 X-1.0943 Y1.0596
G01 X-1.1613 Y0.9857
G01 X-1.1776 Y0.9668
G01 X-1.1929 Y0.9472
G01 X-1.2523 Y0.8671
G01 X-1.2667 Y0.8467
G01 X-1.2800 Y0.8256
G01 X-1.3313 Y0.7401
G01 X-1.3435 Y0.7184
G01 X-1.3548 Y0.6961
G01 X-1.3974 Y0.6060
G01 X-1.4075 Y0.5832
G01 X-1.4165 Y0.5599
G01 X-1.4501 Y0.4661
G01 X-1.4579 Y0.4424
G01 X-1.4645 Y0.4184
G01 X-1.4888 Y0.3216
G01 X-1.4942 Y0.2973
G01 X-1.4985 Y0.2728
G01 X-1.5131 Y0.1741
G00 Z3.0000
G00 X-1.7644 Y0.2114
G01 F100.00
G01 Z-0.2200
G01 F400.00
G01 X-1.7669 Y0.1929
G01 X-1.7705 Y0.1556
G01 X-1.7773 Y0.0187
G01 X-1.7775 Y0.0000
G01 X-1.7766 Y-0.0374
G01 X-1.7705 Y-0.1556
G01 X-1.7669 Y-0.1929
G01 X-1.7644 Y-0.2114
G01 X-1.7497 Y-0.3100
G01 X-1.7433 Y-0.3469
G01 X-1.7351 Y-0.3834
G01 X-1.7061 Y-0.4982
G01 X-1.6953 Y-0.5340
G01 X-1.6892 Y-0.5516
G01 X-1.6556 Y-0.6455
G01 X-1.6422 Y-0.6804
G01 X-1.6270 Y-0.7146
G01 X-1.5844 Y-0.8047
G01 X-1.5676 Y-0.8381
G01 X-1.5491 Y-0.8707
G01 X-1.4979 Y-0.9562
G01 X-1.4779 Y-0.9878
G01 X-1.4563 Y-1.0184
G01 X-1.3856 Y-1.1133
G01 X-1.3619 Y-1.1423
G01 X-1.3495 Y-1.1563
G01 X-1.2825 Y-1.2301
G01 X-1.2567 Y-1.2572
G01 X-1.2296 Y-1.2830
G01 X-1.1558 Y-1.3500
G01 X-1.1275 Y-1.3744
G01 X-1.0980 Y-1.3974
G01 X-1.0179 Y-1.4568
G01 X-0.9873 Y-1.4784
G01 X-0.9557 Y-1.4984
G01 X-0.8702 Y-1.5496
G01 X-0.8376 Y-1.5681
G01 X-0.8042 Y-1.5849
G01 X-0.7141 Y-1.6275
G01 X-0.6799 Y-1.6427
G01 X-0.6450 Y-1.6561
G01 X-0.5511 Y-1.6897
G01 X-0.5156 Y-1.7014
G01 X-0.4796 Y-1.7114
G01 X-0.3829 Y-1.7356
G01 X-0.3464 Y-1.7438
G01 X-0.3095 Y-1.7502
G01 X-0.1924 Y-1.7674
G01 X-0.1738 Y-1.7694
G01 X-0.1365 Y-1.7722
G01 X-0.0369 Y-1.7771
G01 X0.0005 Y-1.7780
G01 X0.0379 Y-1.7771
G01 X0.1375 Y-1.7722
G01 X0.1748 Y-1.7694
G01 X0.2119 Y-1.7649
G01 X0.3105 Y-1.7502
G01 X0.3474 Y-1.7438
G01 X0.3839 Y-1.7356
G01 X0.4806 Y-1.7114
G01 X0.5166 Y-1.7014
G01 X0.5521 Y-1.6897
G01 X0.6460 Y-1.6561
G01 X0.6809 Y-1.6427
G01 X0.7151 Y-1.6275
G01 X0.8052 Y-1.5849
G01 X0.8386 Y-1.5681
G01 X0.8712 Y-1.5496
G01 X0.9567 Y-1.4984
G01 X0.9883 Y-1.4784
G01 X1.0189 Y-1.4568
G01 X1.0990 Y-1.3974
G01 X1.1285 Y-1.3744
G01 X1.1568 Y-1.3500
G01 X1.2306 Y-1.2830
G01 X1.2577 Y-1.2572
G01 X1.2835 Y-1.2301
G01 X1.3505 Y-1.1563
G01 X1.3749 Y-1.1280
G01 X1.3979 Y-1.0985
G01 X1.4573 Y-1.0184
G01 X1.4789 Y-0.9878
G01 X1.4989 Y-0.9562
G01 X1.5501 Y-0.8707
G01 X1.5686 Y-0.8381
G01 X1.5854 Y-0.8047
G01 X1.6280 Y-0.7146
G01 X1.6432 Y-0.6804
G01 X1.6566 Y-0.6455
G01 X1.6902 Y-0.5516
G01 X1.7019 Y-0.5161
G01 X1.7119 Y-0.4801
G01 X1.7361 Y-0.3834
G01 X1.7443 Y-0.3469
G01 X1.7507 Y-0.3100
G01 X1.7679 Y-0.1929
G01 X1.7699 Y-0.1743
G01 X1.7727 Y-0.1370
G01 X1.7776 Y-0.0374
G01 X1.7785 Y-0.0000
G01 X1.7776 Y0.0374
G01 X1.7727 Y0.1370
G01 X1.7699 Y0.1743
G01 X1.7654 Y0.2114
G01 X1.7507 Y0.3100
G01 X1.7443 Y0.3469
G01 X1.7361 Y0.3834
G01 X1.7119 Y0.4801
G01 X1.7019 Y0.5161
G01 X1.6902 Y0.5516
G01 X1.6566 Y0.6455
G01 X1.6432 Y0.6804
G01 X1.6280 Y0.7146
G01 X1.5854 Y0.8047
G01 X1.5686 Y0.8381
G01 X1.5501 Y0.8707
G01 X1.4989 Y0.9562
G01 X1.4789 Y0.9878
G01 X1.4573 Y1.0184
G01 X1.3979 Y1.0985
G01 X1.3749 Y1.1280
G01 X1.3505 Y1.1563
G01 X1.2835 Y1.2301
G01 X1.2577 Y1.2572
G01 X1.2306 Y1.2830
G01 X1.1568 Y1.3500
G01 X1.1285 Y1.3744
G01 X1.0990 Y1.3974
G01 X1.0189 Y1.4568
G01 X0.9883 Y1.4784
G01 X0.9567 Y1.4984
G01 X0.8712 Y1.5496
G01 X0.8386 Y1.5681
G01 X0.8052 Y1.5849
G01 X0.7151 Y1.6275
G01 X0.6809 Y1.6427
G01 X0.6460 Y1.6561
G01 X0.5521 Y1.6897
G01 X0.5166 Y1.7014
G01 X0.4806 Y1.7114
G01 X0.3839 Y1.7356
G01 X0.3474 Y1.7438
G01 X0.3105 Y1.7502
G01 X0.1934 Y1.7674
G01 X0.1748 Y1.7694
G01 X0.1375 Y1.7722
G01 X0.0379 Y1.7771
G01 X0.0005 Y1.7780
G01 X-0.0369 Y1.7771
G01 X-0.1365 Y1.7722
G01 X-0.1738 Y1.7694
G01 X-0.2109 Y1.7649
G01 X-0.3095 Y1.7502
G01 X-0.3464 Y1.7438
G01 X-0.3829 Y1.7356
G01 X-0.4796 Y1.7114
G01 X-0.5156 Y1.7014
G01 X-0.5511 Y1.6897
G01 X-0.6450 Y1.6561
G01 X-0.6799 Y1.6427
G01 X-0.7141 Y1.6275
G01 X-0.8042 Y1.5849
G01 X-0.8376 Y1.5681
G01 X-0.8702 Y1.5496
G01 X-0.9557 Y1.4984
G01 X-0.9873 Y1.4784
G01 X-1.0179 Y1.4568
G01 X-1.1128 Y1.3861
G01 X-1.1418 Y1.3624
G01 X-1.1558 Y1.3500
G01 X-1.2296 Y1.2830
G01 X-1.2567 Y1.2572
G01 X-1.2825 Y1.2301
G01 X-1.3495 Y1.1563
G01 X-1.3739 Y1.1280
G01 X-1.3969 Y1.0985
G01 X-1.4563 Y1.0184
G01 X-1.4779 Y0.9878
G01 X-1.4979 Y0.9562
G01 X-1.5585 Y0.8545
G01 X-1.5762 Y0.8215
G01 X-1.5844 Y0.8047
G01 X-1.6270 Y0.7146
G01 X-1.6422 Y0.6804
G01 X-1.6556 Y0.6455
G01 X-1.6953 Y0.5340
G01 X-1.7061 Y0.4982
G01 X-1.7109 Y0.4801
G01 X-1.7395 Y0.3652
G01 X-1.7468 Y0.3285
G01 X-1.7644 Y0.2114
G00 Z3.0000
G00 X-2.0156 Y0.2487
G01 F100.00
G01 Z-0.2200
G01 F400.00
G01 X-2.0190 Y0.2240
G01 X-2.0217 Y0.1992
G01 X-2.0239 Y0.1743
G01 X-2.0303 Y0.0499
G01 X-2.0312 Y0.0249
G01 X-2.0315 Y0.0000
G01 X-2.0312 Y-0.0249
G01 X-2.0303 Y-0.0499
G01 X-2.0239 Y-0.1743
G01 X-2.0217 Y-0.1992
G01 X-2.0190 Y-0.2240
G01 X-2.0010 Y-0.3473
G01 X-1.9970 Y-0.3719
G01 X-1.9925 Y-0.3964
G01 X-1.9873 Y-0.4208
G01 X-1.9573 Y-0.5418
G01 X-1.9509 Y-0.5659
G01 X-1.9440 Y-0.5899
G01 X-1.9365 Y-0.6136
G01 X-1.8948 Y-0.7311
G01 X-1.8861 Y-0.7545
G01 X-1.8768 Y-0.7776
G01 X-1.8670 Y-0.8005
G01 X-1.8566 Y-0.8232
G01 X-1.8030 Y-0.9357
G01 X-1.7916 Y-0.9579
G01 X-1.7795 Y-0.9797
G01 X-1.7670 Y-1.0013
G01 X-1.7026 Y-1.1080
G01 X-1.6890 Y-1.1289
G01 X-1.6749 Y-1.1495
G01 X-1.6009 Y-1.2498
G01 X-1.5858 Y-1.2696
G01 X-1.5703 Y-1.2891
G01 X-1.5542 Y-1.3082
G01 X-1.4707 Y-1.4007
G01 X-1.4538 Y-1.4190
G01 X-1.4363 Y-1.4368
G01 X-1.4185 Y-1.4543
G01 X-1.4002 Y-1.4712
G01 X-1.3077 Y-1.5547
G01 X-1.2886 Y-1.5708
G01 X-1.2691 Y-1.5863
G01 X-1.1692 Y-1.6608
G01 X-1.1490 Y-1.6754
G01 X-1.1284 Y-1.6895
G01 X-1.1075 Y-1.7031
G01 X-1.0863 Y-1.7162
G01 X-0.9792 Y-1.7800
G01 X-0.9574 Y-1.7921
G01 X-0.9352 Y-1.8035
G01 X-0.9128 Y-1.8145
G01 X-0.8000 Y-1.8675
G01 X-0.7771 Y-1.8773
G01 X-0.7540 Y-1.8866
G01 X-0.6367 Y-1.9289
G01 X-0.6131 Y-1.9370
G01 X-0.5894 Y-1.9445
G01 X-0.5654 Y-1.9514
G01 X-0.5413 Y-1.9578
G01 X-0.4203 Y-1.9878
G01 X-0.3959 Y-1.9930
G01 X-0.3714 Y-1.9975
G01 X-0.2482 Y-2.0161
G01 X-0.2235 Y-2.0195
G01 X-0.1987 Y-2.0222
G01 X-0.1738 Y-2.0244
G01 X-0.0494 Y-2.0308
G01 X-0.0244 Y-2.0317
G01 X0.0005 Y-2.0320
G01 X0.0254 Y-2.0317
G01 X0.1499 Y-2.0259
G01 X0.1748 Y-2.0244
G01 X0.1997 Y-2.0222
G01 X0.2245 Y-2.0195
G01 X0.2492 Y-2.0161
G01 X0.3724 Y-1.9975
G01 X0.3969 Y-1.9930
G01 X0.4213 Y-1.9878
G01 X0.5423 Y-1.9578
G01 X0.5664 Y-1.9514
G01 X0.5904 Y-1.9445
G01 X0.6141 Y-1.9370
G01 X0.6377 Y-1.9289
G01 X0.7550 Y-1.8866
G01 X0.7781 Y-1.8773
G01 X0.8010 Y-1.8675
G01 X0.9138 Y-1.8145
G01 X0.9362 Y-1.8035
G01 X0.9584 Y-1.7921
G01 X0.9802 Y-1.7800
G01 X1.0018 Y-1.7675
G01 X1.1085 Y-1.7031
G01 X1.1294 Y-1.6895
G01 X1.1500 Y-1.6754
G01 X1.1702 Y-1.6608
G01 X1.2701 Y-1.5863
G01 X1.2896 Y-1.5708
G01 X1.3087 Y-1.5547
G01 X1.3273 Y-1.5382
G01 X1.4195 Y-1.4543
G01 X1.4373 Y-1.4368
G01 X1.4548 Y-1.4190
G01 X1.5387 Y-1.3268
G01 X1.5552 Y-1.3082
G01 X1.5713 Y-1.2891
G01 X1.5868 Y-1.2696
G01 X1.6019 Y-1.2498
G01 X1.6759 Y-1.1495
G01 X1.6900 Y-1.1289
G01 X1.7036 Y-1.1080
G01 X1.7680 Y-1.0013
G01 X1.7805 Y-0.9797
G01 X1.7926 Y-0.9579
G01 X1.8040 Y-0.9357
G01 X1.8150 Y-0.9133
G01 X1.8680 Y-0.8005
G01 X1.8778 Y-0.7776
G01 X1.8871 Y-0.7545
G01 X1.8958 Y-0.7311
G01 X1.9375 Y-0.6136
G01 X1.9450 Y-0.5899
G01 X1.9519 Y-0.5659
G01 X1.9825 Y-0.4451
G01 X1.9883 Y-0.4208
G01 X1.9935 Y-0.3964
G01 X1.9980 Y-0.3719
G01 X2.0166 Y-0.2487
G01 X2.0200 Y-0.2240
G01 X2.0227 Y-0.1992
G01 X2.0249 Y-0.1743
G01 X2.0264 Y-0.1494
G01 X2.0322 Y-0.0249
G01 X2.0325 Y-0.0000
G01 X2.0322 Y0.0249
G01 X2.0264 Y0.1494
G01 X2.0249 Y0.1743
G01 X2.0227 Y0.1992
G01 X2.0200 Y0.2240
G01 X2.0020 Y0.3473
G01 X1.9980 Y0.3719
G01 X1.9935 Y0.3964
G01 X1.9883 Y0.4208
G01 X1.9583 Y0.5418
G01 X1.9519 Y0.5659
G01 X1.9450 Y0.5899
G01 X1.9375 Y0.6136
G01 X1.9294 Y0.6372
G01 X1.8871 Y0.7545
G01 X1.8778 Y0.7776
G01 X1.8680 Y0.8005
G01 X1.8576 Y0.8232
G01 X1.8040 Y0.9357
G01 X1.7926 Y0.9579
G01 X1.7805 Y0.9797
G01 X1.7167 Y1.0868
G01 X1.7036 Y1.1080
G01 X1.6900 Y1.1289
G01 X1.6759 Y1.1495
G01 X1.6613 Y1.1697
G01 X1.5868 Y1.2696
G01 X1.5713 Y1.2891
G01 X1.5552 Y1.3082
G01 X1.4717 Y1.4007
G01 X1.4548 Y1.4190
G01 X1.4373 Y1.4368
G01 X1.4195 Y1.4543
G01 X1.4012 Y1.4712
G01 X1.3087 Y1.5547
G01 X1.2896 Y1.5708
G01 X1.2701 Y1.5863
G01 X1.1702 Y1.6608
G01 X1.1500 Y1.6754
G01 X1.1294 Y1.6895
G01 X1.1085 Y1.7031
G01 X1.0018 Y1.7675
G01 X0.9802 Y1.7800
G01 X0.9584 Y1.7921
G01 X0.9362 Y1.8035
G01 X0.9138 Y1.8145
G01 X0.8010 Y1.8675
G01 X0.7781 Y1.8773
G01 X0.7550 Y1.8866
G01 X0.6377 Y1.9289
G01 X0.6141 Y1.9370
G01 X0.5904 Y1.9445
G01 X0.5664 Y1.9514
G01 X0.5423 Y1.9578
G01 X0.4213 Y1.9878
G01 X0.3969 Y1.9930
G01 X0.3724 Y1.9975
G01 X0.2492 Y2.0161
G01 X0.2245 Y2.0195
G01 X0.1997 Y2.0222
G01 X0.1748 Y2.0244
G01 X0.0504 Y2.0308
G01 X0.0254 Y2.0317
G01 X0.0005 Y2.0320
G01 X-0.0244 Y2.0317
G01 X-0.1489 Y2.0259
G01 X-0.1738 Y2.0244
G01 X-0.1987 Y2.0222
G01 X-0.2235 Y2.0195
G01 X-0.2482 Y2.0161
G01 X-0.3714 Y1.9975
G01 X-0.3959 Y1.9930
G01 X-0.4203 Y1.9878
G01 X-0.5413 Y1.9578
G01 X-0.5654 Y1.9514
G01 X-0.5894 Y1.9445
G01 X-0.6131 Y1.9370
G01 X-0.6367 Y1.9289
G01 X-0.7540 Y1.8866
G01 X-0.7771 Y1.8773
G01 X-0.8000 Y1.8675
G01 X-0.9128 Y1.8145
G01 X-0.9352 Y1.8035
G01 X-0.9574 Y1.7921
G01 X-0.9792 Y1.7800
G01 X-1.0008 Y1.7675
G01 X-1.1075 Y1.7031
G01 X-1.1284 Y1.6895
G01 X-1.1490 Y1.6754
G01 X-1.1692 Y1.6608
G01 X-1.2691 Y1.5863
G01 X-1.2886 Y1.5708
G01 X-1.3077 Y1.5547
G01 X-1.3263 Y1.5382
G01 X-1.4185 Y1.4543
G01 X-1.4363 Y1.4368
G01 X-1.4538 Y1.4190
G01 X-1.5377 Y1.3268
G01 X-1.5542 Y1.3082
G01 X-1.5703 Y1.2891
G01 X-1.5858 Y1.2696
G01 X-1.6009 Y1.2498
G01 X-1.6749 Y1.1495
G01 X-1.6890 Y1.1289
G01 X-1.7026 Y1.1080
G01 X-1.7670 Y1.0013
G01 X-1.7795 Y0.9797
G01 X-1.7916 Y0.9579
G01 X-1.8030 Y0.9357
G01 X-1.8140 Y0.9133
G01 X-1.8670 Y0.8005
G01 X-1.8768 Y0.7776
G01 X-1.8861 Y0.7545
G01 X-1.8948 Y0.7311
G01 X-1.9365 Y0.6136
G01 X-1.9440 Y0.5899
G01 X-1.9509 Y0.5659
G01 X-1.9815 Y0.4451
G01 X-1.9873 Y0.4208
G01 X-1.9925 Y0.3964
G01 X-1.9970 Y0.3719
G01 X-2.0156 Y0.2487
G00 Z3.0000
G00 X-2.0156 Y-7.3713
G01 F100.00
G01 Z-0.2200
G01 F400.00
G01 X-2.0190 Y-7.3960
G01 X-2.0217 Y-7.4208
G01 X-2.0239 Y-7.4457
G01 X-2.0303 Y-7.5701
G01 X-2.0312 Y-7.5951
G01 X-2.0315 Y-7.6200
G01 X-2.0312 Y-7.6449
G01 X-2.0303 Y-7.6699
G01 X-2.0239 Y-7.7943
G01 X-2.0217 Y-7.8192
G01 X-2.0190 Y-7.8440
G01 X-2.0010 Y-7.9673
G01 X-1.9970 Y-7.9919
G01 X-1.9925 Y-8.0164
G01 X-1.9873 Y-8.0408
G01 X-1.9573 Y-8.1618
G01 X-1.9509 Y-8.1859
G01 X-1.9440 Y-8.2099
G01 X-1.9365 Y-8.2336
G01 X-1.8948 Y-8.3511
G01 X-1.8861 Y-8.3745
G01 X-1.8768 Y-8.3976
G01 X-1.8670 Y-8.4205
G01 X-1.8566 Y-8.4432
G01 X-1.8030 Y-8.5557
G01 X-1.7916 Y-8.5779
G01 X-1.7795 Y-8.5997
G01 X-1.7670 Y-8.6213
G01 X-1.7026 Y-8.7280
G01 X-1.6890 Y-8.7489
G01 X-1.6749 Y-8.7695
G01 X-1.6009 Y-8.8698
G01 X-1.5858 Y-8.8896
G01 X-1.5703 Y-8.9091
G01 X-1.5542 Y-8.9282
G01 X-1.4707 Y-9.0207
G01 X-1.4538 Y-9.0390
G01 X-1.4363 Y-9.0568
G01 X-1.4185 Y-9.0743
G01 X-1.4002 Y-9.0912
G01 X-1.3077 Y-9.1747
G01 X-1.2886 Y-9.1908
G01 X-1.2691 Y-9.2063
G01 X-1.1692 Y-9.2808
G01 X-1.1490 Y-9.2954
G01 X-1.1284 Y-9.3095
G01 X-1.1075 Y-9.3231
G01 X-1.0863 Y-9.3362
G01 X-0.9792 Y-9.4000
G01 X-0.9574 Y-9.4121
G01 X-0.9352 Y-9.4235
G01 X-0.9128 Y-9.4345
G01 X-0.8000 Y-9.4875
G01 X-0.7771 Y-9.4973
G01 X-0.7540 Y-9.5066
G01 X-0.6367 Y-9.5489
G01 X-0.6131 Y-9.5570
G01 X-0.5894 Y-9.5645
G01 X-0.5654 Y-9.5714
G01 X-0.5413 Y-9.5778
G01 X-0.4203 Y-9.6078
G01 X-0.3959 Y-9.6130
G01 X-0.3714 Y-9.6175
G01 X-0.2482 Y-9.6361
G01 X-0.2235 Y-9.6395
G01 X-0.1987 Y-9.6422
G01 X-0.1738 Y-9.6444
G01 X-0.0494 Y-9.6508
G01 X-0.0244 Y-9.6517
G01 X0.0005 Y-9.6520
G01 X0.0254 Y-9.6517
G01 X0.0504 Y-9.6508
G01 X0.1748 Y-9.6444
G01 X0.1997 Y-9.6422
G01 X0.2245 Y-9.6395
G01 X0.2492 Y-9.6361
G01 X0.3724 Y-9.6175
G01 X0.3969 Y-9.6130
G01 X0.4213 Y-9.6078
G01 X0.5423 Y-9.5778
G01 X0.5664 Y-9.5714
G01 X0.5904 Y-9.5645
G01 X0.6141 Y-9.5570
G01 X0.6377 Y-9.5489
G01 X0.7550 Y-9.5066
G01 X0.7781 Y-9.4973
G01 X0.8010 Y-9.4875
G01 X0.9138 Y-9.4345
G01 X0.9362 Y-9.4235
G01 X0.9584 Y-9.4121
G01 X0.9802 Y-9.4000
G01 X1.0018 Y-9.3875
G01 X1.1085 Y-9.3231
G01 X1.1294 Y-9.3095
G01 X1.1500 Y-9.2954
G01 X1.2503 Y-9.2214
G01 X1.2701 Y-9.2063
G01 X1.2896 Y-9.1908
G01 X1.3087 Y-9.1747
G01 X1.3273 Y-9.1582
G01 X1.4195 Y-9.0743
G01 X1.4373 Y-9.0568
G01 X1.4548 Y-9.0390
G01 X1.5387 Y-8.9468
G01 X1.5552 Y-8.9282
G01 X1.5713 Y-8.9091
G01 X1.5868 Y-8.8896
G01 X1.6019 Y-8.8698
G01 X1.6759 Y-8.7695
G01 X1.6900 Y-8.7489
G01 X1.7036 Y-8.7280
G01 X1.7680 Y-8.6213
G01 X1.7805 Y-8.5997
G01 X1.7926 Y-8.5779
G01 X1.8040 Y-8.5557
G01 X1.8150 Y-8.5333
G01 X1.8680 Y-8.4205
G01 X1.8778 Y-8.3976
G01 X1.8871 Y-8.3745
G01 X1.8958 Y-8.3511
G01 X1.9375 Y-8.2336
G01 X1.9450 Y-8.2099
G01 X1.9519 Y-8.1859
G01 X1.9825 Y-8.0651
G01 X1.9883 Y-8.0408
G01 X1.9935 Y-8.0164
G01 X1.9980 Y-7.9919
G01 X2.0166 Y-7.8687
G01 X2.0200 Y-7.8440
G01 X2.0227 Y-7.8192
G01 X2.0249 Y-7.7943
G01 X2.0264 Y-7.7694
G01 X2.0322 Y-7.6449
G01 X2.0325 Y-7.6200
G01 X2.0322 Y-7.5951
G01 X2.0264 Y-7.4706
G01 X2.0249 Y-7.4457
G01 X2.0227 Y-7.4208
G01 X2.0200 Y-7.3960
G01 X2.0020 Y-7.2727
G01 X1.9980 Y-7.2481
G01 X1.9935 Y-7.2236
G01 X1.9883 Y-7.1992
G01 X1.9583 Y-7.0782
G01 X1.9519 Y-7.0541
G01 X1.9450 Y-7.0301
G01 X1.9375 Y-7.0064
G01 X1.9294 Y-6.9828
G01 X1.8871 Y-6.8655
G01 X1.8778 Y-6.8424
G01 X1.8680 Y-6.8195
G01 X1.8576 Y-6.7968
G01 X1.8040 Y-6.6843
G01 X1.7926 Y-6.6621
G01 X1.7805 Y-6.6403
G01 X1.7167 Y-6.5332
G01 X1.7036 Y-6.5120
G01 X1.6900 Y-6.4911
G01 X1.6759 Y-6.4705
G01 X1.6613 Y-6.4503
G01 X1.5868 Y-6.3504
G01 X1.5713 Y-6.3309
G01 X1.5552 Y-6.3118
G01 X1.4717 Y-6.2193
G01 X1.4548 Y-6.2010
G01 X1.4373 Y-6.1832
G01 X1.4195 Y-6.1657
G01 X1.4012 Y-6.1488
G01 X1.3087 Y-6.0653
G01 X1.2896 Y-6.0492
G01 X1.2701 Y-6.0337
G01 X1.1702 Y-5.9592
G01 X1.1500 Y-5.9446
G01 X1.1294 Y-5.9305
G01 X1.1085 Y-5.9169
G01 X1.0018 Y-5.8525
G01 X0.9802 Y-5.8400
G01 X0.9584 Y-5.8279
G01 X0.9362 Y-5.8165
G01 X0.9138 Y-5.8055
G01 X0.8010 Y-5.7525
G01 X0.7781 Y-5.7427
G01 X0.7550 Y-5.7334
G01 X0.6377 Y-5.6911
G01 X0.6141 Y-5.6830
G01 X0.5904 Y-5.6755
G01 X0.5664 Y-5.6686
G01 X0.5423 Y-5.6622
G01 X0.4213 Y-5.6322
G01 X0.3969 Y-5.6270
G01 X0.3724 Y-5.6225
G01 X0.2492 Y-5.6039
G01 X0.2245 Y-5.6005
G01 X0.1997 Y-5.5978
G01 X0.1748 Y-5.5956
G01 X0.0504 Y-5.5892
G01 X0.0254 Y-5.5883
G01 X0.0005 Y-5.5880
G01 X-0.0244 Y-5.5883
G01 X-0.0494 Y-5.5892
G01 X-0.1738 Y-5.5956
G01 X-0.1987 Y-5.5978
G01 X-0.2235 Y-5.6005
G01 X-0.2482 Y-5.6039
G01 X-0.3714 Y-5.6225
G01 X-0.3959 Y-5.6270
G01 X-0.4203 Y-5.6322
G01 X-0.5413 Y-5.6622
G01 X-0.5654 Y-5.6686
G01 X-0.5894 Y-5.6755
G01 X-0.6131 Y-5.6830
G01 X-0.6367 Y-5.6911
G01 X-0.7540 Y-5.7334
G01 X-0.7771 Y-5.7427
G01 X-0.8000 Y-5.7525
G01 X-0.9128 Y-5.8055
G01 X-0.9352 Y-5.8165
G01 X-0.9574 Y-5.8279
G01 X-0.9792 Y-5.8400
G01 X-1.0008 Y-5.8525
G01 X-1.1075 Y-5.9169
G01 X-1.1284 Y-5.9305
G01 X-1.1490 Y-5.9446
G01 X-1.1692 Y-5.9592
G01 X-1.2691 Y-6.0337
G01 X-1.2886 Y-6.0492
G01 X-1.3077 Y-6.0653
G01 X-1.3263 Y-6.0818
G01 X-1.4185 Y-6.1657
G01 X-1.4363 Y-6.1832
G01 X-1.4538 Y-6.2010
G01 X-1.5377 Y-6.2932
G01 X-1.5542 Y-6.3118
G01 X-1.5703 Y-6.3309
G01 X-1.5858 Y-6.3504
G01 X-1.6009 Y-6.3702
G01 X-1.6749 Y-6.4705
G01 X-1.6890 Y-6.4911
G01 X-1.7026 Y-6.5120
G01 X-1.7670 Y-6.6187
G01 X-1.7795 Y-6.6403
G01 X-1.7916 Y-6.6621
G01 X-1.8030 Y-6.6843
G01 X-1.8140 Y-6.7067
G01 X-1.8670 Y-6.8195
G01 X-1.8768 Y-6.8424
G01 X-1.8861 Y-6.8655
G01 X-1.8948 Y-6.8889
G01 X-1.9365 Y-7.0064
G01 X-1.9440 Y-7.0301
G01 X-1.9509 Y-7.0541
G01 X-1.9815 Y-7.1749
G01 X-1.9873 Y-7.1992
G01 X-1.9925 Y-7.2236
G01 X-1.9970 Y-7.2481
G01 X-2.0156 Y-7.3713
G00 Z3.0000
G00 X-1.7644 Y-7.4086
G01 F100.00
G01 Z-0.2200
G01 F400.00
G01 X-1.7669 Y-7.4271
G01 X-1.7705 Y-7.4644
G01 X-1.7773 Y-7.6013
G01 X-1.7775 Y-7.6200
G01 X-1.7766 Y-7.6574
G01 X-1.7705 Y-7.7756
G01 X-1.7669 Y-7.8129
G01 X-1.7644 Y-7.8314
G01 X-1.7497 Y-7.9300
G01 X-1.7433 Y-7.9669
G01 X-1.7351 Y-8.0034
G01 X-1.7061 Y-8.1182
G01 X-1.6953 Y-8.1540
G01 X-1.6892 Y-8.1716
G01 X-1.6556 Y-8.2655
G01 X-1.6422 Y-8.3004
G01 X-1.6270 Y-8.3346
G01 X-1.5844 Y-8.4247
G01 X-1.5676 Y-8.4581
G01 X-1.5491 Y-8.4907
G01 X-1.4979 Y-8.5762
G01 X-1.4779 Y-8.6078
G01 X-1.4563 Y-8.6384
G01 X-1.3856 Y-8.7333
G01 X-1.3619 Y-8.7623
G01 X-1.3495 Y-8.7763
G01 X-1.2825 Y-8.8501
G01 X-1.2567 Y-8.8772
G01 X-1.2296 Y-8.9030
G01 X-1.1558 Y-8.9700
G01 X-1.1275 Y-8.9944
G01 X-1.0980 Y-9.0174
G01 X-1.0179 Y-9.0768
G01 X-0.9873 Y-9.0984
G01 X-0.9557 Y-9.1184
G01 X-0.8702 Y-9.1696
G01 X-0.8376 Y-9.1881
G01 X-0.8042 Y-9.2049
G01 X-0.7141 Y-9.2475
G01 X-0.6799 Y-9.2627
G01 X-0.6450 Y-9.2761
G01 X-0.5511 Y-9.3097
G01 X-0.5156 Y-9.3214
G01 X-0.4796 Y-9.3314
G01 X-0.3829 Y-9.3556
G01 X-0.3464 Y-9.3638
G01 X-0.3095 Y-9.3702
G01 X-0.1924 Y-9.3874
G01 X-0.1551 Y-9.3910
G01 X-0.1365 Y-9.3922
G01 X-0.0369 Y-9.3971
G01 X0.0005 Y-9.3980
G01 X0.0379 Y-9.3971
G01 X0.1375 Y-9.3922
G01 X0.1748 Y-9.3894
G01 X0.2119 Y-9.3849
G01 X0.3105 Y-9.3702
G01 X0.3474 Y-9.3638
G01 X0.3839 Y-9.3556
G01 X0.4806 Y-9.3314
G01 X0.5166 Y-9.3214
G01 X0.5521 Y-9.3097
G01 X0.6460 Y-9.2761
G01 X0.6809 Y-9.2627
G01 X0.7151 Y-9.2475
G01 X0.8052 Y-9.2049
G01 X0.8386 Y-9.1881
G01 X0.8712 Y-9.1696
G01 X0.9567 Y-9.1184
G01 X0.9883 Y-9.0984
G01 X1.0189 Y-9.0768
G01 X1.0990 Y-9.0174
G01 X1.1285 Y-8.9944
G01 X1.1568 Y-8.9700
G01 X1.2306 Y-8.9030
G01 X1.2577 Y-8.8772
G01 X1.2835 Y-8.8501
G01 X1.3505 Y-8.7763
G01 X1.3749 Y-8.7480
G01 X1.3979 Y-8.7185
G01 X1.4573 Y-8.6384
G01 X1.4789 Y-8.6078
G01 X1.4989 Y-8.5762
G01 X1.5501 Y-8.4907
G01 X1.5686 Y-8.4581
G01 X1.5854 Y-8.4247
G01 X1.6280 Y-8.3346
G01 X1.6432 Y-8.3004
G01 X1.6566 Y-8.2655
G01 X1.6902 Y-8.1716
G01 X1.7019 Y-8.1361
G01 X1.7119 Y-8.1001
G01 X1.7361 Y-8.0034
G01 X1.7443 Y-7.9669
G01 X1.7507 Y-7.9300
G01 X1.7679 Y-7.8129
G01 X1.7699 Y-7.7943
G01 X1.7727 Y-7.7570
G01 X1.7776 Y-7.6574
G01 X1.7785 Y-7.6200
G01 X1.7776 Y-7.5826
G01 X1.7727 Y-7.4830
G01 X1.7699 Y-7.4457
G01 X1.7654 Y-7.4086
G01 X1.7507 Y-7.3100
G01 X1.7443 Y-7.2731
G01 X1.7361 Y-7.2366
G01 X1.7119 Y-7.1399
G01 X1.7019 Y-7.1039
G01 X1.6902 Y-7.0684
G01 X1.6566 Y-6.9745
G01 X1.6432 Y-6.9396
G01 X1.6280 Y-6.9054
G01 X1.5854 Y-6.8153
G01 X1.5686 Y-6.7819
G01 X1.5501 Y-6.7493
G01 X1.4989 Y-6.6638
G01 X1.4789 Y-6.6322
G01 X1.4573 Y-6.6016
G01 X1.3979 Y-6.5215
G01 X1.3749 Y-6.4920
G01 X1.3505 Y-6.4637
G01 X1.2835 Y-6.3899
G01 X1.2577 Y-6.3628
G01 X1.2306 Y-6.3370
G01 X1.1568 Y-6.2700
G01 X1.1285 Y-6.2456
G01 X1.0990 Y-6.2226
G01 X1.0189 Y-6.1632
G01 X0.9883 Y-6.1416
G01 X0.9567 Y-6.1216
G01 X0.8712 Y-6.0704
G01 X0.8386 Y-6.0519
G01 X0.8052 Y-6.0351
G01 X0.7151 Y-5.9925
G01 X0.6809 Y-5.9773
G01 X0.6460 Y-5.9639
G01 X0.5521 Y-5.9303
G01 X0.5166 Y-5.9186
G01 X0.4806 Y-5.9086
G01 X0.3839 Y-5.8844
G01 X0.3474 Y-5.8762
G01 X0.3105 Y-5.8698
G01 X0.1934 Y-5.8526
G01 X0.1561 Y-5.8490
G01 X0.1375 Y-5.8478
G01 X0.0379 Y-5.8429
G01 X0.0005 Y-5.8420
G01 X-0.0369 Y-5.8429
G01 X-0.1365 Y-5.8478
G01 X-0.1738 Y-5.8506
G01 X-0.2109 Y-5.8551
G01 X-0.3095 Y-5.8698
G01 X-0.3464 Y-5.8762
G01 X-0.3829 Y-5.8844
G01 X-0.4796 Y-5.9086
G01 X-0.5156 Y-5.9186
G01 X-0.5511 Y-5.9303
G01 X-0.6450 Y-5.9639
G01 X-0.6799 Y-5.9773
G01 X-0.7141 Y-5.9925
G01 X-0.8042 Y-6.0351
G01 X-0.8376 Y-6.0519
G01 X-0.8702 Y-6.0704
G01 X-0.9557 Y-6.1216
G01 X-0.9873 Y-6.1416
G01 X-1.0179 Y-6.1632
G01 X-1.1128 Y-6.2339
G01 X-1.1275 Y-6.2456
G01 X-1.1558 Y-6.2700
G01 X-1.2296 Y-6.3370
G01 X-1.2567 Y-6.3628
G01 X-1.2825 Y-6.3899
G01 X-1.3495 Y-6.4637
G01 X-1.3739 Y-6.4920
G01 X-1.3969 Y-6.5215
G01 X-1.4563 Y-6.6016
G01 X-1.4779 Y-6.6322
G01 X-1.4979 Y-6.6638
G01 X-1.5585 Y-6.7655
G01 X-1.5762 Y-6.7985
G01 X-1.5844 Y-6.8153
G01 X-1.6270 Y-6.9054
G01 X-1.6422 Y-6.9396
G01 X-1.6556 Y-6.9745
G01 X-1.6953 Y-7.0860
G01 X-1.7061 Y-7.1218
G01 X-1.7109 Y-7.1399
G01 X-1.7395 Y-7.2548
G01 X-1.7468 Y-7.2915
G01 X-1.7644 Y-7.4086
G00 Z3.0000
G00 X-1.5131 Y-7.4459
G01 F100.00
G01 Z-0.2200
G01 F400.00
G01 X-1.5162 Y-7.4706
G01 X-1.5180 Y-7.4955
G01 X-1.5229 Y-7.5951
G01 X-1.5235 Y-7.6200
G01 X-1.5229 Y-7.6449
G01 X-1.5180 Y-7.7445
G01 X-1.5162 Y-7.7694
G01 X-1.5131 Y-7.7941
G01 X-1.4985 Y-7.8928
G01 X-1.4942 Y-7.9173
G01 X-1.4888 Y-7.9416
G01 X-1.4645 Y-8.0384
G01 X-1.4579 Y-8.0624
G01 X-1.4501 Y-8.0861
G01 X-1.4165 Y-8.1799
G01 X-1.4075 Y-8.2032
G01 X-1.3974 Y-8.2260
G01 X-1.3548 Y-8.3161
G01 X-1.3435 Y-8.3384
G01 X-1.3313 Y-8.3601
G01 X-1.2800 Y-8.4456
G01 X-1.2667 Y-8.4667
G01 X-1.2523 Y-8.4871
G01 X-1.1929 Y-8.5672
G01 X-1.1776 Y-8.5868
G01 X-1.1613 Y-8.6057
G01 X-1.0943 Y-8.6796
G01 X-1.0771 Y-8.6976
G01 X-1.0591 Y-8.7148
G01 X-0.9852 Y-8.7818
G01 X-0.9663 Y-8.7981
G01 X-0.9467 Y-8.8134
G01 X-0.8666 Y-8.8728
G01 X-0.8462 Y-8.8872
G01 X-0.8251 Y-8.9005
G01 X-0.7396 Y-8.9518
G01 X-0.7179 Y-8.9640
G01 X-0.6956 Y-8.9753
G01 X-0.6055 Y-9.0179
G01 X-0.5827 Y-9.0280
G01 X-0.5594 Y-9.0370
G01 X-0.4656 Y-9.0706
G01 X-0.4419 Y-9.0784
G01 X-0.4179 Y-9.0850
G01 X-0.3211 Y-9.1093
G01 X-0.2968 Y-9.1147
G01 X-0.2723 Y-9.1190
G01 X-0.1736 Y-9.1336
G01 X-0.1489 Y-9.1367
G01 X-0.1240 Y-9.1385
G01 X-0.0244 Y-9.1434
G01 X0.0005 Y-9.1440
G01 X0.0254 Y-9.1434
G01 X0.1250 Y-9.1385
G01 X0.1499 Y-9.1367
G01 X0.1746 Y-9.1336
G01 X0.2733 Y-9.1190
G01 X0.2978 Y-9.1147
G01 X0.3221 Y-9.1093
G01 X0.4189 Y-9.0850
G01 X0.4429 Y-9.0784
G01 X0.4666 Y-9.0706
G01 X0.5604 Y-9.0370
G01 X0.5837 Y-9.0280
G01 X0.6065 Y-9.0179
G01 X0.6966 Y-8.9753
G01 X0.7189 Y-8.9640
G01 X0.7406 Y-8.9518
G01 X0.8261 Y-8.9005
G01 X0.8472 Y-8.8872
G01 X0.8676 Y-8.8728
G01 X0.9477 Y-8.8134
G01 X0.9673 Y-8.7981
G01 X0.9862 Y-8.7818
G01 X1.0601 Y-8.7148
G01 X1.0781 Y-8.6976
G01 X1.0953 Y-8.6796
G01 X1.1623 Y-8.6057
G01 X1.1786 Y-8.5868
G01 X1.1939 Y-8.5672
G01 X1.2533 Y-8.4871
G01 X1.2677 Y-8.4667
G01 X1.2810 Y-8.4456
G01 X1.3323 Y-8.3601
G01 X1.3445 Y-8.3384
G01 X1.3558 Y-8.3161
G01 X1.3984 Y-8.2260
G01 X1.4085 Y-8.2032
G01 X1.4175 Y-8.1799
G01 X1.4511 Y-8.0861
G01 X1.4589 Y-8.0624
G01 X1.4655 Y-8.0384
G01 X1.4898 Y-7.9416
G01 X1.4952 Y-7.9173
G01 X1.4995 Y-7.8928
G01 X1.5141 Y-7.7941
G01 X1.5172 Y-7.7694
G01 X1.5190 Y-7.7445
G01 X1.5239 Y-7.6449
G01 X1.5245 Y-7.6200
G01 X1.5239 Y-7.5951
G01 X1.5190 Y-7.4955
G01 X1.5172 Y-7.4706
G01 X1.5141 Y-7.4459
G01 X1.4995 Y-7.3472
G01 X1.4952 Y-7.3227
G01 X1.4898 Y-7.2984
G01 X1.4655 Y-7.2016
G01 X1.4589 Y-7.1776
G01 X1.4511 Y-7.1539
G01 X1.4175 Y-7.0601
G01 X1.4085 Y-7.0368
G01 X1.3984 Y-7.0140
G01 X1.3558 Y-6.9239
G01 X1.3445 Y-6.9016
G01 X1.3323 Y-6.8799
G01 X1.2810 Y-6.7944
G01 X1.2677 Y-6.7733
G01 X1.2533 Y-6.7529
G01 X1.1939 Y-6.6728
G01 X1.1786 Y-6.6532
G01 X1.1623 Y-6.6343
G01 X1.0953 Y-6.5604
G01 X1.0781 Y-6.5424
G01 X1.0601 Y-6.5252
G01 X0.9862 Y-6.4582
G01 X0.9673 Y-6.4419
G01 X0.9477 Y-6.4266
G01 X0.8676 Y-6.3672
G01 X0.8472 Y-6.3528
G01 X0.8261 Y-6.3395
G01 X0.7406 Y-6.2882
G01 X0.7189 Y-6.2760
G01 X0.6966 Y-6.2647
G01 X0.6065 Y-6.2221
G01 X0.5837 Y-6.2120
G01 X0.5604 Y-6.2030
G01 X0.4666 Y-6.1694
G01 X0.4429 Y-6.1616
G01 X0.4189 Y-6.1550
G01 X0.3221 Y-6.1307
G01 X0.2978 Y-6.1253
G01 X0.2733 Y-6.1210
G01 X0.1746 Y-6.1064
G01 X0.1499 Y-6.1033
G01 X0.1250 Y-6.1015
G01 X0.0254 Y-6.0966
G01 X0.0005 Y-6.0960
G01 X-0.0244 Y-6.0966
G01 X-0.1240 Y-6.1015
G01 X-0.1489 Y-6.1033
G01 X-0.1736 Y-6.1064
G01 X-0.2723 Y-6.1210
G01 X-0.2968 Y-6.1253
G01 X-0.3211 Y-6.1307
G01 X-0.4179 Y-6.1550
G01 X-0.4419 Y-6.1616
G01 X-0.4656 Y-6.1694
G01 X-0.5594 Y-6.2030
G01 X-0.5827 Y-6.2120
G01 X-0.6055 Y-6.2221
G01 X-0.6956 Y-6.2647
G01 X-0.7179 Y-6.2760
G01 X-0.7396 Y-6.2882
G01 X-0.8251 Y-6.3395
G01 X-0.8462 Y-6.3528
G01 X-0.8666 Y-6.3672
G01 X-0.9467 Y-6.4266
G01 X-0.9663 Y-6.4419
G01 X-0.9852 Y-6.4582
G01 X-1.0591 Y-6.5252
G01 X-1.0771 Y-6.5424
G01 X-1.0943 Y-6.5604
G01 X-1.1613 Y-6.6343
G01 X-1.1776 Y-6.6532
G01 X-1.1929 Y-6.6728
G01 X-1.2523 Y-6.7529
G01 X-1.2667 Y-6.7733
G01 X-1.2800 Y-6.7944
G01 X-1.3313 Y-6.8799
G01 X-1.3435 Y-6.9016
G01 X-1.3548 Y-6.9239
G01 X-1.3974 Y-7.0140
G01 X-1.4075 Y-7.0368
G01 X-1.4165 Y-7.0601
G01 X-1.4501 Y-7.1539
G01 X-1.4579 Y-7.1776
G01 X-1.4645 Y-7.2016
G01 X-1.4888 Y-7.2984
G01 X-1.4942 Y-7.3227
G01 X-1.4985 Y-7.3472
G01 X-1.5131 Y-7.4459
G00 Z3.0000
G00 X-1.2619 Y-7.4831
G01 F100.00
G01 Z-0.2200
G01 F400.00
G01 X-1.2634 Y-7.4955
G01 X-1.2643 Y-7.5080
G01 X-1.2692 Y-7.6075
G01 X-1.2695 Y-7.6200
G01 X-1.2692 Y-7.6325
G01 X-1.2643 Y-7.7320
G01 X-1.2634 Y-7.7445
G01 X-1.2619 Y-7.7569
G01 X-1.2472 Y-7.8555
G01 X-1.2451 Y-7.8678
G01 X-1.2424 Y-7.8799
G01 X-1.2181 Y-7.9766
G01 X-1.2148 Y-7.9887
G01 X-1.2109 Y-8.0005
G01 X-1.1773 Y-8.0944
G01 X-1.1728 Y-8.1060
G01 X-1.1678 Y-8.1174
G01 X-1.1251 Y-8.2075
G01 X-1.1195 Y-8.2187
G01 X-1.1134 Y-8.2295
G01 X-1.0621 Y-8.3150
G01 X-1.0555 Y-8.3256
G01 X-1.0483 Y-8.3358
G01 X-0.9889 Y-8.4159
G01 X-0.9812 Y-8.4257
G01 X-0.9731 Y-8.4351
G01 X-0.9061 Y-8.5090
G01 X-0.8975 Y-8.5180
G01 X-0.8885 Y-8.5266
G01 X-0.8146 Y-8.5936
G01 X-0.8052 Y-8.6017
G01 X-0.7954 Y-8.6094
G01 X-0.7153 Y-8.6688
G01 X-0.7051 Y-8.6760
G01 X-0.6945 Y-8.6826
G01 X-0.6090 Y-8.7339
G01 X-0.5982 Y-8.7400
G01 X-0.5870 Y-8.7456
G01 X-0.4969 Y-8.7883
G01 X-0.4855 Y-8.7933
G01 X-0.4739 Y-8.7978
G01 X-0.3800 Y-8.8314
G01 X-0.3682 Y-8.8353
G01 X-0.3561 Y-8.8386
G01 X-0.2594 Y-8.8629
G01 X-0.2473 Y-8.8656
G01 X-0.2350 Y-8.8677
G01 X-0.1364 Y-8.8824
G01 X-0.1240 Y-8.8839
G01 X-0.1115 Y-8.8848
G01 X-0.0120 Y-8.8897
G01 X0.0005 Y-8.8900
G01 X0.0130 Y-8.8897
G01 X0.1125 Y-8.8848
G01 X0.1250 Y-8.8839
G01 X0.1374 Y-8.8824
G01 X0.2360 Y-8.8677
G01 X0.2483 Y-8.8656
G01 X0.2604 Y-8.8629
G01 X0.3571 Y-8.8386
G01 X0.3692 Y-8.8353
G01 X0.3810 Y-8.8314
G01 X0.4749 Y-8.7978
G01 X0.4865 Y-8.7933
G01 X0.4979 Y-8.7883
G01 X0.5880 Y-8.7456
G01 X0.5992 Y-8.7400
G01 X0.6100 Y-8.7339
G01 X0.6955 Y-8.6826
G01 X0.7061 Y-8.6760
G01 X0.7163 Y-8.6688
G01 X0.7964 Y-8.6094
G01 X0.8062 Y-8.6017
G01 X0.8156 Y-8.5936
G01 X0.8895 Y-8.5266
G01 X0.8985 Y-8.5180
G01 X0.9071 Y-8.5090
G01 X0.9741 Y-8.4351
G01 X0.9822 Y-8.4257
G01 X0.9899 Y-8.4159
G01 X1.0493 Y-8.3358
G01 X1.0565 Y-8.3256
G01 X1.0631 Y-8.3150
G01 X1.1144 Y-8.2295
G01 X1.1205 Y-8.2187
G01 X1.1261 Y-8.2075
G01 X1.1688 Y-8.1174
G01 X1.1738 Y-8.1060
G01 X1.1783 Y-8.0944
G01 X1.2119 Y-8.0005
G01 X1.2158 Y-7.9887
G01 X1.2191 Y-7.9766
G01 X1.2434 Y-7.8799
G01 X1.2461 Y-7.8678
G01 X1.2482 Y-7.8555
G01 X1.2629 Y-7.7569
G01 X1.2644 Y-7.7445
G01 X1.2653 Y-7.7320
G01 X1.2702 Y-7.6325
G01 X1.2705 Y-7.6200
G01 X1.2702 Y-7.6075
G01 X1.2653 Y-7.5080
G01 X1.2644 Y-7.4955
G01 X1.2629 Y-7.4831
G01 X1.2482 Y-7.3845
G01 X1.2461 Y-7.3722
G01 X1.2434 Y-7.3601
G01 X1.2191 Y-7.2634
G01 X1.2158 Y-7.2513
G01 X1.2119 Y-7.2395
G01 X1.1783 Y-7.1456
G01 X1.1738 Y-7.1340
G01 X1.1688 Y-7.1226
G01 X1.1261 Y-7.0325
G01 X1.1205 Y-7.0213
G01 X1.1144 Y-7.0105
G01 X1.0631 Y-6.9250
G01 X1.0565 Y-6.9144
G01 X1.0493 Y-6.9042
G01 X0.9899 Y-6.8241
G01 X0.9822 Y-6.8143
G01 X0.9741 Y-6.8049
G01 X0.9071 Y-6.7310
G01 X0.8985 Y-6.7220
G01 X0.8895 Y-6.7134
G01 X0.8156 Y-6.6464
G01 X0.8062 Y-6.6383
G01 X0.7964 Y-6.6306
G01 X0.7163 Y-6.5712
G01 X0.7061 Y-6.5640
G01 X0.6955 Y-6.5574
G01 X0.6100 Y-6.5061
G01 X0.5992 Y-6.5000
G01 X0.5880 Y-6.4944
G01 X0.4979 Y-6.4517
G01 X0.4865 Y-6.4467
G01 X0.4749 Y-6.4422
G01 X0.3810 Y-6.4086
G01 X0.3692 Y-6.4047
G01 X0.3571 Y-6.4014
G01 X0.2604 Y-6.3771
G01 X0.2483 Y-6.3744
G01 X0.2360 Y-6.3723
G01 X0.1374 Y-6.3576
G01 X0.1250 Y-6.3561
G01 X0.1125 Y-6.3552
G01 X0.0130 Y-6.3503
G01 X0.0005 Y-6.3500
G01 X-0.0120 Y-6.3503
G01 X-0.1115 Y-6.3552
G01 X-0.1240 Y-6.3561
G01 X-0.1364 Y-6.3576
G01 X-0.2350 Y-6.3723
G01 X-0.2473 Y-6.3744
G01 X-0.2594 Y-6.3771
G01 X-0.3561 Y-6.4014
G01 X-0.3682 Y-6.4047
G01 X-0.3800 Y-6.4086
G01 X-0.4739 Y-6.4422
G01 X-0.4855 Y-6.4467
G01 X-0.4969 Y-6.4517
G01 X-0.5870 Y-6.4944
G01 X-0.5982 Y-6.5000
G01 X-0.6090 Y-6.5061
G01 X-0.6945 Y-6.5574
G01 X-0.7051 Y-6.5640
G01 X-0.7153 Y-6.5712
G01 X-0.7954 Y-6.6306
G01 X-0.8052 Y-6.6383
G01 X-0.8146 Y-6.6464
G01 X-0.8885 Y-6.7134
G01 X-0.8975 Y-6.7220
G01 X-0.9061 Y-6.7310
G01 X-0.9731 Y-6.8049
G01 X-0.9812 Y-6.8143
G01 X-0.9889 Y-6.8241
G01 X-1.0483 Y-6.9042
G01 X-1.0555 Y-6.9144
G01 X-1.0621 Y-6.9250
G01 X-1.1134 Y-7.0105
G01 X-1.1195 Y-7.0213
G01 X-1.1251 Y-7.0325
G01 X-1.1678 Y-7.1226
G01 X-1.1728 Y-7.1340
G01 X-1.1773 Y-7.1456
G01 X-1.2109 Y-7.2395
G01 X-1.2148 Y-7.2513
G01 X-1.2181 Y-7.2634
G01 X-1.2424 Y-7.3601
G01 X-1.2451 Y-7.3722
G01 X-1.2472 Y-7.3845
G01 X-1.2619 Y-7.4831
G00 Z3.0000
G00 X-19.0427 Y-7.4893
G01 F100.00
G01 Z-0.2200
G01 F400.00
G01 X-19.0443 Y-7.5080
G01 X-19.0492 Y-7.6075
G01 X-19.0495 Y-7.6200
G01 X-19.0492 Y-7.6325
G01 X-19.0443 Y-7.7320
G01 X-19.0434 Y-7.7445
G01 X-19.0419 Y-7.7569
G01 X-19.0272 Y-7.8555
G01 X-19.0251 Y-7.8678
G01 X-19.0224 Y-7.8799
G01 X-18.9981 Y-7.9766
G01 X-18.9948 Y-7.9887
G01 X-18.9909 Y-8.0005
G01 X-18.9573 Y-8.0944
G01 X-18.9528 Y-8.1060
G01 X-18.9478 Y-8.1174
G01 X-18.9051 Y-8.2075
G01 X-18.8995 Y-8.2187
G01 X-18.8934 Y-8.2295
G01 X-18.8421 Y-8.3150
G01 X-18.8355 Y-8.3256
G01 X-18.8283 Y-8.3358
G01 X-18.7689 Y-8.4159
G01 X-18.7612 Y-8.4257
G01 X-18.7531 Y-8.4351
G01 X-18.6861 Y-8.5090
G01 X-18.6775 Y-8.5180
G01 X-18.6685 Y-8.5266
G01 X-18.5946 Y-8.5936
G01 X-18.5852 Y-8.6017
G01 X-18.5754 Y-8.6094
G01 X-18.4953 Y-8.6688
G01 X-18.4851 Y-8.6760
G01 X-18.4745 Y-8.6826
G01 X-18.3890 Y-8.7339
G01 X-18.3782 Y-8.7400
G01 X-18.3670 Y-8.7456
G01 X-18.2769 Y-8.7883
G01 X-18.2655 Y-8.7933
G01 X-18.2539 Y-8.7978
G01 X-18.1600 Y-8.8314
G01 X-18.1482 Y-8.8353
G01 X-18.1361 Y-8.8386
G01 X-18.0394 Y-8.8629
G01 X-18.0273 Y-8.8656
G01 X-18.0150 Y-8.8677
G01 X-17.9164 Y-8.8824
G01 X-17.9040 Y-8.8839
G01 X-17.8915 Y-8.8848
G01 X-17.7920 Y-8.8897
G01 X-17.7795 Y-8.8900
G01 X-17.7670 Y-8.8897
G01 X-17.6675 Y-8.8848
G01 X-17.6550 Y-8.8839
G01 X-17.6426 Y-8.8824
G01 X-17.5440 Y-8.8677
G01 X-17.5317 Y-8.8656
G01 X-17.5196 Y-8.8629
G01 X-17.4229 Y-8.8386
G01 X-17.4108 Y-8.8353
G01 X-17.3990 Y-8.8314
G01 X-17.3051 Y-8.7978
G01 X-17.2935 Y-8.7933
G01 X-17.2821 Y-8.7883
G01 X-17.1920 Y-8.7456
G01 X-17.1808 Y-8.7400
G01 X-17.1700 Y-8.7339
G01 X-17.0845 Y-8.6826
G01 X-17.0739 Y-8.6760
G01 X-17.0637 Y-8.6688
G01 X-16.9836 Y-8.6094
G01 X-16.9738 Y-8.6017
G01 X-16.9644 Y-8.5936
G01 X-16.8905 Y-8.5266
G01 X-16.8815 Y-8.5180
G01 X-16.8729 Y-8.5090
G01 X-16.8059 Y-8.4351
G01 X-16.7978 Y-8.4257
G01 X-16.7901 Y-8.4159
G01 X-16.7307 Y-8.3358
G01 X-16.7235 Y-8.3256
G01 X-16.7169 Y-8.3150
G01 X-16.6656 Y-8.2295
G01 X-16.6595 Y-8.2187
G01 X-16.6539 Y-8.2075
G01 X-16.6112 Y-8.1174
G01 X-16.6062 Y-8.1060
G01 X-16.6017 Y-8.0944
G01 X-16.5681 Y-8.0005
G01 X-16.5642 Y-7.9887
G01 X-16.5609 Y-7.9766
G01 X-16.5366 Y-7.8799
G01 X-16.5339 Y-7.8678
G01 X-16.5318 Y-7.8555
G01 X-16.5171 Y-7.7569
G01 X-16.5156 Y-7.7445
G01 X-16.5147 Y-7.7320
G01 X-16.5098 Y-7.6325
G01 X-16.5095 Y-7.6200
G01 X-16.5098 Y-7.6075
G01 X-16.5147 Y-7.5080
G01 X-16.5156 Y-7.4955
G01 X-16.5171 Y-7.4831
G01 X-16.5318 Y-7.3845
G01 X-16.5339 Y-7.3722
G01 X-16.5366 Y-7.3601
G01 X-16.5609 Y-7.2634
G01 X-16.5642 Y-7.2513
G01 X-16.5681 Y-7.2395
G01 X-16.6017 Y-7.1456
G01 X-16.6062 Y-7.1340
G01 X-16.6112 Y-7.1226
G01 X-16.6539 Y-7.0325
G01 X-16.6595 Y-7.0213
G01 X-16.6656 Y-7.0105
G01 X-16.7169 Y-6.9250
G01 X-16.7235 Y-6.9144
G01 X-16.7307 Y-6.9042
G01 X-16.7901 Y-6.8241
G01 X-16.7978 Y-6.8143
G01 X-16.8059 Y-6.8049
G01 X-16.8729 Y-6.7310
G01 X-16.8815 Y-6.7220
G01 X-16.8905 Y-6.7134
G01 X-16.9644 Y-6.6464
G01 X-16.9738 Y-6.6383
G01 X-16.9836 Y-6.6306
G01 X-17.0637 Y-6.5712
G01 X-17.0739 Y-6.5640
G01 X-17.0845 Y-6.5574
G01 X-17.1700 Y-6.5061
G01 X-17.1808 Y-6.5000
G01 X-17.1920 Y-6.4944
G01 X-17.2821 Y-6.4517
G01 X-17.2935 Y-6.4467
G01 X-17.3051 Y-6.4422
G01 X-17.3990 Y-6.4086
G01 X-17.4108 Y-6.4047
G01 X-17.4229 Y-6.4014
G01 X-17.5196 Y-6.3771
G01 X-17.5317 Y-6.3744
G01 X-17.5440 Y-6.3723
G01 X-17.6426 Y-6.3576
G01 X-17.6550 Y-6.3561
G01 X-17.6675 Y-6.3552
G01 X-17.7670 Y-6.3503
G01 X-17.7795 Y-6.3500
G01 X-17.7920 Y-6.3503
G01 X-17.8915 Y-6.3552
G01 X-17.9040 Y-6.3561
G01 X-17.9164 Y-6.3576
G01 X-18.0150 Y-6.3723
G01 X-18.0273 Y-6.3744
G01 X-18.0394 Y-6.3771
G01 X-18.1361 Y-6.4014
G01 X-18.1482 Y-6.4047
G01 X-18.1600 Y-6.4086
G01 X-18.2539 Y-6.4422
G01 X-18.2655 Y-6.4467
G01 X-18.2769 Y-6.4517
G01 X-18.3670 Y-6.4944
G01 X-18.3782 Y-6.5000
G01 X-18.3890 Y-6.5061
G01 X-18.4745 Y-6.5574
G01 X-18.4851 Y-6.5640
G01 X-18.4953 Y-6.5712
G01 X-18.5754 Y-6.6306
G01 X-18.5852 Y-6.6383
G01 X-18.5946 Y-6.6464
G01 X-18.6685 Y-6.7134
G01 X-18.6775 Y-6.7220
G01 X-18.6861 Y-6.7310
G01 X-18.7531 Y-6.8049
G01 X-18.7612 Y-6.8143
G01 X-18.7689 Y-6.8241
G01 X-18.8283 Y-6.9042
G01 X-18.8355 Y-6.9144
G01 X-18.8421 Y-6.9250
G01 X-18.8934 Y-7.0105
G01 X-18.8995 Y-7.0213
G01 X-18.9051 Y-7.0325
G01 X-18.9478 Y-7.1226
G01 X-18.9528 Y-7.1340
G01 X-18.9573 Y-7.1456
G01 X-18.9909 Y-7.2395
G01 X-18.9948 Y-7.2513
G01 X-18.9981 Y-7.2634
G01 X-19.0224 Y-7.3601
G01 X-19.0251 Y-7.3722
G01 X-19.0272 Y-7.3845
G01 X-19.0427 Y-7.4893
G00 Z3.0000
G00 X-19.2948 Y-7.4582
G01 F100.00
G01 Z-0.2200
G01 F400.00
G01 X-19.2962 Y-7.4706
G01 X-19.2980 Y-7.4955
G01 X-19.3029 Y-7.5951
G01 X-19.3035 Y-7.6200
G01 X-19.3029 Y-7.6449
G01 X-19.2980 Y-7.7445
G01 X-19.2962 Y-7.7694
G01 X-19.2931 Y-7.7941
G01 X-19.2785 Y-7.8928
G01 X-19.2742 Y-7.9173
G01 X-19.2688 Y-7.9416
G01 X-19.2445 Y-8.0384
G01 X-19.2379 Y-8.0624
G01 X-19.2301 Y-8.0861
G01 X-19.1965 Y-8.1799
G01 X-19.1875 Y-8.2032
G01 X-19.1774 Y-8.2260
G01 X-19.1348 Y-8.3161
G01 X-19.1235 Y-8.3384
G01 X-19.1113 Y-8.3601
G01 X-19.0600 Y-8.4456
G01 X-19.0467 Y-8.4667
G01 X-19.0323 Y-8.4871
G01 X-18.9729 Y-8.5672
G01 X-18.9576 Y-8.5868
G01 X-18.9413 Y-8.6057
G01 X-18.8743 Y-8.6796
G01 X-18.8571 Y-8.6976
G01 X-18.8391 Y-8.7148
G01 X-18.7652 Y-8.7818
G01 X-18.7463 Y-8.7981
G01 X-18.7267 Y-8.8134
G01 X-18.6466 Y-8.8728
G01 X-18.6262 Y-8.8872
G01 X-18.6051 Y-8.9005
G01 X-18.5196 Y-8.9518
G01 X-18.4979 Y-8.9640
G01 X-18.4756 Y-8.9753
G01 X-18.3855 Y-9.0179
G01 X-18.3627 Y-9.0280
G01 X-18.3394 Y-9.0370
G01 X-18.2456 Y-9.0706
G01 X-18.2219 Y-9.0784
G01 X-18.1979 Y-9.0850
G01 X-18.1011 Y-9.1093
G01 X-18.0768 Y-9.1147
G01 X-18.0523 Y-9.1190
G01 X-17.9536 Y-9.1336
G01 X-17.9289 Y-9.1367
G01 X-17.9040 Y-9.1385
G01 X-17.8044 Y-9.1434
G01 X-17.7795 Y-9.1440
G01 X-17.7546 Y-9.1434
G01 X-17.6550 Y-9.1385
G01 X-17.6301 Y-9.1367
G01 X-17.6054 Y-9.1336
G01 X-17.5067 Y-9.1190
G01 X-17.4822 Y-9.1147
G01 X-17.4579 Y-9.1093
G01 X-17.3611 Y-9.0850
G01 X-17.3371 Y-9.0784
G01 X-17.3134 Y-9.0706
G01 X-17.2196 Y-9.0370
G01 X-17.1963 Y-9.0280
G01 X-17.1735 Y-9.0179
G01 X-17.0834 Y-8.9753
G01 X-17.0611 Y-8.9640
G01 X-17.0394 Y-8.9518
G01 X-16.9539 Y-8.9005
G01 X-16.9328 Y-8.8872
G01 X-16.9124 Y-8.8728
G01 X-16.8323 Y-8.8134
G01 X-16.8127 Y-8.7981
G01 X-16.7938 Y-8.7818
G01 X-16.7199 Y-8.7148
G01 X-16.7019 Y-8.6976
G01 X-16.6847 Y-8.6796
G01 X-16.6177 Y-8.6057
G01 X-16.6014 Y-8.5868
G01 X-16.5861 Y-8.5672
G01 X-16.5267 Y-8.4871
G01 X-16.5123 Y-8.4667
G01 X-16.4990 Y-8.4456
G01 X-16.4477 Y-8.3601
G01 X-16.4355 Y-8.3384
G01 X-16.4242 Y-8.3161
G01 X-16.3816 Y-8.2260
G01 X-16.3715 Y-8.2032
G01 X-16.3625 Y-8.1799
G01 X-16.3289 Y-8.0861
G01 X-16.3211 Y-8.0624
G01 X-16.3145 Y-8.0384
G01 X-16.2902 Y-7.9416
G01 X-16.2848 Y-7.9173
G01 X-16.2805 Y-7.8928
G01 X-16.2659 Y-7.7941
G01 X-16.2628 Y-7.7694
G01 X-16.2610 Y-7.7445
G01 X-16.2561 Y-7.6449
G01 X-16.2555 Y-7.6200
G01 X-16.2561 Y-7.5951
G01 X-16.2610 Y-7.4955
G01 X-16.2628 Y-7.4706
G01 X-16.2659 Y-7.4459
G01 X-16.2805 Y-7.3472
G01 X-16.2848 Y-7.3227
G01 X-16.2902 Y-7.2984
G01 X-16.3145 Y-7.2016
G01 X-16.3211 Y-7.1776
G01 X-16.3289 Y-7.1539
G01 X-16.3625 Y-7.0601
G01 X-16.3715 Y-7.0368
G01 X-16.3816 Y-7.0140
G01 X-16.4242 Y-6.9239
G01 X-16.4355 Y-6.9016
G01 X-16.4477 Y-6.8799
G01 X-16.4990 Y-6.7944
G01 X-16.5123 Y-6.7733
G01 X-16.5267 Y-6.7529
G01 X-16.5861 Y-6.6728
G01 X-16.6014 Y-6.6532
G01 X-16.6177 Y-6.6343
G01 X-16.6847 Y-6.5604
G01 X-16.7019 Y-6.5424
G01 X-16.7199 Y-6.5252
G01 X-16.7938 Y-6.4582
G01 X-16.8127 Y-6.4419
G01 X-16.8323 Y-6.4266
G01 X-16.9124 Y-6.3672
G01 X-16.9328 Y-6.3528
G01 X-16.9539 Y-6.3395
G01 X-17.0394 Y-6.2882
G01 X-17.0611 Y-6.2760
G01 X-17.0834 Y-6.2647
G01 X-17.1735 Y-6.2221
G01 X-17.1963 Y-6.2120
G01 X-17.2196 Y-6.2030
G01 X-17.3134 Y-6.1694
G01 X-17.3371 Y-6.1616
G01 X-17.3611 Y-6.1550
G01 X-17.4579 Y-6.1307
G01 X-17.4822 Y-6.1253
G01 X-17.5067 Y-6.1210
G01 X-17.6054 Y-6.1064
G01 X-17.6301 Y-6.1033
G01 X-17.6550 Y-6.1015
G01 X-17.7546 Y-6.0966
G01 X-17.7795 Y-6.0960
G01 X-17.8044 Y-6.0966
G01 X-17.9040 Y-6.1015
G01 X-17.9289 Y-6.1033
G01 X-17.9536 Y-6.1064
G01 X-18.0523 Y-6.1210
G01 X-18.0768 Y-6.1253
G01 X-18.1011 Y-6.1307
G01 X-18.1979 Y-6.1550
G01 X-18.2219 Y-6.1616
G01 X-18.2456 Y-6.1694
G01 X-18.3394 Y-6.2030
G01 X-18.3627 Y-6.2120
G01 X-18.3855 Y-6.2221
G01 X-18.4756 Y-6.2647
G01 X-18.4979 Y-6.2760
G01 X-18.5196 Y-6.2882
G01 X-18.6051 Y-6.3395
G01 X-18.6262 Y-6.3528
G01 X-18.6466 Y-6.3672
G01 X-18.7267 Y-6.4266
G01 X-18.7463 Y-6.4419
G01 X-18.7652 Y-6.4582
G01 X-18.8391 Y-6.5252
G01 X-18.8571 Y-6.5424
G01 X-18.8743 Y-6.5604
G01 X-18.9413 Y-6.6343
G01 X-18.9576 Y-6.6532
G01 X-18.9729 Y-6.6728
G01 X-19.0323 Y-6.7529
G01 X-19.0467 Y-6.7733
G01 X-19.0600 Y-6.7944
G01 X-19.1113 Y-6.8799
G01 X-19.1235 Y-6.9016
G01 X-19.1348 Y-6.9239
G01 X-19.1774 Y-7.0140
G01 X-19.1875 Y-7.0368
G01 X-19.1965 Y-7.0601
G01 X-19.2301 Y-7.1539
G01 X-19.2379 Y-7.1776
G01 X-19.2445 Y-7.2016
G01 X-19.2688 Y-7.2984
G01 X-19.2742 Y-7.3227
G01 X-19.2785 Y-7.3472
G01 X-19.2948 Y-7.4582
G00 Z3.0000
G00 X-19.5469 Y-7.4271
G01 F100.00
G01 Z-0.2200
G01 F400.00
G01 X-19.5489 Y-7.4457
G01 X-19.5517 Y-7.4830
G01 X-19.5566 Y-7.5826
G01 X-19.5575 Y-7.6200
G01 X-19.5566 Y-7.6574
G01 X-19.5517 Y-7.7570
G01 X-19.5489 Y-7.7943
G01 X-19.5444 Y-7.8314
G01 X-19.5297 Y-7.9300
G01 X-19.5233 Y-7.9669
G01 X-19.5151 Y-8.0034
G01 X-19.4909 Y-8.1001
G01 X-19.4809 Y-8.1361
G01 X-19.4692 Y-8.1716
G01 X-19.4356 Y-8.2655
G01 X-19.4222 Y-8.3004
G01 X-19.4070 Y-8.3346
G01 X-19.3644 Y-8.4247
G01 X-19.3476 Y-8.4581
G01 X-19.3291 Y-8.4907
G01 X-19.2779 Y-8.5762
G01 X-19.2579 Y-8.6078
G01 X-19.2363 Y-8.6384
G01 X-19.1769 Y-8.7185
G01 X-19.1539 Y-8.7480
G01 X-19.1295 Y-8.7763
G01 X-19.0625 Y-8.8501
G01 X-19.0367 Y-8.8772
G01 X-19.0096 Y-8.9030
G01 X-18.9358 Y-8.9700
G01 X-18.9075 Y-8.9944
G01 X-18.8780 Y-9.0174
G01 X-18.7979 Y-9.0768
G01 X-18.7673 Y-9.0984
G01 X-18.7357 Y-9.1184
G01 X-18.6502 Y-9.1696
G01 X-18.6176 Y-9.1881
G01 X-18.5842 Y-9.2049
G01 X-18.4941 Y-9.2475
G01 X-18.4599 Y-9.2627
G01 X-18.4250 Y-9.2761
G01 X-18.3311 Y-9.3097
G01 X-18.2956 Y-9.3214
G01 X-18.2596 Y-9.3314
G01 X-18.1629 Y-9.3556
G01 X-18.1264 Y-9.3638
G01 X-18.0895 Y-9.3702
G01 X-17.9909 Y-9.3849
G01 X-17.9538 Y-9.3894
G01 X-17.9165 Y-9.3922
G01 X-17.8169 Y-9.3971
G01 X-17.7795 Y-9.3980
G01 X-17.7421 Y-9.3971
G01 X-17.6425 Y-9.3922
G01 X-17.6052 Y-9.3894
G01 X-17.5681 Y-9.3849
G01 X-17.4695 Y-9.3702
G01 X-17.4326 Y-9.3638
G01 X-17.3961 Y-9.3556
G01 X-17.2994 Y-9.3314
G01 X-17.2634 Y-9.3214
G01 X-17.2279 Y-9.3097
G01 X-17.1340 Y-9.2761
G01 X-17.0991 Y-9.2627
G01 X-17.0649 Y-9.2475
G01 X-16.9748 Y-9.2049
G01 X-16.9414 Y-9.1881
G01 X-16.9088 Y-9.1696
G01 X-16.8233 Y-9.1184
G01 X-16.7917 Y-9.0984
G01 X-16.7611 Y-9.0768
G01 X-16.6810 Y-9.0174
G01 X-16.6515 Y-8.9944
G01 X-16.6232 Y-8.9700
G01 X-16.5494 Y-8.9030
G01 X-16.5223 Y-8.8772
G01 X-16.4965 Y-8.8501
G01 X-16.4295 Y-8.7763
G01 X-16.4051 Y-8.7480
G01 X-16.3821 Y-8.7185
G01 X-16.3227 Y-8.6384
G01 X-16.3011 Y-8.6078
G01 X-16.2811 Y-8.5762
G01 X-16.2299 Y-8.4907
G01 X-16.2114 Y-8.4581
G01 X-16.1946 Y-8.4247
G01 X-16.1520 Y-8.3346
G01 X-16.1368 Y-8.3004
G01 X-16.1234 Y-8.2655
G01 X-16.0898 Y-8.1716
G01 X-16.0781 Y-8.1361
G01 X-16.0681 Y-8.1001
G01 X-16.0439 Y-8.0034
G01 X-16.0357 Y-7.9669
G01 X-16.0293 Y-7.9300
G01 X-16.0146 Y-7.8314
G01 X-16.0101 Y-7.7943
G01 X-16.0073 Y-7.7570
G01 X-16.0024 Y-7.6574
G01 X-16.0015 Y-7.6200
G01 X-16.0024 Y-7.5826
G01 X-16.0073 Y-7.4830
G01 X-16.0101 Y-7.4457
G01 X-16.0146 Y-7.4086
G01 X-16.0293 Y-7.3100
G01 X-16.0357 Y-7.2731
G01 X-16.0439 Y-7.2366
G01 X-16.0681 Y-7.1399
G01 X-16.0781 Y-7.1039
G01 X-16.0898 Y-7.0684
G01 X-16.1234 Y-6.9745
G01 X-16.1368 Y-6.9396
G01 X-16.1520 Y-6.9054
G01 X-16.1946 Y-6.8153
G01 X-16.2114 Y-6.7819
G01 X-16.2299 Y-6.7493
G01 X-16.2811 Y-6.6638
G01 X-16.3011 Y-6.6322
G01 X-16.3227 Y-6.6016
G01 X-16.3821 Y-6.5215
G01 X-16.4051 Y-6.4920
G01 X-16.4295 Y-6.4637
G01 X-16.4965 Y-6.3899
G01 X-16.5223 Y-6.3628
G01 X-16.5494 Y-6.3370
G01 X-16.6232 Y-6.2700
G01 X-16.6515 Y-6.2456
G01 X-16.6810 Y-6.2226
G01 X-16.7611 Y-6.1632
G01 X-16.7917 Y-6.1416
G01 X-16.8233 Y-6.1216
G01 X-16.9088 Y-6.0704
G01 X-16.9414 Y-6.0519
G01 X-16.9748 Y-6.0351
G01 X-17.0649 Y-5.9925
G01 X-17.0991 Y-5.9773
G01 X-17.1340 Y-5.9639
G01 X-17.2279 Y-5.9303
G01 X-17.2634 Y-5.9186
G01 X-17.2994 Y-5.9086
G01 X-17.3961 Y-5.8844
G01 X-17.4326 Y-5.8762
G01 X-17.4695 Y-5.8698
G01 X-17.5681 Y-5.8551
G01 X-17.6052 Y-5.8506
G01 X-17.6425 Y-5.8478
G01 X-17.7421 Y-5.8429
G01 X-17.7795 Y-5.8420
G01 X-17.8169 Y-5.8429
G01 X-17.9165 Y-5.8478
G01 X-17.9538 Y-5.8506
G01 X-17.9909 Y-5.8551
G01 X-18.0895 Y-5.8698
G01 X-18.1264 Y-5.8762
G01 X-18.1629 Y-5.8844
G01 X-18.2596 Y-5.9086
G01 X-18.2956 Y-5.9186
G01 X-18.3311 Y-5.9303
G01 X-18.4250 Y-5.9639
G01 X-18.4599 Y-5.9773
G01 X-18.4941 Y-5.9925
G01 X-18.5842 Y-6.0351
G01 X-18.6176 Y-6.0519
G01 X-18.6502 Y-6.0704
G01 X-18.7357 Y-6.1216
G01 X-18.7673 Y-6.1416
G01 X-18.7979 Y-6.1632
G01 X-18.8780 Y-6.2226
G01 X-18.9075 Y-6.2456
G01 X-18.9358 Y-6.2700
G01 X-19.0096 Y-6.3370
G01 X-19.0367 Y-6.3628
G01 X-19.0625 Y-6.3899
G01 X-19.1295 Y-6.4637
G01 X-19.1539 Y-6.4920
G01 X-19.1769 Y-6.5215
G01 X-19.2363 Y-6.6016
G01 X-19.2579 Y-6.6322
G01 X-19.2779 Y-6.6638
G01 X-19.3291 Y-6.7493
G01 X-19.3476 Y-6.7819
G01 X-19.3644 Y-6.8153
G01 X-19.4070 Y-6.9054
G01 X-19.4222 Y-6.9396
G01 X-19.4356 Y-6.9745
G01 X-19.4692 Y-7.0684
G01 X-19.4809 Y-7.1039
G01 X-19.4909 Y-7.1399
G01 X-19.5151 Y-7.2366
G01 X-19.5233 Y-7.2731
G01 X-19.5297 Y-7.3100
G01 X-19.5469 Y-7.4271
G00 Z3.0000
G00 X-19.7990 Y-7.3960
G01 F100.00
G01 Z-0.2200
G01 F400.00
G01 X-19.8017 Y-7.4208
G01 X-19.8039 Y-7.4457
G01 X-19.8054 Y-7.4706
G01 X-19.8103 Y-7.5701
G01 X-19.8112 Y-7.5951
G01 X-19.8115 Y-7.6200
G01 X-19.8112 Y-7.6449
G01 X-19.8103 Y-7.6699
G01 X-19.8054 Y-7.7694
G01 X-19.8039 Y-7.7943
G01 X-19.8017 Y-7.8192
G01 X-19.7990 Y-7.8440
G01 X-19.7956 Y-7.8687
G01 X-19.7810 Y-7.9673
G01 X-19.7770 Y-7.9919
G01 X-19.7725 Y-8.0164
G01 X-19.7673 Y-8.0408
G01 X-19.7615 Y-8.0651
G01 X-19.7373 Y-8.1618
G01 X-19.7309 Y-8.1859
G01 X-19.7240 Y-8.2099
G01 X-19.7165 Y-8.2336
G01 X-19.7084 Y-8.2572
G01 X-19.6748 Y-8.3511
G01 X-19.6661 Y-8.3745
G01 X-19.6568 Y-8.3976
G01 X-19.6470 Y-8.4205
G01 X-19.6366 Y-8.4432
G01 X-19.5940 Y-8.5333
G01 X-19.5830 Y-8.5557
G01 X-19.5716 Y-8.5779
G01 X-19.5595 Y-8.5997
G01 X-19.5470 Y-8.6213
G01 X-19.4957 Y-8.7068
G01 X-19.4826 Y-8.7280
G01 X-19.4690 Y-8.7489
G01 X-19.4549 Y-8.7695
G01 X-19.4403 Y-8.7897
G01 X-19.3809 Y-8.8698
G01 X-19.3658 Y-8.8896
G01 X-19.3503 Y-8.9091
G01 X-19.3342 Y-8.9282
G01 X-19.3177 Y-8.9468
G01 X-19.2507 Y-9.0207
G01 X-19.2338 Y-9.0390
G01 X-19.2163 Y-9.0568
G01 X-19.1985 Y-9.0743
G01 X-19.1802 Y-9.0912
G01 X-19.1063 Y-9.1582
G01 X-19.0877 Y-9.1747
G01 X-19.0686 Y-9.1908
G01 X-19.0491 Y-9.2063
G01 X-19.0293 Y-9.2214
G01 X-18.9492 Y-9.2808
G01 X-18.9290 Y-9.2954
G01 X-18.9084 Y-9.3095
G01 X-18.8875 Y-9.3231
G01 X-18.8663 Y-9.3362
G01 X-18.7808 Y-9.3875
G01 X-18.7592 Y-9.4000
G01 X-18.7374 Y-9.4121
G01 X-18.7152 Y-9.4235
G01 X-18.6928 Y-9.4345
G01 X-18.6027 Y-9.4771
G01 X-18.5800 Y-9.4875
G01 X-18.5571 Y-9.4973
G01 X-18.5340 Y-9.5066
G01 X-18.5106 Y-9.5153
G01 X-18.4167 Y-9.5489
G01 X-18.3931 Y-9.5570
G01 X-18.3694 Y-9.5645
G01 X-18.3454 Y-9.5714
G01 X-18.3213 Y-9.5778
G01 X-18.2246 Y-9.6020
G01 X-18.2003 Y-9.6078
G01 X-18.1759 Y-9.6130
G01 X-18.1514 Y-9.6175
G01 X-18.1268 Y-9.6215
G01 X-18.0282 Y-9.6361
G01 X-18.0035 Y-9.6395
G01 X-17.9787 Y-9.6422
G01 X-17.9538 Y-9.6444
G01 X-17.9289 Y-9.6459
G01 X-17.8294 Y-9.6508
G01 X-17.8044 Y-9.6517
G01 X-17.7795 Y-9.6520
G01 X-17.7546 Y-9.6517
G01 X-17.7296 Y-9.6508
G01 X-17.6301 Y-9.6459
G01 X-17.6052 Y-9.6444
G01 X-17.5803 Y-9.6422
G01 X-17.5555 Y-9.6395
G01 X-17.5308 Y-9.6361
G01 X-17.4322 Y-9.6215
G01 X-17.4076 Y-9.6175
G01 X-17.3831 Y-9.6130
G01 X-17.3587 Y-9.6078
G01 X-17.3344 Y-9.6020
G01 X-17.2377 Y-9.5778
G01 X-17.2136 Y-9.5714
G01 X-17.1896 Y-9.5645
G01 X-17.1659 Y-9.5570
G01 X-17.1423 Y-9.5489
G01 X-17.0484 Y-9.5153
G01 X-17.0250 Y-9.5066
G01 X-17.0019 Y-9.4973
G01 X-16.9790 Y-9.4875
G01 X-16.9563 Y-9.4771
G01 X-16.8662 Y-9.4345
G01 X-16.8438 Y-9.4235
G01 X-16.8216 Y-9.4121
G01 X-16.7998 Y-9.4000
G01 X-16.7782 Y-9.3875
G01 X-16.6927 Y-9.3362
G01 X-16.6715 Y-9.3231
G01 X-16.6506 Y-9.3095
G01 X-16.6300 Y-9.2954
G01 X-16.6098 Y-9.2808
G01 X-16.5297 Y-9.2214
G01 X-16.5099 Y-9.2063
G01 X-16.4904 Y-9.1908
G01 X-16.4713 Y-9.1747
G01 X-16.4527 Y-9.1582
G01 X-16.3788 Y-9.0912
G01 X-16.3605 Y-9.0743
G01 X-16.3427 Y-9.0568
G01 X-16.3252 Y-9.0390
G01 X-16.3083 Y-9.0207
G01 X-16.2413 Y-8.9468
G01 X-16.2248 Y-8.9282
G01 X-16.2087 Y-8.9091
G01 X-16.1932 Y-8.8896
G01 X-16.1781 Y-8.8698
G01 X-16.1187 Y-8.7897
G01 X-16.1041 Y-8.7695
G01 X-16.0900 Y-8.7489
G01 X-16.0764 Y-8.7280
G01 X-16.0633 Y-8.7068
G01 X-16.0120 Y-8.6213
G01 X-15.9995 Y-8.5997
G01 X-15.9874 Y-8.5779
G01 X-15.9760 Y-8.5557
G01 X-15.9650 Y-8.5333
G01 X-15.9224 Y-8.4432
G01 X-15.9120 Y-8.4205
G01 X-15.9022 Y-8.3976
G01 X-15.8929 Y-8.3745
G01 X-15.8842 Y-8.3511
G01 X-15.8506 Y-8.2572
G01 X-15.8425 Y-8.2336
G01 X-15.8350 Y-8.2099
G01 X-15.8281 Y-8.1859
G01 X-15.8217 Y-8.1618
G01 X-15.7975 Y-8.0651
G01 X-15.7917 Y-8.0408
G01 X-15.7865 Y-8.0164
G01 X-15.7820 Y-7.9919
G01 X-15.7780 Y-7.9673
G01 X-15.7634 Y-7.8687
G01 X-15.7600 Y-7.8440
G01 X-15.7573 Y-7.8192
G01 X-15.7551 Y-7.7943
G01 X-15.7536 Y-7.7694
G01 X-15.7487 Y-7.6699
G01 X-15.7478 Y-7.6449
G01 X-15.7475 Y-7.6200
G01 X-15.7478 Y-7.5951
G01 X-15.7487 Y-7.5701
G01 X-15.7536 Y-7.4706
G01 X-15.7551 Y-7.4457
G01 X-15.7573 Y-7.4208
G01 X-15.7600 Y-7.3960
G01 X-15.7634 Y-7.3713
G01 X-15.7780 Y-7.2727
G01 X-15.7820 Y-7.2481
G01 X-15.7865 Y-7.2236
G01 X-15.7917 Y-7.1992
G01 X-15.7975 Y-7.1749
G01 X-15.8217 Y-7.0782
G01 X-15.8281 Y-7.0541
G01 X-15.8350 Y-7.0301
G01 X-15.8425 Y-7.0064
G01 X-15.8506 Y-6.9828
G01 X-15.8842 Y-6.8889
G01 X-15.8929 Y-6.8655
G01 X-15.9022 Y-6.8424
G01 X-15.9120 Y-6.8195
G01 X-15.9224 Y-6.7968
G01 X-15.9650 Y-6.7067
G01 X-15.9760 Y-6.6843
G01 X-15.9874 Y-6.6621
G01 X-15.9995 Y-6.6403
G01 X-16.0120 Y-6.6187
G01 X-16.0633 Y-6.5332
G01 X-16.0764 Y-6.5120
G01 X-16.0900 Y-6.4911
G01 X-16.1041 Y-6.4705
G01 X-16.1187 Y-6.4503
G01 X-16.1781 Y-6.3702
G01 X-16.1932 Y-6.3504
G01 X-16.2087 Y-6.3309
G01 X-16.2248 Y-6.3118
G01 X-16.2413 Y-6.2932
G01 X-16.3083 Y-6.2193
G01 X-16.3252 Y-6.2010
G01 X-16.3427 Y-6.1832
G01 X-16.3605 Y-6.1657
G01 X-16.3788 Y-6.1488
G01 X-16.4527 Y-6.0818
G01 X-16.4713 Y-6.0653
G01 X-16.4904 Y-6.0492
G01 X-16.5099 Y-6.0337
G01 X-16.5297 Y-6.0186
G01 X-16.6098 Y-5.9592
G01 X-16.6300 Y-5.9446
G01 X-16.6506 Y-5.9305
G01 X-16.6715 Y-5.9169
G01 X-16.6927 Y-5.9038
G01 X-16.7782 Y-5.8525
G01 X-16.7998 Y-5.8400
G01 X-16.8216 Y-5.8279
G01 X-16.8438 Y-5.8165
G01 X-16.8662 Y-5.8055
G01 X-16.9563 Y-5.7629
G01 X-16.9790 Y-5.7525
G01 X-17.0019 Y-5.7427
G01 X-17.0250 Y-5.7334
G01 X-17.0484 Y-5.7247
G01 X-17.1423 Y-5.6911
G01 X-17.1659 Y-5.6830
G01 X-17.1896 Y-5.6755
G01 X-17.2136 Y-5.6686
G01 X-17.2377 Y-5.6622
G01 X-17.3344 Y-5.6380
G01 X-17.3587 Y-5.6322
G01 X-17.3831 Y-5.6270
G01 X-17.4076 Y-5.6225
G01 X-17.4322 Y-5.6185
G01 X-17.5308 Y-5.6039
G01 X-17.5555 Y-5.6005
G01 X-17.5803 Y-5.5978
G01 X-17.6052 Y-5.5956
G01 X-17.6301 Y-5.5941
G01 X-17.7296 Y-5.5892
G01 X-17.7546 Y-5.5883
G01 X-17.7795 Y-5.5880
G01 X-17.8044 Y-5.5883
G01 X-17.8294 Y-5.5892
G01 X-17.9289 Y-5.5941
G01 X-17.9538 Y-5.5956
G01 X-17.9787 Y-5.5978
G01 X-18.0035 Y-5.6005
G01 X-18.0282 Y-5.6039
G01 X-18.1268 Y-5.6185
G01 X-18.1514 Y-5.6225
G01 X-18.1759 Y-5.6270
G01 X-18.2003 Y-5.6322
G01 X-18.2246 Y-5.6380
G01 X-18.3213 Y-5.6622
G01 X-18.3454 Y-5.6686
G01 X-18.3694 Y-5.6755
G01 X-18.3931 Y-5.6830
G01 X-18.4167 Y-5.6911
G01 X-18.5106 Y-5.7247
G01 X-18.5340 Y-5.7334
G01 X-18.5571 Y-5.7427
G01 X-18.5800 Y-5.7525
G01 X-18.6027 Y-5.7629
G01 X-18.6928 Y-5.8055
G01 X-18.7152 Y-5.8165
G01 X-18.7374 Y-5.8279
G01 X-18.7592 Y-5.8400
G01 X-18.7808 Y-5.8525
G01 X-18.8663 Y-5.9038
G01 X-18.8875 Y-5.9169
G01 X-18.9084 Y-5.9305
G01 X-18.9290 Y-5.9446
G01 X-18.9492 Y-5.9592
G01 X-19.0293 Y-6.0186
G01 X-19.0491 Y-6.0337
G01 X-19.0686 Y-6.0492
G01 X-19.0877 Y-6.0653
G01 X-19.1063 Y-6.0818
G01 X-19.1802 Y-6.1488
G01 X-19.1985 Y-6.1657
G01 X-19.2163 Y-6.1832
G01 X-19.2338 Y-6.2010
G01 X-19.2507 Y-6.2193
G01 X-19.3177 Y-6.2932
G01 X-19.3342 Y-6.3118
G01 X-19.3503 Y-6.3309
G01 X-19.3658 Y-6.3504
G01 X-19.3809 Y-6.3702
G01 X-19.4403 Y-6.4503
G01 X-19.4549 Y-6.4705
G01 X-19.4690 Y-6.4911
G01 X-19.4826 Y-6.5120
G01 X-19.4957 Y-6.5332
G01 X-19.5470 Y-6.6187
G01 X-19.5595 Y-6.6403
G01 X-19.5716 Y-6.6621
G01 X-19.5830 Y-6.6843
G01 X-19.5940 Y-6.7067
G01 X-19.6366 Y-6.7968
G01 X-19.6470 Y-6.8195
G01 X-19.6568 Y-6.8424
G01 X-19.6661 Y-6.8655
G01 X-19.6748 Y-6.8889
G01 X-19.7084 Y-6.9828
G01 X-19.7165 Y-7.0064
G01 X-19.7240 Y-7.0301
G01 X-19.7309 Y-7.0541
G01 X-19.7373 Y-7.0782
G01 X-19.7615 Y-7.1749
G01 X-19.7673 Y-7.1992
G01 X-19.7725 Y-7.2236
G01 X-19.7770 Y-7.2481
G01 X-19.7810 Y-7.2727
G01 X-19.7990 Y-7.3960
G00 Z3.0000
G00 X-25.8496 Y-5.1891
G01 F100.00
G01 Z-0.2200
G01 F400.00
G01 X-25.9162 Y-5.1160
G01 X-25.9337 Y-5.0982
G01 X-25.9523 Y-5.0800
G01 X-25.9337 Y-5.0618
G01 X-25.9162 Y-5.0440
G01 X-25.8496 Y-4.9709
G01 X-25.8330 Y-4.9522
G01 X-25.8170 Y-4.9331
G01 X-25.8014 Y-4.9136
G01 X-25.7863 Y-4.8938
G01 X-25.7276 Y-4.8141
G01 X-25.7135 Y-4.7936
G01 X-25.6999 Y-4.7727
G01 X-25.6487 Y-4.6879
G01 X-25.6362 Y-4.6664
G01 X-25.6242 Y-4.6445
G01 X-25.6127 Y-4.6224
G01 X-25.5701 Y-4.5331
G01 X-25.5597 Y-4.5104
G01 X-25.5499 Y-4.4875
G01 X-25.5406 Y-4.4643
G01 X-25.5319 Y-4.4410
G01 X-25.4989 Y-4.3477
G01 X-25.4914 Y-4.3239
G01 X-25.4844 Y-4.3000
G01 X-25.4601 Y-4.2040
G01 X-25.4543 Y-4.1798
G01 X-25.4491 Y-4.1554
G01 X-25.4446 Y-4.1309
G01 X-25.4298 Y-4.0330
G01 X-25.4264 Y-4.0083
G01 X-25.4236 Y-3.9835
G01 X-25.4215 Y-3.9587
G01 X-25.4200 Y-3.9338
G01 X-25.4154 Y-3.8349
G01 X-25.4151 Y-3.8100
G01 X-25.4154 Y-3.7851
G01 X-25.4163 Y-3.7601
G01 X-25.4200 Y-3.6862
G01 X-25.4215 Y-3.6613
G01 X-25.4236 Y-3.6365
G01 X-25.4264 Y-3.6117
G01 X-25.4298 Y-3.5870
G01 X-25.4406 Y-3.5138
G01 X-25.4446 Y-3.4891
G01 X-25.4491 Y-3.4646
G01 X-25.4543 Y-3.4402
G01 X-25.4601 Y-3.4160
G01 X-25.4781 Y-3.3441
G01 X-25.4844 Y-3.3200
G01 X-25.4914 Y-3.2961
G01 X-25.4989 Y-3.2723
G01 X-25.5070 Y-3.2487
G01 X-25.5319 Y-3.1790
G01 X-25.5406 Y-3.1557
G01 X-25.5499 Y-3.1325
G01 X-25.5597 Y-3.1096
G01 X-25.5701 Y-3.0869
G01 X-25.6017 Y-3.0200
G01 X-25.6127 Y-2.9976
G01 X-25.6242 Y-2.9755
G01 X-25.6362 Y-2.9536
G01 X-25.6487 Y-2.9321
G01 X-25.6868 Y-2.8686
G01 X-25.6999 Y-2.8473
G01 X-25.7135 Y-2.8264
G01 X-25.7276 Y-2.8059
G01 X-25.7422 Y-2.7857
G01 X-25.7863 Y-2.7262
G01 X-25.8014 Y-2.7064
G01 X-25.8170 Y-2.6869
G01 X-25.8330 Y-2.6678
G01 X-25.8496 Y-2.6491
G01 X-25.8993 Y-2.5943
G01 X-25.9162 Y-2.5760
G01 X-25.9337 Y-2.5582
G01 X-25.9523 Y-2.5400
G01 X-25.9337 Y-2.5218
G01 X-25.9162 Y-2.5040
G01 X-25.8496 Y-2.4309
G01 X-25.8330 Y-2.4122
G01 X-25.8170 Y-2.3931
G01 X-25.8014 Y-2.3736
G01 X-25.7422 Y-2.2943
G01 X-25.7276 Y-2.2741
G01 X-25.7135 Y-2.2536
G01 X-25.6999 Y-2.2327
G01 X-25.6487 Y-2.1479
G01 X-25.6362 Y-2.1264
G01 X-25.6242 Y-2.1045
G01 X-25.6127 Y-2.0824
G01 X-25.6017 Y-2.0600
G01 X-25.5597 Y-1.9704
G01 X-25.5499 Y-1.9475
G01 X-25.5406 Y-1.9243
G01 X-25.5070 Y-1.8313
G01 X-25.4989 Y-1.8077
G01 X-25.4914 Y-1.7839
G01 X-25.4844 Y-1.7600
G01 X-25.4601 Y-1.6640
G01 X-25.4543 Y-1.6398
G01 X-25.4491 Y-1.6154
G01 X-25.4446 Y-1.5909
G01 X-25.4406 Y-1.5662
G01 X-25.4298 Y-1.4930
G01 X-25.4264 Y-1.4683
G01 X-25.4236 Y-1.4435
G01 X-25.4215 Y-1.4187
G01 X-25.4200 Y-1.3938
G01 X-25.4163 Y-1.3199
G01 X-25.4154 Y-1.2949
G01 X-25.4151 Y-1.2700
G01 X-25.4154 Y-1.2451
G01 X-25.4163 Y-1.2201
G01 X-25.4215 Y-1.1213
G01 X-25.4236 Y-1.0965
G01 X-25.4264 Y-1.0717
G01 X-25.4298 Y-1.0470
G01 X-25.4446 Y-0.9491
G01 X-25.4491 Y-0.9246
G01 X-25.4543 Y-0.9002
G01 X-25.4781 Y-0.8041
G01 X-25.4844 Y-0.7800
G01 X-25.4914 Y-0.7561
G01 X-25.4989 Y-0.7323
G01 X-25.5319 Y-0.6390
G01 X-25.5406 Y-0.6157
G01 X-25.5499 Y-0.5925
G01 X-25.5597 Y-0.5696
G01 X-25.5701 Y-0.5469
G01 X-25.6127 Y-0.4576
G01 X-25.6242 Y-0.4355
G01 X-25.6362 Y-0.4136
G01 X-25.6868 Y-0.3286
G01 X-25.6999 Y-0.3073
G01 X-25.7135 Y-0.2864
G01 X-25.7276 Y-0.2659
G01 X-25.7863 Y-0.1862
G01 X-25.8014 Y-0.1664
G01 X-25.8170 Y-0.1469
G01 X-25.8330 Y-0.1278
G01 X-25.8496 Y-0.1091
G01 X-25.9162 Y-0.0360
G01 X-25.9337 Y-0.0182
G01 X-25.9515 Y-0.0007
G01 X-25.9698 Y0.0162
G01 X-26.0433 Y0.0825
G01 X-26.0624 Y0.0985
G01 X-26.0819 Y0.1141
G01 X-26.1017 Y0.1292
G01 X-26.1612 Y0.1733
G01 X-26.1814 Y0.1879
G01 X-26.2019 Y0.2020
G01 X-26.2228 Y0.2156
G01 X-26.2441 Y0.2287
G01 X-26.3076 Y0.2668
G01 X-26.3291 Y0.2793
G01 X-26.3510 Y0.2913
G01 X-26.3731 Y0.3028
G01 X-26.3955 Y0.3138
G01 X-26.4851 Y0.3558
G01 X-26.5080 Y0.3656
G01 X-26.5312 Y0.3749
G01 X-26.5545 Y0.3836
G01 X-26.6478 Y0.4166
G01 X-26.6716 Y0.4241
G01 X-26.6955 Y0.4311
G01 X-26.7196 Y0.4374
G01 X-26.8157 Y0.4612
G01 X-26.8401 Y0.4664
G01 X-26.8646 Y0.4709
G01 X-26.9625 Y0.4857
G01 X-26.9872 Y0.4891
G01 X-27.0120 Y0.4919
G01 X-27.0368 Y0.4940
G01 X-27.0617 Y0.4955
G01 X-27.1356 Y0.4992
G01 X-27.1606 Y0.5001
G01 X-27.1855 Y0.5004
G01 X-28.6935 Y0.5004
G01 X-28.7184 Y0.5001
G01 X-28.7434 Y0.4992
G01 X-28.8173 Y0.4955
G01 X-28.8422 Y0.4940
G01 X-28.8670 Y0.4919
G01 X-28.8918 Y0.4891
G01 X-28.9897 Y0.4749
G01 X-29.0144 Y0.4709
G01 X-29.0389 Y0.4664
G01 X-29.0633 Y0.4612
G01 X-29.0875 Y0.4554
G01 X-29.1594 Y0.4374
G01 X-29.1835 Y0.4311
G01 X-29.2074 Y0.4241
G01 X-29.2312 Y0.4166
G01 X-29.2548 Y0.4085
G01 X-29.3478 Y0.3749
G01 X-29.3710 Y0.3656
G01 X-29.3939 Y0.3558
G01 X-29.4166 Y0.3454
G01 X-29.4835 Y0.3138
G01 X-29.5059 Y0.3028
G01 X-29.5280 Y0.2913
G01 X-29.5499 Y0.2793
G01 X-29.5714 Y0.2668
G01 X-29.6349 Y0.2287
G01 X-29.6562 Y0.2156
G01 X-29.6771 Y0.2020
G01 X-29.6976 Y0.1879
G01 X-29.7178 Y0.1733
G01 X-29.7971 Y0.1141
G01 X-29.8166 Y0.0985
G01 X-29.8357 Y0.0825
G01 X-29.8544 Y0.0659
G01 X-29.9092 Y0.0162
G01 X-29.9275 Y-0.0007
G01 X-29.9453 Y-0.0182
G01 X-29.9628 Y-0.0360
G01 X-29.9797 Y-0.0543
G01 X-30.0294 Y-0.1091
G01 X-30.0460 Y-0.1278
G01 X-30.0620 Y-0.1469
G01 X-30.0776 Y-0.1664
G01 X-30.0927 Y-0.1862
G01 X-30.1514 Y-0.2659
G01 X-30.1655 Y-0.2864
G01 X-30.1791 Y-0.3073
G01 X-30.2303 Y-0.3921
G01 X-30.2428 Y-0.4136
G01 X-30.2548 Y-0.4355
G01 X-30.2663 Y-0.4576
G01 X-30.2773 Y-0.4800
G01 X-30.3089 Y-0.5469
G01 X-30.3193 Y-0.5696
G01 X-30.3291 Y-0.5925
G01 X-30.3384 Y-0.6157
G01 X-30.3471 Y-0.6390
G01 X-30.3720 Y-0.7087
G01 X-30.3801 Y-0.7323
G01 X-30.3876 Y-0.7561
G01 X-30.3946 Y-0.7800
G01 X-30.4009 Y-0.8041
G01 X-30.4189 Y-0.8760
G01 X-30.4247 Y-0.9002
G01 X-30.4299 Y-0.9246
G01 X-30.4344 Y-0.9491
G01 X-30.4384 Y-0.9738
G01 X-30.4526 Y-1.0717
G01 X-30.4554 Y-1.0965
G01 X-30.4575 Y-1.1213
G01 X-30.4590 Y-1.1462
G01 X-30.4636 Y-1.2451
G01 X-30.4639 Y-1.2700
G01 X-30.4636 Y-1.2949
G01 X-30.4627 Y-1.3199
G01 X-30.4590 Y-1.3938
G01 X-30.4575 Y-1.4187
G01 X-30.4554 Y-1.4435
G01 X-30.4526 Y-1.4683
G01 X-30.4492 Y-1.4930
G01 X-30.4384 Y-1.5662
G01 X-30.4344 Y-1.5909
G01 X-30.4299 Y-1.6154
G01 X-30.4247 Y-1.6398
G01 X-30.4009 Y-1.7359
G01 X-30.3946 Y-1.7600
G01 X-30.3876 Y-1.7839
G01 X-30.3801 Y-1.8077
G01 X-30.3720 Y-1.8313
G01 X-30.3384 Y-1.9243
G01 X-30.3291 Y-1.9475
G01 X-30.3193 Y-1.9704
G01 X-30.3089 Y-1.9931
G01 X-30.2773 Y-2.0600
G01 X-30.2663 Y-2.0824
G01 X-30.2548 Y-2.1045
G01 X-30.2428 Y-2.1264
G01 X-30.2303 Y-2.1479
G01 X-30.1922 Y-2.2114
G01 X-30.1791 Y-2.2327
G01 X-30.1655 Y-2.2536
G01 X-30.1514 Y-2.2741
G01 X-30.1368 Y-2.2943
G01 X-30.0927 Y-2.3538
G01 X-30.0776 Y-2.3736
G01 X-30.0620 Y-2.3931
G01 X-30.0460 Y-2.4122
G01 X-30.0294 Y-2.4309
G01 X-29.9797 Y-2.4857
G01 X-29.9628 Y-2.5040
G01 X-29.9453 Y-2.5218
G01 X-29.9267 Y-2.5400
G01 X-29.9453 Y-2.5582
G01 X-29.9628 Y-2.5760
G01 X-30.0294 Y-2.6491
G01 X-30.0460 Y-2.6678
G01 X-30.0620 Y-2.6869
G01 X-30.0776 Y-2.7064
G01 X-30.1368 Y-2.7857
G01 X-30.1514 Y-2.8059
G01 X-30.1655 Y-2.8264
G01 X-30.1791 Y-2.8473
G01 X-30.1922 Y-2.8686
G01 X-30.2428 Y-2.9536
G01 X-30.2548 Y-2.9755
G01 X-30.2663 Y-2.9976
G01 X-30.3089 Y-3.0869
G01 X-30.3193 Y-3.1096
G01 X-30.3291 Y-3.1325
G01 X-30.3384 Y-3.1557
G01 X-30.3471 Y-3.1790
G01 X-30.3801 Y-3.2723
G01 X-30.3876 Y-3.2961
G01 X-30.3946 Y-3.3200
G01 X-30.4189 Y-3.4160
G01 X-30.4247 Y-3.4402
G01 X-30.4299 Y-3.4646
G01 X-30.4344 Y-3.4891
G01 X-30.4492 Y-3.5870
G01 X-30.4526 Y-3.6117
G01 X-30.4554 Y-3.6365
G01 X-30.4575 Y-3.6613
G01 X-30.4627 Y-3.7601
G01 X-30.4636 Y-3.7851
G01 X-30.4639 Y-3.8100
G01 X-30.4636 Y-3.8349
G01 X-30.4590 Y-3.9338
G01 X-30.4575 Y-3.9587
G01 X-30.4554 Y-3.9835
G01 X-30.4526 Y-4.0083
G01 X-30.4492 Y-4.0330
G01 X-30.4344 Y-4.1309
G01 X-30.4299 Y-4.1554
G01 X-30.4247 Y-4.1798
G01 X-30.4189 Y-4.2040
G01 X-30.4009 Y-4.2759
G01 X-30.3946 Y-4.3000
G01 X-30.3876 Y-4.3239
G01 X-30.3801 Y-4.3477
G01 X-30.3720 Y-4.3713
G01 X-30.3471 Y-4.4410
G01 X-30.3384 Y-4.4643
G01 X-30.3291 Y-4.4875
G01 X-30.3193 Y-4.5104
G01 X-30.3089 Y-4.5331
G01 X-30.2773 Y-4.6000
G01 X-30.2663 Y-4.6224
G01 X-30.2548 Y-4.6445
G01 X-30.2428 Y-4.6664
G01 X-30.2303 Y-4.6879
G01 X-30.1922 Y-4.7514
G01 X-30.1791 Y-4.7727
G01 X-30.1655 Y-4.7936
G01 X-30.1514 Y-4.8141
G01 X-30.1368 Y-4.8343
G01 X-30.0927 Y-4.8938
G01 X-30.0776 Y-4.9136
G01 X-30.0620 Y-4.9331
G01 X-30.0460 Y-4.9522
G01 X-30.0294 Y-4.9709
G01 X-29.9797 Y-5.0257
G01 X-29.9628 Y-5.0440
G01 X-29.9453 Y-5.0618
G01 X-29.9267 Y-5.0800
G01 X-29.9453 Y-5.0982
G01 X-29.9628 Y-5.1160
G01 X-30.0294 Y-5.1891
G01 X-30.0460 Y-5.2078
G01 X-30.0620 Y-5.2269
G01 X-30.0776 Y-5.2464
G01 X-30.1368 Y-5.3257
G01 X-30.1514 Y-5.3459
G01 X-30.1655 Y-5.3664
G01 X-30.1791 Y-5.3873
G01 X-30.1922 Y-5.4086
G01 X-30.2428 Y-5.4936
G01 X-30.2548 Y-5.5155
G01 X-30.2663 Y-5.5376
G01 X-30.2773 Y-5.5600
G01 X-30.3193 Y-5.6496
G01 X-30.3291 Y-5.6725
G01 X-30.3384 Y-5.6957
G01 X-30.3720 Y-5.7887
G01 X-30.3801 Y-5.8123
G01 X-30.3876 Y-5.8361
G01 X-30.3946 Y-5.8600
G01 X-30.4189 Y-5.9560
G01 X-30.4247 Y-5.9802
G01 X-30.4299 Y-6.0046
G01 X-30.4344 Y-6.0291
G01 X-30.4384 Y-6.0538
G01 X-30.4492 Y-6.1270
G01 X-30.4526 Y-6.1517
G01 X-30.4554 Y-6.1765
G01 X-30.4575 Y-6.2013
G01 X-30.4590 Y-6.2262
G01 X-30.4627 Y-6.3001
G01 X-30.4636 Y-6.3251
G01 X-30.4639 Y-6.3500
G01 X-30.4636 Y-6.3749
G01 X-30.4627 Y-6.3999
G01 X-30.4575 Y-6.4987
G01 X-30.4554 Y-6.5235
G01 X-30.4526 Y-6.5483
G01 X-30.4492 Y-6.5730
G01 X-30.4344 Y-6.6709
G01 X-30.4299 Y-6.6954
G01 X-30.4247 Y-6.7198
G01 X-30.4009 Y-6.8159
G01 X-30.3946 Y-6.8400
G01 X-30.3876 Y-6.8639
G01 X-30.3801 Y-6.8877
G01 X-30.3720 Y-6.9113
G01 X-30.3384 Y-7.0043
G01 X-30.3291 Y-7.0275
G01 X-30.3193 Y-7.0504
G01 X-30.3089 Y-7.0731
G01 X-30.2663 Y-7.1624
G01 X-30.2548 Y-7.1845
G01 X-30.2428 Y-7.2064
G01 X-30.1922 Y-7.2914
G01 X-30.1791 Y-7.3127
G01 X-30.1655 Y-7.3336
G01 X-30.1514 Y-7.3541
G01 X-30.1368 Y-7.3743
G01 X-30.0776 Y-7.4536
G01 X-30.0620 Y-7.4731
G01 X-30.0460 Y-7.4922
G01 X-29.9797 Y-7.5657
G01 X-29.9628 Y-7.5840
G01 X-29.9453 Y-7.6018
G01 X-29.9275 Y-7.6193
G01 X-29.9092 Y-7.6362
G01 X-29.8357 Y-7.7025
G01 X-29.8166 Y-7.7185
G01 X-29.7971 Y-7.7341
G01 X-29.7773 Y-7.7492
G01 X-29.6976 Y-7.8079
G01 X-29.6771 Y-7.8220
G01 X-29.6562 Y-7.8356
G01 X-29.5714 Y-7.8868
G01 X-29.5499 Y-7.8993
G01 X-29.5280 Y-7.9113
G01 X-29.5059 Y-7.9228
G01 X-29.4835 Y-7.9338
G01 X-29.3939 Y-7.9758
G01 X-29.3710 Y-7.9856
G01 X-29.3478 Y-7.9949
G01 X-29.2548 Y-8.0285
G01 X-29.2312 Y-8.0366
G01 X-29.2074 Y-8.0441
G01 X-29.1835 Y-8.0511
G01 X-29.1594 Y-8.0574
G01 X-29.0633 Y-8.0812
G01 X-29.0389 Y-8.0864
G01 X-29.0144 Y-8.0909
G01 X-28.9897 Y-8.0949
G01 X-28.8918 Y-8.1091
G01 X-28.8670 Y-8.1119
G01 X-28.8422 Y-8.1140
G01 X-28.7434 Y-8.1192
G01 X-28.7184 Y-8.1201
G01 X-28.6935 Y-8.1204
G01 X-27.1855 Y-8.1204
G01 X-27.1606 Y-8.1201
G01 X-27.1356 Y-8.1192
G01 X-27.0368 Y-8.1140
G01 X-27.0120 Y-8.1119
G01 X-26.9872 Y-8.1091
G01 X-26.8893 Y-8.0949
G01 X-26.8646 Y-8.0909
G01 X-26.8401 Y-8.0864
G01 X-26.8157 Y-8.0812
G01 X-26.7915 Y-8.0754
G01 X-26.6955 Y-8.0511
G01 X-26.6716 Y-8.0441
G01 X-26.6478 Y-8.0366
G01 X-26.5545 Y-8.0036
G01 X-26.5312 Y-7.9949
G01 X-26.5080 Y-7.9856
G01 X-26.4851 Y-7.9758
G01 X-26.4624 Y-7.9654
G01 X-26.3731 Y-7.9228
G01 X-26.3510 Y-7.9113
G01 X-26.3291 Y-7.8993
G01 X-26.3076 Y-7.8868
G01 X-26.2441 Y-7.8487
G01 X-26.2228 Y-7.8356
G01 X-26.2019 Y-7.8220
G01 X-26.1814 Y-7.8079
G01 X-26.1612 Y-7.7933
G01 X-26.1017 Y-7.7492
G01 X-26.0819 Y-7.7341
G01 X-26.0624 Y-7.7185
G01 X-26.0433 Y-7.7025
G01 X-26.0246 Y-7.6859
G01 X-25.9698 Y-7.6362
G01 X-25.9515 Y-7.6193
G01 X-25.9337 Y-7.6018
G01 X-25.9162 Y-7.5840
G01 X-25.8993 Y-7.5657
G01 X-25.8330 Y-7.4922
G01 X-25.8170 Y-7.4731
G01 X-25.8014 Y-7.4536
G01 X-25.7863 Y-7.4338
G01 X-25.7422 Y-7.3743
G01 X-25.7276 Y-7.3541
G01 X-25.7135 Y-7.3336
G01 X-25.6999 Y-7.3127
G01 X-25.6868 Y-7.2914
G01 X-25.6487 Y-7.2279
G01 X-25.6362 Y-7.2064
G01 X-25.6242 Y-7.1845
G01 X-25.6127 Y-7.1624
G01 X-25.5701 Y-7.0731
G01 X-25.5597 Y-7.0504
G01 X-25.5499 Y-7.0275
G01 X-25.5406 Y-7.0043
G01 X-25.5319 Y-6.9810
G01 X-25.5070 Y-6.9113
G01 X-25.4989 Y-6.8877
G01 X-25.4914 Y-6.8639
G01 X-25.4844 Y-6.8400
G01 X-25.4781 Y-6.8159
G01 X-25.4601 Y-6.7440
G01 X-25.4543 Y-6.7198
G01 X-25.4491 Y-6.6954
G01 X-25.4446 Y-6.6709
G01 X-25.4406 Y-6.6462
G01 X-25.4298 Y-6.5730
G01 X-25.4264 Y-6.5483
G01 X-25.4236 Y-6.5235
G01 X-25.4215 Y-6.4987
G01 X-25.4200 Y-6.4738
G01 X-25.4154 Y-6.3749
G01 X-25.4151 Y-6.3500
G01 X-25.4154 Y-6.3251
G01 X-25.4163 Y-6.3001
G01 X-25.4200 Y-6.2262
G01 X-25.4215 Y-6.2013
G01 X-25.4236 Y-6.1765
G01 X-25.4264 Y-6.1517
G01 X-25.4298 Y-6.1270
G01 X-25.4406 Y-6.0538
G01 X-25.4446 Y-6.0291
G01 X-25.4491 Y-6.0046
G01 X-25.4543 Y-5.9802
G01 X-25.4601 Y-5.9560
G01 X-25.4844 Y-5.8600
G01 X-25.4914 Y-5.8361
G01 X-25.4989 Y-5.8123
G01 X-25.5070 Y-5.7887
G01 X-25.5319 Y-5.7190
G01 X-25.5406 Y-5.6957
G01 X-25.5499 Y-5.6725
G01 X-25.5597 Y-5.6496
G01 X-25.5701 Y-5.6269
G01 X-25.6017 Y-5.5600
G01 X-25.6127 Y-5.5376
G01 X-25.6242 Y-5.5155
G01 X-25.6362 Y-5.4936
G01 X-25.6487 Y-5.4721
G01 X-25.6868 Y-5.4086
G01 X-25.6999 Y-5.3873
G01 X-25.7135 Y-5.3664
G01 X-25.7276 Y-5.3459
G01 X-25.7863 Y-5.2662
G01 X-25.8014 Y-5.2464
G01 X-25.8170 Y-5.2269
G01 X-25.8330 Y-5.2078
G01 X-25.8496 Y-5.1891
G00 Z3.0000
G00 X-26.2381 Y-5.1661
G01 F100.00
G01 Z-0.2200
G01 F400.00
G01 X-26.3125 Y-5.1107
G01 X-26.3276 Y-5.0998
G01 X-26.3572 Y-5.0800
G01 X-26.3276 Y-5.0602
G01 X-26.3125 Y-5.0493
G01 X-26.2530 Y-5.0052
G01 X-26.2235 Y-4.9822
G01 X-26.1952 Y-4.9577
G01 X-26.1403 Y-4.9080
G01 X-26.1266 Y-4.8953
G01 X-26.1002 Y-4.8689
G01 X-26.0254 Y-4.7863
G01 X-26.0016 Y-4.7574
G01 X-25.9903 Y-4.7425
G01 X-25.9462 Y-4.6830
G01 X-25.9247 Y-4.6525
G01 X-25.9047 Y-4.6209
G01 X-25.8666 Y-4.5574
G01 X-25.8572 Y-4.5412
G01 X-25.8396 Y-4.5082
G01 X-25.7919 Y-4.4075
G01 X-25.7776 Y-4.3729
G01 X-25.7711 Y-4.3554
G01 X-25.7461 Y-4.2857
G01 X-25.7344 Y-4.2502
G01 X-25.7244 Y-4.2141
G01 X-25.7065 Y-4.1423
G01 X-25.6983 Y-4.1058
G01 X-25.6919 Y-4.0690
G01 X-25.6810 Y-3.9958
G01 X-25.6764 Y-3.9586
G01 X-25.6748 Y-3.9400
G01 X-25.6700 Y-3.8474
G01 X-25.6691 Y-3.8100
G01 X-25.6700 Y-3.7726
G01 X-25.6737 Y-3.6987
G01 X-25.6764 Y-3.6614
G01 X-25.6785 Y-3.6428
G01 X-25.6919 Y-3.5510
G01 X-25.6983 Y-3.5142
G01 X-25.7065 Y-3.4777
G01 X-25.7292 Y-3.3878
G01 X-25.7401 Y-3.3520
G01 X-25.7461 Y-3.3343
G01 X-25.7711 Y-3.2646
G01 X-25.7846 Y-3.2297
G01 X-25.7997 Y-3.1955
G01 X-25.8314 Y-3.1286
G01 X-25.8396 Y-3.1118
G01 X-25.8572 Y-3.0788
G01 X-25.9047 Y-2.9991
G01 X-25.9247 Y-2.9675
G01 X-25.9462 Y-2.9370
G01 X-26.0016 Y-2.8626
G01 X-26.0133 Y-2.8480
G01 X-26.0378 Y-2.8197
G01 X-26.0875 Y-2.7648
G01 X-26.1133 Y-2.7378
G01 X-26.1403 Y-2.7120
G01 X-26.2092 Y-2.6499
G01 X-26.2235 Y-2.6378
G01 X-26.2530 Y-2.6148
G01 X-26.3276 Y-2.5598
G01 X-26.3572 Y-2.5400
G01 X-26.3276 Y-2.5202
G01 X-26.3125 Y-2.5093
G01 X-26.2530 Y-2.4652
G01 X-26.2235 Y-2.4422
G01 X-26.1952 Y-2.4177
G01 X-26.1403 Y-2.3680
G01 X-26.1133 Y-2.3422
G01 X-26.0875 Y-2.3152
G01 X-26.0378 Y-2.2603
G01 X-26.0133 Y-2.2320
G01 X-25.9903 Y-2.2025
G01 X-25.9462 Y-2.1430
G01 X-25.9247 Y-2.1125
G01 X-25.9047 Y-2.0809
G01 X-25.8666 Y-2.0174
G01 X-25.8482 Y-1.9848
G01 X-25.8314 Y-1.9514
G01 X-25.7997 Y-1.8845
G01 X-25.7846 Y-1.8503
G01 X-25.7711 Y-1.8154
G01 X-25.7461 Y-1.7457
G01 X-25.7344 Y-1.7102
G01 X-25.7244 Y-1.6741
G01 X-25.7065 Y-1.6023
G01 X-25.6983 Y-1.5658
G01 X-25.6919 Y-1.5290
G01 X-25.6810 Y-1.4558
G01 X-25.6764 Y-1.4186
G01 X-25.6737 Y-1.3813
G01 X-25.6700 Y-1.3074
G01 X-25.6691 Y-1.2700
G01 X-25.6700 Y-1.2326
G01 X-25.6737 Y-1.1587
G01 X-25.6764 Y-1.1214
G01 X-25.6810 Y-1.0842
G01 X-25.6919 Y-1.0110
G01 X-25.6983 Y-0.9742
G01 X-25.7065 Y-0.9377
G01 X-25.7244 Y-0.8659
G01 X-25.7344 Y-0.8298
G01 X-25.7461 Y-0.7943
G01 X-25.7711 Y-0.7246
G01 X-25.7846 Y-0.6897
G01 X-25.7997 Y-0.6555
G01 X-25.8314 Y-0.5886
G01 X-25.8482 Y-0.5552
G01 X-25.8666 Y-0.5226
G01 X-25.9145 Y-0.4432
G01 X-25.9353 Y-0.4121
G01 X-25.9462 Y-0.3970
G01 X-25.9903 Y-0.3375
G01 X-26.0133 Y-0.3080
G01 X-26.0378 Y-0.2797
G01 X-26.0875 Y-0.2248
G01 X-26.1133 Y-0.1978
G01 X-26.1403 Y-0.1720
G01 X-26.1952 Y-0.1223
G01 X-26.2235 Y-0.0978
G01 X-26.2530 Y-0.0748
G01 X-26.3125 Y-0.0307
G01 X-26.3430 Y-0.0092
G01 X-26.3587 Y0.0010
G01 X-26.4543 Y0.0583
G01 X-26.4873 Y0.0759
G01 X-26.5880 Y0.1236
G01 X-26.6052 Y0.1309
G01 X-26.6401 Y0.1444
G01 X-26.7098 Y0.1694
G01 X-26.7453 Y0.1811
G01 X-26.7814 Y0.1911
G01 X-26.8532 Y0.2090
G01 X-26.8897 Y0.2172
G01 X-26.9081 Y0.2207
G01 X-27.0183 Y0.2370
G01 X-27.0369 Y0.2391
G01 X-27.0742 Y0.2418
G01 X-27.1481 Y0.2455
G01 X-27.1855 Y0.2464
G01 X-28.6935 Y0.2464
G01 X-28.7309 Y0.2455
G01 X-28.8048 Y0.2418
G01 X-28.8421 Y0.2391
G01 X-28.8793 Y0.2345
G01 X-28.9525 Y0.2236
G01 X-28.9893 Y0.2172
G01 X-29.0076 Y0.2134
G01 X-29.1157 Y0.1863
G01 X-29.1515 Y0.1754
G01 X-29.1692 Y0.1694
G01 X-29.2389 Y0.1444
G01 X-29.2738 Y0.1309
G01 X-29.3080 Y0.1158
G01 X-29.3749 Y0.0841
G01 X-29.4083 Y0.0673
G01 X-29.4247 Y0.0583
G01 X-29.5203 Y0.0010
G01 X-29.5514 Y-0.0198
G01 X-29.5665 Y-0.0307
G01 X-29.6260 Y-0.0748
G01 X-29.6555 Y-0.0978
G01 X-29.6838 Y-0.1223
G01 X-29.7387 Y-0.1720
G01 X-29.7524 Y-0.1847
G01 X-29.7788 Y-0.2111
G01 X-29.8536 Y-0.2937
G01 X-29.8657 Y-0.3080
G01 X-29.8887 Y-0.3375
G01 X-29.9328 Y-0.3970
G01 X-29.9543 Y-0.4275
G01 X-29.9743 Y-0.4591
G01 X-30.0124 Y-0.5226
G01 X-30.0308 Y-0.5552
G01 X-30.0394 Y-0.5718
G01 X-30.0871 Y-0.6725
G01 X-30.1014 Y-0.7071
G01 X-30.1079 Y-0.7246
G01 X-30.1329 Y-0.7943
G01 X-30.1446 Y-0.8298
G01 X-30.1546 Y-0.8659
G01 X-30.1725 Y-0.9377
G01 X-30.1807 Y-0.9742
G01 X-30.1871 Y-1.0110
G01 X-30.1980 Y-1.0842
G01 X-30.2005 Y-1.1028
G01 X-30.2042 Y-1.1400
G01 X-30.2090 Y-1.2326
G01 X-30.2099 Y-1.2700
G01 X-30.2090 Y-1.3074
G01 X-30.2053 Y-1.3813
G01 X-30.2042 Y-1.4000
G01 X-30.2005 Y-1.4372
G01 X-30.1871 Y-1.5290
G01 X-30.1807 Y-1.5658
G01 X-30.1725 Y-1.6023
G01 X-30.1498 Y-1.6922
G01 X-30.1389 Y-1.7280
G01 X-30.1329 Y-1.7457
G01 X-30.1079 Y-1.8154
G01 X-30.0944 Y-1.8503
G01 X-30.0793 Y-1.8845
G01 X-30.0476 Y-1.9514
G01 X-30.0308 Y-1.9848
G01 X-30.0218 Y-2.0012
G01 X-29.9743 Y-2.0809
G01 X-29.9543 Y-2.1125
G01 X-29.9328 Y-2.1430
G01 X-29.8774 Y-2.2174
G01 X-29.8657 Y-2.2320
G01 X-29.8412 Y-2.2603
G01 X-29.7915 Y-2.3152
G01 X-29.7657 Y-2.3422
G01 X-29.7387 Y-2.3680
G01 X-29.6698 Y-2.4301
G01 X-29.6555 Y-2.4422
G01 X-29.6260 Y-2.4652
G01 X-29.5514 Y-2.5202
G01 X-29.5218 Y-2.5400
G01 X-29.5514 Y-2.5598
G01 X-29.5665 Y-2.5707
G01 X-29.6260 Y-2.6148
G01 X-29.6555 Y-2.6378
G01 X-29.6838 Y-2.6623
G01 X-29.7387 Y-2.7120
G01 X-29.7657 Y-2.7378
G01 X-29.7915 Y-2.7648
G01 X-29.8412 Y-2.8197
G01 X-29.8657 Y-2.8480
G01 X-29.8774 Y-2.8626
G01 X-29.9437 Y-2.9521
G01 X-29.9543 Y-2.9675
G01 X-29.9743 Y-2.9991
G01 X-30.0124 Y-3.0626
G01 X-30.0308 Y-3.0952
G01 X-30.0476 Y-3.1286
G01 X-30.0793 Y-3.1955
G01 X-30.0944 Y-3.2297
G01 X-30.1014 Y-3.2471
G01 X-30.1329 Y-3.3343
G01 X-30.1389 Y-3.3520
G01 X-30.1498 Y-3.3878
G01 X-30.1769 Y-3.4959
G01 X-30.1842 Y-3.5326
G01 X-30.1871 Y-3.5510
G01 X-30.1980 Y-3.6242
G01 X-30.2026 Y-3.6614
G01 X-30.2053 Y-3.6987
G01 X-30.2090 Y-3.7726
G01 X-30.2099 Y-3.8100
G01 X-30.2090 Y-3.8474
G01 X-30.2053 Y-3.9213
G01 X-30.2026 Y-3.9586
G01 X-30.2005 Y-3.9772
G01 X-30.1871 Y-4.0690
G01 X-30.1807 Y-4.1058
G01 X-30.1725 Y-4.1423
G01 X-30.1498 Y-4.2322
G01 X-30.1446 Y-4.2502
G01 X-30.1329 Y-4.2857
G01 X-30.1079 Y-4.3554
G01 X-30.0944 Y-4.3903
G01 X-30.0793 Y-4.4245
G01 X-30.0476 Y-4.4914
G01 X-30.0308 Y-4.5248
G01 X-30.0218 Y-4.5412
G01 X-29.9743 Y-4.6209
G01 X-29.9543 Y-4.6525
G01 X-29.9328 Y-4.6830
G01 X-29.8774 Y-4.7574
G01 X-29.8657 Y-4.7720
G01 X-29.8412 Y-4.8003
G01 X-29.7915 Y-4.8552
G01 X-29.7657 Y-4.8822
G01 X-29.7387 Y-4.9080
G01 X-29.6698 Y-4.9701
G01 X-29.6555 Y-4.9822
G01 X-29.6260 Y-5.0052
G01 X-29.5514 Y-5.0602
G01 X-29.5218 Y-5.0800
G01 X-29.5514 Y-5.0998
G01 X-29.5665 Y-5.1107
G01 X-29.6260 Y-5.1548
G01 X-29.6555 Y-5.1778
G01 X-29.6838 Y-5.2023
G01 X-29.7387 Y-5.2520
G01 X-29.7657 Y-5.2778
G01 X-29.7915 Y-5.3048
G01 X-29.8412 Y-5.3597
G01 X-29.8657 Y-5.3880
G01 X-29.8887 Y-5.4175
G01 X-29.9328 Y-5.4770
G01 X-29.9543 Y-5.5075
G01 X-29.9743 Y-5.5391
G01 X-30.0124 Y-5.6026
G01 X-30.0308 Y-5.6352
G01 X-30.0476 Y-5.6686
G01 X-30.0793 Y-5.7355
G01 X-30.0944 Y-5.7697
G01 X-30.1079 Y-5.8046
G01 X-30.1329 Y-5.8743
G01 X-30.1446 Y-5.9098
G01 X-30.1546 Y-5.9459
G01 X-30.1725 Y-6.0177
G01 X-30.1807 Y-6.0542
G01 X-30.1871 Y-6.0910
G01 X-30.1980 Y-6.1642
G01 X-30.2026 Y-6.2014
G01 X-30.2053 Y-6.2387
G01 X-30.2090 Y-6.3126
G01 X-30.2099 Y-6.3500
G01 X-30.2090 Y-6.3874
G01 X-30.2053 Y-6.4613
G01 X-30.2026 Y-6.4986
G01 X-30.1980 Y-6.5358
G01 X-30.1871 Y-6.6090
G01 X-30.1807 Y-6.6458
G01 X-30.1725 Y-6.6823
G01 X-30.1546 Y-6.7541
G01 X-30.1446 Y-6.7902
G01 X-30.1329 Y-6.8257
G01 X-30.1079 Y-6.8954
G01 X-30.0944 Y-6.9303
G01 X-30.0793 Y-6.9645
G01 X-30.0476 Y-7.0314
G01 X-30.0308 Y-7.0648
G01 X-30.0124 Y-7.0974
G01 X-29.9645 Y-7.1768
G01 X-29.9437 Y-7.2079
G01 X-29.9328 Y-7.2230
G01 X-29.8887 Y-7.2825
G01 X-29.8657 Y-7.3120
G01 X-29.8412 Y-7.3403
G01 X-29.7915 Y-7.3952
G01 X-29.7657 Y-7.4222
G01 X-29.7387 Y-7.4480
G01 X-29.6838 Y-7.4977
G01 X-29.6555 Y-7.5222
G01 X-29.6260 Y-7.5452
G01 X-29.5665 Y-7.5893
G01 X-29.5360 Y-7.6108
G01 X-29.5203 Y-7.6210
G01 X-29.4247 Y-7.6783
G01 X-29.3917 Y-7.6959
G01 X-29.2910 Y-7.7436
G01 X-29.2564 Y-7.7579
G01 X-29.2389 Y-7.7644
G01 X-29.1515 Y-7.7954
G01 X-29.1157 Y-7.8063
G01 X-29.0976 Y-7.8111
G01 X-29.0258 Y-7.8290
G01 X-28.9893 Y-7.8372
G01 X-28.9525 Y-7.8436
G01 X-28.8793 Y-7.8545
G01 X-28.8421 Y-7.8591
G01 X-28.8235 Y-7.8607
G01 X-28.7309 Y-7.8655
G01 X-28.6935 Y-7.8664
G01 X-27.1855 Y-7.8664
G01 X-27.1481 Y-7.8655
G01 X-27.0555 Y-7.8607
G01 X-27.0369 Y-7.8591
G01 X-26.9997 Y-7.8545
G01 X-26.9265 Y-7.8436
G01 X-26.8897 Y-7.8372
G01 X-26.8532 Y-7.8290
G01 X-26.7814 Y-7.8111
G01 X-26.7453 Y-7.8011
G01 X-26.7098 Y-7.7894
G01 X-26.6401 Y-7.7644
G01 X-26.6052 Y-7.7509
G01 X-26.5710 Y-7.7358
G01 X-26.5041 Y-7.7041
G01 X-26.4707 Y-7.6873
G01 X-26.4381 Y-7.6689
G01 X-26.3587 Y-7.6210
G01 X-26.3430 Y-7.6108
G01 X-26.3125 Y-7.5893
G01 X-26.2530 Y-7.5452
G01 X-26.2235 Y-7.5222
G01 X-26.1952 Y-7.4977
G01 X-26.1403 Y-7.4480
G01 X-26.1266 Y-7.4353
G01 X-26.1002 Y-7.4089
G01 X-26.0254 Y-7.3263
G01 X-26.0016 Y-7.2974
G01 X-25.9903 Y-7.2825
G01 X-25.9462 Y-7.2230
G01 X-25.9247 Y-7.1925
G01 X-25.9047 Y-7.1609
G01 X-25.8666 Y-7.0974
G01 X-25.8572 Y-7.0812
G01 X-25.8396 Y-7.0482
G01 X-25.7919 Y-6.9475
G01 X-25.7776 Y-6.9129
G01 X-25.7711 Y-6.8954
G01 X-25.7461 Y-6.8257
G01 X-25.7344 Y-6.7902
G01 X-25.7244 Y-6.7541
G01 X-25.7065 Y-6.6823
G01 X-25.7021 Y-6.6641
G01 X-25.6948 Y-6.6274
G01 X-25.6810 Y-6.5358
G01 X-25.6764 Y-6.4986
G01 X-25.6737 Y-6.4613
G01 X-25.6700 Y-6.3874
G01 X-25.6694 Y-6.3687
G01 X-25.6694 Y-6.3313
G01 X-25.6748 Y-6.2200
G01 X-25.6785 Y-6.1828
G01 X-25.6810 Y-6.1642
G01 X-25.6919 Y-6.0910
G01 X-25.6983 Y-6.0542
G01 X-25.7065 Y-6.0177
G01 X-25.7244 Y-5.9459
G01 X-25.7292 Y-5.9278
G01 X-25.7401 Y-5.8920
G01 X-25.7711 Y-5.8046
G01 X-25.7846 Y-5.7697
G01 X-25.7997 Y-5.7355
G01 X-25.8396 Y-5.6518
G01 X-25.8572 Y-5.6188
G01 X-25.8666 Y-5.6026
G01 X-25.9047 Y-5.5391
G01 X-25.9247 Y-5.5075
G01 X-25.9462 Y-5.4770
G01 X-25.9903 Y-5.4175
G01 X-26.0016 Y-5.4026
G01 X-26.0254 Y-5.3737
G01 X-26.0875 Y-5.3048
G01 X-26.1133 Y-5.2778
G01 X-26.1403 Y-5.2520
G01 X-26.1952 Y-5.2023
G01 X-26.2235 Y-5.1778
G01 X-26.2381 Y-5.1661
G00 Z3.0000
G00 X-27.0742 Y-5.0926
G01 F100.00
G01 Z-0.2200
G01 F400.00
G01 X-27.1606 Y-5.0882
G01 X-27.1855 Y-5.0876
G01 X-28.6935 Y-5.0876
G01 X-28.7184 Y-5.0882
G01 X-28.7924 Y-5.0919
G01 X-28.8172 Y-5.0937
G01 X-28.8296 Y-5.0951
G01 X-28.9152 Y-5.1076
G01 X-28.9398 Y-5.1119
G01 X-28.9641 Y-5.1173
G01 X-29.0359 Y-5.1353
G01 X-29.0599 Y-5.1420
G01 X-29.0718 Y-5.1457
G01 X-29.1533 Y-5.1747
G01 X-29.1766 Y-5.1837
G01 X-29.1994 Y-5.1938
G01 X-29.2775 Y-5.2309
G01 X-29.2886 Y-5.2367
G01 X-29.3103 Y-5.2490
G01 X-29.3738 Y-5.2870
G01 X-29.3948 Y-5.3004
G01 X-29.4152 Y-5.3147
G01 X-29.4846 Y-5.3664
G01 X-29.4943 Y-5.3742
G01 X-29.5132 Y-5.3905
G01 X-29.5681 Y-5.4402
G01 X-29.5861 Y-5.4574
G01 X-29.6033 Y-5.4754
G01 X-29.6530 Y-5.5303
G01 X-29.6693 Y-5.5492
G01 X-29.6847 Y-5.5688
G01 X-29.7288 Y-5.6283
G01 X-29.7431 Y-5.6487
G01 X-29.7565 Y-5.6697
G01 X-29.7945 Y-5.7332
G01 X-29.8068 Y-5.7549
G01 X-29.8180 Y-5.7772
G01 X-29.8497 Y-5.8441
G01 X-29.8598 Y-5.8669
G01 X-29.8688 Y-5.8902
G01 X-29.8937 Y-5.9599
G01 X-29.9015 Y-5.9836
G01 X-29.9082 Y-6.0076
G01 X-29.9262 Y-6.0794
G01 X-29.9316 Y-6.1037
G01 X-29.9359 Y-6.1283
G01 X-29.9467 Y-6.2015
G01 X-29.9498 Y-6.2263
G01 X-29.9516 Y-6.2511
G01 X-29.9553 Y-6.3251
G01 X-29.9559 Y-6.3500
G01 X-29.9553 Y-6.3749
G01 X-29.9516 Y-6.4489
G01 X-29.9498 Y-6.4737
G01 X-29.9467 Y-6.4985
G01 X-29.9359 Y-6.5717
G01 X-29.9316 Y-6.5963
G01 X-29.9262 Y-6.6206
G01 X-29.9082 Y-6.6924
G01 X-29.9015 Y-6.7164
G01 X-29.8937 Y-6.7401
G01 X-29.8688 Y-6.8098
G01 X-29.8598 Y-6.8331
G01 X-29.8497 Y-6.8559
G01 X-29.8180 Y-6.9228
G01 X-29.8068 Y-6.9451
G01 X-29.7945 Y-6.9668
G01 X-29.7565 Y-7.0303
G01 X-29.7431 Y-7.0513
G01 X-29.7288 Y-7.0717
G01 X-29.6771 Y-7.1411
G01 X-29.6693 Y-7.1508
G01 X-29.6530 Y-7.1697
G01 X-29.6033 Y-7.2246
G01 X-29.5861 Y-7.2426
G01 X-29.5681 Y-7.2598
G01 X-29.5132 Y-7.3095
G01 X-29.4943 Y-7.3258
G01 X-29.4747 Y-7.3412
G01 X-29.4152 Y-7.3853
G01 X-29.3948 Y-7.3996
G01 X-29.3738 Y-7.4130
G01 X-29.3103 Y-7.4510
G01 X-29.2886 Y-7.4633
G01 X-29.2663 Y-7.4745
G01 X-29.1994 Y-7.5062
G01 X-29.1766 Y-7.5163
G01 X-29.1533 Y-7.5253
G01 X-29.0836 Y-7.5502
G01 X-29.0599 Y-7.5580
G01 X-29.0359 Y-7.5647
G01 X-28.9641 Y-7.5827
G01 X-28.9398 Y-7.5881
G01 X-28.9152 Y-7.5924
G01 X-28.8296 Y-7.6049
G01 X-28.8172 Y-7.6063
G01 X-28.7924 Y-7.6081
G01 X-28.7184 Y-7.6118
G01 X-28.6935 Y-7.6124
G01 X-27.1855 Y-7.6124
G01 X-27.1606 Y-7.6118
G01 X-27.0866 Y-7.6081
G01 X-27.0618 Y-7.6063
G01 X-27.0494 Y-7.6049
G01 X-26.9638 Y-7.5924
G01 X-26.9392 Y-7.5881
G01 X-26.9149 Y-7.5827
G01 X-26.8431 Y-7.5647
G01 X-26.8191 Y-7.5580
G01 X-26.8072 Y-7.5543
G01 X-26.7257 Y-7.5253
G01 X-26.7024 Y-7.5163
G01 X-26.6796 Y-7.5062
G01 X-26.6015 Y-7.4691
G01 X-26.5904 Y-7.4633
G01 X-26.5687 Y-7.4510
G01 X-26.5052 Y-7.4130
G01 X-26.4842 Y-7.3996
G01 X-26.4638 Y-7.3853
G01 X-26.3944 Y-7.3336
G01 X-26.3751 Y-7.3178
G01 X-26.3109 Y-7.2598
G01 X-26.2929 Y-7.2426
G01 X-26.2757 Y-7.2246
G01 X-26.2260 Y-7.1697
G01 X-26.2097 Y-7.1508
G01 X-26.1943 Y-7.1312
G01 X-26.1502 Y-7.0717
G01 X-26.1359 Y-7.0513
G01 X-26.1225 Y-7.0303
G01 X-26.0782 Y-6.9560
G01 X-26.0722 Y-6.9451
G01 X-26.0610 Y-6.9228
G01 X-26.0293 Y-6.8559
G01 X-26.0192 Y-6.8331
G01 X-26.0102 Y-6.8098
G01 X-25.9853 Y-6.7401
G01 X-25.9775 Y-6.7164
G01 X-25.9708 Y-6.6924
G01 X-25.9528 Y-6.6206
G01 X-25.9474 Y-6.5963
G01 X-25.9431 Y-6.5717
G01 X-25.9323 Y-6.4985
G01 X-25.9306 Y-6.4861
G01 X-25.9281 Y-6.4613
G01 X-25.9237 Y-6.3749
G01 X-25.9231 Y-6.3500
G01 X-25.9237 Y-6.3251
G01 X-25.9281 Y-6.2387
G01 X-25.9292 Y-6.2263
G01 X-25.9323 Y-6.2015
G01 X-25.9431 Y-6.1283
G01 X-25.9474 Y-6.1037
G01 X-25.9528 Y-6.0794
G01 X-25.9708 Y-6.0076
G01 X-25.9775 Y-5.9836
G01 X-25.9853 Y-5.9599
G01 X-26.0146 Y-5.8785
G01 X-26.0241 Y-5.8554
G01 X-26.0293 Y-5.8441
G01 X-26.0610 Y-5.7772
G01 X-26.0722 Y-5.7549
G01 X-26.0845 Y-5.7332
G01 X-26.1225 Y-5.6697
G01 X-26.1359 Y-5.6487
G01 X-26.1502 Y-5.6283
G01 X-26.2019 Y-5.5589
G01 X-26.2097 Y-5.5492
G01 X-26.2260 Y-5.5303
G01 X-26.2757 Y-5.4754
G01 X-26.2929 Y-5.4574
G01 X-26.3109 Y-5.4402
G01 X-26.3658 Y-5.3905
G01 X-26.3847 Y-5.3742
G01 X-26.4043 Y-5.3588
G01 X-26.4739 Y-5.3074
G01 X-26.4842 Y-5.3004
G01 X-26.5052 Y-5.2870
G01 X-26.5687 Y-5.2490
G01 X-26.5904 Y-5.2367
G01 X-26.6127 Y-5.2255
G01 X-26.6796 Y-5.1938
G01 X-26.7024 Y-5.1837
G01 X-26.7257 Y-5.1747
G01 X-26.7954 Y-5.1498
G01 X-26.8191 Y-5.1420
G01 X-26.8431 Y-5.1353
G01 X-26.9149 Y-5.1173
G01 X-26.9392 Y-5.1119
G01 X-26.9638 Y-5.1076
G01 X-27.0494 Y-5.0951
G01 X-27.0742 Y-5.0926
G00 Z3.0000
G00 X-27.0929 Y-5.3459
G01 F100.00
G01 Z-0.2200
G01 F400.00
G01 X-27.1730 Y-5.3419
G01 X-27.1855 Y-5.3416
G01 X-28.6935 Y-5.3416
G01 X-28.7060 Y-5.3419
G01 X-28.7861 Y-5.3459
G01 X-28.8047 Y-5.3480
G01 X-28.8779 Y-5.3589
G01 X-28.8902 Y-5.3610
G01 X-28.9024 Y-5.3637
G01 X-28.9742 Y-5.3817
G01 X-28.9862 Y-5.3850
G01 X-28.9981 Y-5.3890
G01 X-29.0678 Y-5.4139
G01 X-29.0794 Y-5.4184
G01 X-29.0908 Y-5.4234
G01 X-29.1577 Y-5.4551
G01 X-29.1688 Y-5.4607
G01 X-29.1797 Y-5.4668
G01 X-29.2485 Y-5.5082
G01 X-29.2639 Y-5.5187
G01 X-29.3234 Y-5.5628
G01 X-29.3332 Y-5.5705
G01 X-29.3426 Y-5.5787
G01 X-29.3975 Y-5.6284
G01 X-29.4065 Y-5.6370
G01 X-29.4151 Y-5.6460
G01 X-29.4648 Y-5.7009
G01 X-29.4730 Y-5.7103
G01 X-29.4807 Y-5.7201
G01 X-29.5248 Y-5.7796
G01 X-29.5319 Y-5.7898
G01 X-29.5386 Y-5.8003
G01 X-29.5767 Y-5.8638
G01 X-29.5828 Y-5.8747
G01 X-29.5884 Y-5.8858
G01 X-29.6201 Y-5.9527
G01 X-29.6251 Y-5.9641
G01 X-29.6296 Y-5.9757
G01 X-29.6545 Y-6.0454
G01 X-29.6585 Y-6.0573
G01 X-29.6618 Y-6.0693
G01 X-29.6798 Y-6.1411
G01 X-29.6825 Y-6.1533
G01 X-29.6846 Y-6.1656
G01 X-29.6955 Y-6.2388
G01 X-29.6970 Y-6.2512
G01 X-29.6979 Y-6.2636
G01 X-29.7016 Y-6.3375
G01 X-29.7019 Y-6.3500
G01 X-29.7016 Y-6.3625
G01 X-29.6979 Y-6.4364
G01 X-29.6970 Y-6.4488
G01 X-29.6955 Y-6.4612
G01 X-29.6846 Y-6.5344
G01 X-29.6825 Y-6.5467
G01 X-29.6798 Y-6.5589
G01 X-29.6618 Y-6.6307
G01 X-29.6585 Y-6.6427
G01 X-29.6545 Y-6.6546
G01 X-29.6296 Y-6.7243
G01 X-29.6251 Y-6.7359
G01 X-29.6201 Y-6.7473
G01 X-29.5884 Y-6.8142
G01 X-29.5828 Y-6.8253
G01 X-29.5767 Y-6.8362
G01 X-29.5353 Y-6.9050
G01 X-29.5248 Y-6.9204
G01 X-29.4807 Y-6.9799
G01 X-29.4730 Y-6.9897
G01 X-29.4648 Y-6.9991
G01 X-29.4151 Y-7.0540
G01 X-29.4065 Y-7.0630
G01 X-29.3975 Y-7.0716
G01 X-29.3426 Y-7.1213
G01 X-29.3332 Y-7.1295
G01 X-29.3234 Y-7.1372
G01 X-29.2639 Y-7.1813
G01 X-29.2537 Y-7.1884
G01 X-29.2432 Y-7.1951
G01 X-29.1743 Y-7.2363
G01 X-29.1577 Y-7.2449
G01 X-29.0908 Y-7.2766
G01 X-29.0794 Y-7.2816
G01 X-29.0678 Y-7.2861
G01 X-28.9981 Y-7.3110
G01 X-28.9862 Y-7.3150
G01 X-28.9742 Y-7.3183
G01 X-28.9024 Y-7.3363
G01 X-28.8902 Y-7.3390
G01 X-28.8779 Y-7.3411
G01 X-28.8047 Y-7.3520
G01 X-28.7923 Y-7.3535
G01 X-28.7799 Y-7.3544
G01 X-28.7060 Y-7.3581
G01 X-28.6935 Y-7.3584
G01 X-27.1855 Y-7.3584
G01 X-27.1730 Y-7.3581
G01 X-27.0929 Y-7.3541
G01 X-27.0743 Y-7.3520
G01 X-27.0011 Y-7.3411
G01 X-26.9888 Y-7.3390
G01 X-26.9766 Y-7.3363
G01 X-26.9048 Y-7.3183
G01 X-26.8928 Y-7.3150
G01 X-26.8809 Y-7.3110
G01 X-26.8112 Y-7.2861
G01 X-26.7996 Y-7.2816
G01 X-26.7882 Y-7.2766
G01 X-26.7213 Y-7.2449
G01 X-26.7102 Y-7.2393
G01 X-26.6993 Y-7.2332
G01 X-26.6305 Y-7.1918
G01 X-26.6151 Y-7.1813
G01 X-26.5556 Y-7.1372
G01 X-26.5458 Y-7.1295
G01 X-26.5364 Y-7.1213
G01 X-26.4815 Y-7.0716
G01 X-26.4725 Y-7.0630
G01 X-26.4639 Y-7.0540
G01 X-26.4142 Y-6.9991
G01 X-26.4060 Y-6.9897
G01 X-26.3983 Y-6.9799
G01 X-26.3542 Y-6.9204
G01 X-26.3471 Y-6.9102
G01 X-26.3404 Y-6.8997
G01 X-26.3023 Y-6.8362
G01 X-26.2962 Y-6.8253
G01 X-26.2906 Y-6.8142
G01 X-26.2589 Y-6.7473
G01 X-26.2539 Y-6.7359
G01 X-26.2494 Y-6.7243
G01 X-26.2245 Y-6.6546
G01 X-26.2205 Y-6.6427
G01 X-26.2172 Y-6.6307
G01 X-26.1992 Y-6.5589
G01 X-26.1965 Y-6.5467
G01 X-26.1944 Y-6.5344
G01 X-26.1835 Y-6.4612
G01 X-26.1820 Y-6.4488
G01 X-26.1811 Y-6.4364
G01 X-26.1774 Y-6.3625
G01 X-26.1771 Y-6.3500
G01 X-26.1774 Y-6.3375
G01 X-26.1811 Y-6.2636
G01 X-26.1820 Y-6.2512
G01 X-26.1835 Y-6.2388
G01 X-26.1954 Y-6.1594
G01 X-26.1992 Y-6.1411
G01 X-26.2172 Y-6.0693
G01 X-26.2205 Y-6.0573
G01 X-26.2245 Y-6.0454
G01 X-26.2494 Y-5.9757
G01 X-26.2539 Y-5.9641
G01 X-26.2589 Y-5.9527
G01 X-26.2906 Y-5.8858
G01 X-26.2962 Y-5.8747
G01 X-26.3023 Y-5.8638
G01 X-26.3404 Y-5.8003
G01 X-26.3471 Y-5.7898
G01 X-26.3542 Y-5.7796
G01 X-26.3983 Y-5.7201
G01 X-26.4100 Y-5.7055
G01 X-26.4639 Y-5.6460
G01 X-26.4725 Y-5.6370
G01 X-26.4815 Y-5.6284
G01 X-26.5364 Y-5.5787
G01 X-26.5507 Y-5.5666
G01 X-26.6151 Y-5.5187
G01 X-26.6253 Y-5.5116
G01 X-26.6358 Y-5.5049
G01 X-26.6993 Y-5.4668
G01 X-26.7102 Y-5.4607
G01 X-26.7213 Y-5.4551
G01 X-26.7882 Y-5.4234
G01 X-26.7996 Y-5.4184
G01 X-26.8112 Y-5.4139
G01 X-26.8809 Y-5.3890
G01 X-26.8928 Y-5.3850
G01 X-26.9048 Y-5.3817
G01 X-26.9766 Y-5.3637
G01 X-26.9888 Y-5.3610
G01 X-27.0011 Y-5.3589
G01 X-27.0743 Y-5.3480
G01 X-27.0929 Y-5.3459
G00 Z3.0000
G00 X-28.8048 Y-5.0674
G01 F100.00
G01 Z-0.2200
G01 F400.00
G01 X-28.7184 Y-5.0718
G01 X-28.6935 Y-5.0724
G01 X-27.1855 Y-5.0724
G01 X-27.1606 Y-5.0718
G01 X-27.0866 Y-5.0681
G01 X-27.0742 Y-5.0674
G01 X-27.0494 Y-5.0649
G01 X-26.9638 Y-5.0524
G01 X-26.9392 Y-5.0481
G01 X-26.9149 Y-5.0427
G01 X-26.8431 Y-5.0247
G01 X-26.8310 Y-5.0215
G01 X-26.8072 Y-5.0143
G01 X-26.7257 Y-4.9853
G01 X-26.7024 Y-4.9763
G01 X-26.6796 Y-4.9662
G01 X-26.6015 Y-4.9291
G01 X-26.5904 Y-4.9233
G01 X-26.5687 Y-4.9110
G01 X-26.5052 Y-4.8730
G01 X-26.4842 Y-4.8596
G01 X-26.4638 Y-4.8453
G01 X-26.3944 Y-4.7936
G01 X-26.3751 Y-4.7778
G01 X-26.3658 Y-4.7695
G01 X-26.3109 Y-4.7198
G01 X-26.2929 Y-4.7026
G01 X-26.2757 Y-4.6846
G01 X-26.2260 Y-4.6297
G01 X-26.2097 Y-4.6108
G01 X-26.1943 Y-4.5912
G01 X-26.1502 Y-4.5317
G01 X-26.1359 Y-4.5113
G01 X-26.1225 Y-4.4903
G01 X-26.0845 Y-4.4268
G01 X-26.0722 Y-4.4051
G01 X-26.0610 Y-4.3828
G01 X-26.0293 Y-4.3159
G01 X-26.0192 Y-4.2931
G01 X-26.0102 Y-4.2698
G01 X-25.9853 Y-4.2001
G01 X-25.9775 Y-4.1764
G01 X-25.9708 Y-4.1524
G01 X-25.9528 Y-4.0806
G01 X-25.9474 Y-4.0563
G01 X-25.9431 Y-4.0317
G01 X-25.9323 Y-3.9585
G01 X-25.9292 Y-3.9337
G01 X-25.9274 Y-3.9089
G01 X-25.9237 Y-3.8349
G01 X-25.9231 Y-3.8100
G01 X-25.9237 Y-3.7851
G01 X-25.9274 Y-3.7111
G01 X-25.9292 Y-3.6863
G01 X-25.9323 Y-3.6615
G01 X-25.9431 Y-3.5883
G01 X-25.9474 Y-3.5637
G01 X-25.9528 Y-3.5394
G01 X-25.9708 Y-3.4676
G01 X-25.9775 Y-3.4436
G01 X-25.9853 Y-3.4199
G01 X-26.0102 Y-3.3502
G01 X-26.0192 Y-3.3269
G01 X-26.0293 Y-3.3041
G01 X-26.0610 Y-3.2372
G01 X-26.0722 Y-3.2149
G01 X-26.0845 Y-3.1932
G01 X-26.1225 Y-3.1297
G01 X-26.1359 Y-3.1087
G01 X-26.1502 Y-3.0883
G01 X-26.2019 Y-3.0189
G01 X-26.2097 Y-3.0092
G01 X-26.2260 Y-2.9903
G01 X-26.2757 Y-2.9354
G01 X-26.2929 Y-2.9174
G01 X-26.3109 Y-2.9002
G01 X-26.3658 Y-2.8505
G01 X-26.3847 Y-2.8342
G01 X-26.4043 Y-2.8188
G01 X-26.4638 Y-2.7747
G01 X-26.4842 Y-2.7604
G01 X-26.5052 Y-2.7470
G01 X-26.5687 Y-2.7090
G01 X-26.5904 Y-2.6967
G01 X-26.6127 Y-2.6855
G01 X-26.6796 Y-2.6538
G01 X-26.7024 Y-2.6437
G01 X-26.7257 Y-2.6347
G01 X-26.7954 Y-2.6098
G01 X-26.8191 Y-2.6020
G01 X-26.8431 Y-2.5953
G01 X-26.9149 Y-2.5773
G01 X-26.9392 Y-2.5719
G01 X-26.9638 Y-2.5676
G01 X-27.0494 Y-2.5551
G01 X-27.0618 Y-2.5537
G01 X-27.0866 Y-2.5519
G01 X-27.1606 Y-2.5482
G01 X-27.1855 Y-2.5476
G01 X-28.6935 Y-2.5476
G01 X-28.7184 Y-2.5482
G01 X-28.7924 Y-2.5519
G01 X-28.8172 Y-2.5537
G01 X-28.8296 Y-2.5551
G01 X-28.9152 Y-2.5676
G01 X-28.9398 Y-2.5719
G01 X-28.9641 Y-2.5773
G01 X-29.0359 Y-2.5953
G01 X-29.0599 Y-2.6020
G01 X-29.0718 Y-2.6057
G01 X-29.1533 Y-2.6347
G01 X-29.1766 Y-2.6437
G01 X-29.1994 Y-2.6538
G01 X-29.2775 Y-2.6909
G01 X-29.2886 Y-2.6967
G01 X-29.3103 Y-2.7090
G01 X-29.3738 Y-2.7470
G01 X-29.3948 Y-2.7604
G01 X-29.4152 Y-2.7747
G01 X-29.4846 Y-2.8264
G01 X-29.5039 Y-2.8422
G01 X-29.5681 Y-2.9002
G01 X-29.5861 Y-2.9174
G01 X-29.6033 Y-2.9354
G01 X-29.6530 Y-2.9903
G01 X-29.6693 Y-3.0092
G01 X-29.6847 Y-3.0288
G01 X-29.7288 Y-3.0883
G01 X-29.7431 Y-3.1087
G01 X-29.7565 Y-3.1297
G01 X-29.7945 Y-3.1932
G01 X-29.8068 Y-3.2149
G01 X-29.8180 Y-3.2372
G01 X-29.8497 Y-3.3041
G01 X-29.8598 Y-3.3269
G01 X-29.8644 Y-3.3385
G01 X-29.8937 Y-3.4199
G01 X-29.9015 Y-3.4436
G01 X-29.9082 Y-3.4676
G01 X-29.9262 Y-3.5394
G01 X-29.9316 Y-3.5637
G01 X-29.9359 Y-3.5883
G01 X-29.9467 Y-3.6615
G01 X-29.9484 Y-3.6739
G01 X-29.9509 Y-3.6987
G01 X-29.9553 Y-3.7851
G01 X-29.9559 Y-3.8100
G01 X-29.9553 Y-3.8349
G01 X-29.9509 Y-3.9213
G01 X-29.9498 Y-3.9337
G01 X-29.9467 Y-3.9585
G01 X-29.9359 Y-4.0317
G01 X-29.9316 Y-4.0563
G01 X-29.9262 Y-4.0806
G01 X-29.9082 Y-4.1524
G01 X-29.9015 Y-4.1764
G01 X-29.8937 Y-4.2001
G01 X-29.8688 Y-4.2698
G01 X-29.8598 Y-4.2931
G01 X-29.8497 Y-4.3159
G01 X-29.8180 Y-4.3828
G01 X-29.8126 Y-4.3940
G01 X-29.8008 Y-4.4160
G01 X-29.7565 Y-4.4903
G01 X-29.7431 Y-4.5113
G01 X-29.7288 Y-4.5317
G01 X-29.6847 Y-4.5912
G01 X-29.6693 Y-4.6108
G01 X-29.6530 Y-4.6297
G01 X-29.6033 Y-4.6846
G01 X-29.5861 Y-4.7026
G01 X-29.5772 Y-4.7113
G01 X-29.5132 Y-4.7695
G01 X-29.4943 Y-4.7858
G01 X-29.4747 Y-4.8012
G01 X-29.4051 Y-4.8526
G01 X-29.3948 Y-4.8596
G01 X-29.3738 Y-4.8730
G01 X-29.3103 Y-4.9110
G01 X-29.2886 Y-4.9233
G01 X-29.2663 Y-4.9345
G01 X-29.1994 Y-4.9662
G01 X-29.1766 Y-4.9763
G01 X-29.1533 Y-4.9853
G01 X-29.0836 Y-5.0102
G01 X-29.0599 Y-5.0180
G01 X-29.0359 Y-5.0247
G01 X-28.9641 Y-5.0427
G01 X-28.9398 Y-5.0481
G01 X-28.9152 Y-5.0524
G01 X-28.8296 Y-5.0649
G01 X-28.8048 Y-5.0674
G00 Z3.0000
G00 X-28.7861 Y-4.8141
G01 F100.00
G01 Z-0.2200
G01 F400.00
G01 X-28.7060 Y-4.8181
G01 X-28.6935 Y-4.8184
G01 X-27.1855 Y-4.8184
G01 X-27.1730 Y-4.8181
G01 X-27.0929 Y-4.8141
G01 X-27.0743 Y-4.8120
G01 X-27.0011 Y-4.8011
G01 X-26.9888 Y-4.7990
G01 X-26.9766 Y-4.7963
G01 X-26.9048 Y-4.7783
G01 X-26.8928 Y-4.7750
G01 X-26.8809 Y-4.7710
G01 X-26.8112 Y-4.7461
G01 X-26.7996 Y-4.7416
G01 X-26.7882 Y-4.7366
G01 X-26.7213 Y-4.7049
G01 X-26.7102 Y-4.6993
G01 X-26.6993 Y-4.6932
G01 X-26.6305 Y-4.6518
G01 X-26.6151 Y-4.6413
G01 X-26.5556 Y-4.5972
G01 X-26.5458 Y-4.5895
G01 X-26.5364 Y-4.5813
G01 X-26.4815 Y-4.5316
G01 X-26.4725 Y-4.5230
G01 X-26.4639 Y-4.5140
G01 X-26.4142 Y-4.4591
G01 X-26.4060 Y-4.4497
G01 X-26.3983 Y-4.4399
G01 X-26.3542 Y-4.3804
G01 X-26.3471 Y-4.3702
G01 X-26.3404 Y-4.3597
G01 X-26.3023 Y-4.2962
G01 X-26.2962 Y-4.2853
G01 X-26.2906 Y-4.2742
G01 X-26.2589 Y-4.2073
G01 X-26.2539 Y-4.1959
G01 X-26.2494 Y-4.1843
G01 X-26.2245 Y-4.1146
G01 X-26.2205 Y-4.1027
G01 X-26.2172 Y-4.0907
G01 X-26.1992 Y-4.0189
G01 X-26.1965 Y-4.0067
G01 X-26.1944 Y-3.9944
G01 X-26.1835 Y-3.9212
G01 X-26.1820 Y-3.9088
G01 X-26.1811 Y-3.8964
G01 X-26.1774 Y-3.8225
G01 X-26.1771 Y-3.8100
G01 X-26.1774 Y-3.7975
G01 X-26.1811 Y-3.7236
G01 X-26.1820 Y-3.7112
G01 X-26.1835 Y-3.6988
G01 X-26.1944 Y-3.6256
G01 X-26.1965 Y-3.6133
G01 X-26.1992 Y-3.6011
G01 X-26.2172 Y-3.5293
G01 X-26.2205 Y-3.5173
G01 X-26.2245 Y-3.5054
G01 X-26.2494 Y-3.4357
G01 X-26.2539 Y-3.4241
G01 X-26.2589 Y-3.4127
G01 X-26.2906 Y-3.3458
G01 X-26.2962 Y-3.3347
G01 X-26.3023 Y-3.3238
G01 X-26.3437 Y-3.2550
G01 X-26.3542 Y-3.2396
G01 X-26.3983 Y-3.1801
G01 X-26.4060 Y-3.1703
G01 X-26.4142 Y-3.1609
G01 X-26.4639 Y-3.1060
G01 X-26.4725 Y-3.0970
G01 X-26.4815 Y-3.0884
G01 X-26.5364 Y-3.0387
G01 X-26.5458 Y-3.0305
G01 X-26.5556 Y-3.0228
G01 X-26.6151 Y-2.9787
G01 X-26.6253 Y-2.9716
G01 X-26.6358 Y-2.9649
G01 X-26.7047 Y-2.9237
G01 X-26.7213 Y-2.9151
G01 X-26.7882 Y-2.8834
G01 X-26.7996 Y-2.8784
G01 X-26.8112 Y-2.8739
G01 X-26.8809 Y-2.8490
G01 X-26.8928 Y-2.8450
G01 X-26.9048 Y-2.8417
G01 X-26.9766 Y-2.8237
G01 X-26.9888 Y-2.8210
G01 X-27.0011 Y-2.8189
G01 X-27.0743 Y-2.8080
G01 X-27.0867 Y-2.8065
G01 X-27.0991 Y-2.8056
G01 X-27.1730 Y-2.8019
G01 X-27.1855 Y-2.8016
G01 X-28.6935 Y-2.8016
G01 X-28.7060 Y-2.8019
G01 X-28.7861 Y-2.8059
G01 X-28.8047 Y-2.8080
G01 X-28.8779 Y-2.8189
G01 X-28.8902 Y-2.8210
G01 X-28.9024 Y-2.8237
G01 X-28.9742 Y-2.8417
G01 X-28.9862 Y-2.8450
G01 X-28.9981 Y-2.8490
G01 X-29.0678 Y-2.8739
G01 X-29.0794 Y-2.8784
G01 X-29.0908 Y-2.8834
G01 X-29.1577 Y-2.9151
G01 X-29.1688 Y-2.9207
G01 X-29.1797 Y-2.9268
G01 X-29.2485 Y-2.9682
G01 X-29.2639 Y-2.9787
G01 X-29.3234 Y-3.0228
G01 X-29.3332 Y-3.0305
G01 X-29.3426 Y-3.0387
G01 X-29.3975 Y-3.0884
G01 X-29.4065 Y-3.0970
G01 X-29.4151 Y-3.1060
G01 X-29.4648 Y-3.1609
G01 X-29.4730 Y-3.1703
G01 X-29.4807 Y-3.1801
G01 X-29.5248 Y-3.2396
G01 X-29.5319 Y-3.2498
G01 X-29.5386 Y-3.2603
G01 X-29.5767 Y-3.3238
G01 X-29.5857 Y-3.3402
G01 X-29.6201 Y-3.4127
G01 X-29.6251 Y-3.4241
G01 X-29.6296 Y-3.4357
G01 X-29.6545 Y-3.5054
G01 X-29.6585 Y-3.5173
G01 X-29.6618 Y-3.5293
G01 X-29.6798 Y-3.6011
G01 X-29.6825 Y-3.6133
G01 X-29.6846 Y-3.6256
G01 X-29.6955 Y-3.6988
G01 X-29.6970 Y-3.7112
G01 X-29.6979 Y-3.7236
G01 X-29.7016 Y-3.7975
G01 X-29.7019 Y-3.8100
G01 X-29.7016 Y-3.8225
G01 X-29.6979 Y-3.8964
G01 X-29.6963 Y-3.9150
G01 X-29.6846 Y-3.9944
G01 X-29.6825 Y-4.0067
G01 X-29.6798 Y-4.0189
G01 X-29.6618 Y-4.0907
G01 X-29.6585 Y-4.1027
G01 X-29.6545 Y-4.1146
G01 X-29.6274 Y-4.1901
G01 X-29.6201 Y-4.2073
G01 X-29.5884 Y-4.2742
G01 X-29.5828 Y-4.2853
G01 X-29.5767 Y-4.2962
G01 X-29.5386 Y-4.3597
G01 X-29.5319 Y-4.3702
G01 X-29.5248 Y-4.3804
G01 X-29.4807 Y-4.4399
G01 X-29.4730 Y-4.4497
G01 X-29.4648 Y-4.4591
G01 X-29.4151 Y-4.5140
G01 X-29.4065 Y-4.5230
G01 X-29.3975 Y-4.5316
G01 X-29.3426 Y-4.5813
G01 X-29.3332 Y-4.5895
G01 X-29.3234 Y-4.5972
G01 X-29.2639 Y-4.6413
G01 X-29.2537 Y-4.6484
G01 X-29.2432 Y-4.6551
G01 X-29.1797 Y-4.6932
G01 X-29.1688 Y-4.6993
G01 X-29.1577 Y-4.7049
G01 X-29.0908 Y-4.7366
G01 X-29.0794 Y-4.7416
G01 X-29.0678 Y-4.7461
G01 X-28.9981 Y-4.7710
G01 X-28.9862 Y-4.7750
G01 X-28.9742 Y-4.7783
G01 X-28.9024 Y-4.7963
G01 X-28.8902 Y-4.7990
G01 X-28.8779 Y-4.8011
G01 X-28.8047 Y-4.8120
G01 X-28.7861 Y-4.8141
G00 Z3.0000
G00 X-27.0929 Y-0.2659
G01 F100.00
G01 Z-0.2200
G01 F400.00
G01 X-27.1730 Y-0.2619
G01 X-27.1855 Y-0.2616
G01 X-28.6935 Y-0.2616
G01 X-28.7060 Y-0.2619
G01 X-28.7861 Y-0.2659
G01 X-28.8047 Y-0.2680
G01 X-28.8779 Y-0.2789
G01 X-28.8902 Y-0.2810
G01 X-28.9024 Y-0.2837
G01 X-28.9742 Y-0.3017
G01 X-28.9862 Y-0.3050
G01 X-28.9981 Y-0.3090
G01 X-29.0678 Y-0.3339
G01 X-29.0794 Y-0.3384
G01 X-29.0908 Y-0.3434
G01 X-29.1577 Y-0.3751
G01 X-29.1688 Y-0.3807
G01 X-29.1797 Y-0.3868
G01 X-29.2485 Y-0.4282
G01 X-29.2639 Y-0.4387
G01 X-29.3234 Y-0.4828
G01 X-29.3332 Y-0.4905
G01 X-29.3426 Y-0.4987
G01 X-29.3975 Y-0.5484
G01 X-29.4065 Y-0.5570
G01 X-29.4151 Y-0.5660
G01 X-29.4648 Y-0.6209
G01 X-29.4730 Y-0.6303
G01 X-29.4807 Y-0.6401
G01 X-29.5248 Y-0.6996
G01 X-29.5319 Y-0.7098
G01 X-29.5386 Y-0.7203
G01 X-29.5767 Y-0.7838
G01 X-29.5828 Y-0.7947
G01 X-29.5884 Y-0.8058
G01 X-29.6201 Y-0.8727
G01 X-29.6251 Y-0.8841
G01 X-29.6296 Y-0.8957
G01 X-29.6545 Y-0.9654
G01 X-29.6585 Y-0.9773
G01 X-29.6618 Y-0.9893
G01 X-29.6798 Y-1.0611
G01 X-29.6825 Y-1.0733
G01 X-29.6846 Y-1.0856
G01 X-29.6955 Y-1.1588
G01 X-29.6970 Y-1.1712
G01 X-29.6979 Y-1.1836
G01 X-29.7016 Y-1.2575
G01 X-29.7019 Y-1.2700
G01 X-29.7016 Y-1.2825
G01 X-29.6979 Y-1.3564
G01 X-29.6970 Y-1.3688
G01 X-29.6955 Y-1.3812
G01 X-29.6846 Y-1.4544
G01 X-29.6825 Y-1.4667
G01 X-29.6798 Y-1.4789
G01 X-29.6618 Y-1.5507
G01 X-29.6585 Y-1.5627
G01 X-29.6545 Y-1.5746
G01 X-29.6296 Y-1.6443
G01 X-29.6251 Y-1.6559
G01 X-29.6201 Y-1.6673
G01 X-29.5884 Y-1.7342
G01 X-29.5828 Y-1.7453
G01 X-29.5767 Y-1.7562
G01 X-29.5353 Y-1.8250
G01 X-29.5248 Y-1.8404
