(G-CODE GENERATED BY FLATCAM v8.994 - www.flatcam.org - Version Date: 2020/11/7)

(Name: drill_1_16.xln_mill_1_cnc)
(Type: G-code from Geometry)
(Units: MM)

(Created on Friday, 25 March 2022 at 13:38)

(This preprocessor is the default preprocessor used by FlatCAM.)
(It is made to work with MACH3 compatible motion controllers.)

(TOOL DIAMETER: 1.0 mm)
(Feedrate_XY: 400.0 mm/min)
(Feedrate_Z: 100.0 mm/min)
(Feedrate rapids 800.0 mm/min)

(Z_Cut: -1.65 mm)
(DepthPerCut: 0.25 mm <=>7 passes)
(Z_Move: 3.0 mm)
(Z Start: None mm)
(Z End: 15.0 mm)
(X,Y End: None mm)
(Steps per circle: 64)
(Preprocessor Geometry: default)

(X range:   11.2950 ...   53.3400  mm)
(Y range:   67.3020 ...   98.3060  mm)

(Spindle Speed: 29000.0 RPM)
G21
G90
G94

G01 F400.00

M5
G00 Z15.0000
G00 X0.0000 Y0.0000
T2
M6    
(MSG, Change to Tool Dia = 1.0000)
M0
G00 Z15.0000

M03 S29000.0
G01 F400.00
G00 X25.4080 Y67.3100
G01 F100.00
G01 Z-0.2500
G01 F400.00
G01 X25.4074 Y67.3069
G01 X25.4057 Y67.3043
G01 X25.4031 Y67.3026
G01 X25.4000 Y67.3020
G01 X25.3969 Y67.3026
G01 X25.3943 Y67.3043
G01 X25.3926 Y67.3069
G01 X25.3920 Y67.3100
G01 X25.3926 Y67.3131
G01 X25.3943 Y67.3157
G01 X25.3969 Y67.3174
G01 X25.4000 Y67.3180
G01 X25.4031 Y67.3174
G01 X25.4057 Y67.3157
G01 X25.4074 Y67.3131
G01 X25.4080 Y67.3100
G00 X25.4080 Y67.3100
G01 F100.00
G01 Z-0.5000
G01 F400.00
G01 X25.4074 Y67.3069
G01 X25.4057 Y67.3043
G01 X25.4031 Y67.3026
G01 X25.4000 Y67.3020
G01 X25.3969 Y67.3026
G01 X25.3943 Y67.3043
G01 X25.3926 Y67.3069
G01 X25.3920 Y67.3100
G01 X25.3926 Y67.3131
G01 X25.3943 Y67.3157
G01 X25.3969 Y67.3174
G01 X25.4000 Y67.3180
G01 X25.4031 Y67.3174
G01 X25.4057 Y67.3157
G01 X25.4074 Y67.3131
G01 X25.4080 Y67.3100
G00 X25.4080 Y67.3100
G01 F100.00
G01 Z-0.7500
G01 F400.00
G01 X25.4074 Y67.3069
G01 X25.4057 Y67.3043
G01 X25.4031 Y67.3026
G01 X25.4000 Y67.3020
G01 X25.3969 Y67.3026
G01 X25.3943 Y67.3043
G01 X25.3926 Y67.3069
G01 X25.3920 Y67.3100
G01 X25.3926 Y67.3131
G01 X25.3943 Y67.3157
G01 X25.3969 Y67.3174
G01 X25.4000 Y67.3180
G01 X25.4031 Y67.3174
G01 X25.4057 Y67.3157
G01 X25.4074 Y67.3131
G01 X25.4080 Y67.3100
G00 X25.4080 Y67.3100
G01 F100.00
G01 Z-1.0000
G01 F400.00
G01 X25.4074 Y67.3069
G01 X25.4057 Y67.3043
G01 X25.4031 Y67.3026
G01 X25.4000 Y67.3020
G01 X25.3969 Y67.3026
G01 X25.3943 Y67.3043
G01 X25.3926 Y67.3069
G01 X25.3920 Y67.3100
G01 X25.3926 Y67.3131
G01 X25.3943 Y67.3157
G01 X25.3969 Y67.3174
G01 X25.4000 Y67.3180
G01 X25.4031 Y67.3174
G01 X25.4057 Y67.3157
G01 X25.4074 Y67.3131
G01 X25.4080 Y67.3100
G00 X25.4080 Y67.3100
G01 F100.00
G01 Z-1.2500
G01 F400.00
G01 X25.4074 Y67.3069
G01 X25.4057 Y67.3043
G01 X25.4031 Y67.3026
G01 X25.4000 Y67.3020
G01 X25.3969 Y67.3026
G01 X25.3943 Y67.3043
G01 X25.3926 Y67.3069
G01 X25.3920 Y67.3100
G01 X25.3926 Y67.3131
G01 X25.3943 Y67.3157
G01 X25.3969 Y67.3174
G01 X25.4000 Y67.3180
G01 X25.4031 Y67.3174
G01 X25.4057 Y67.3157
G01 X25.4074 Y67.3131
G01 X25.4080 Y67.3100
G00 X25.4080 Y67.3100
G01 F100.00
G01 Z-1.5000
G01 F400.00
G01 X25.4074 Y67.3069
G01 X25.4057 Y67.3043
G01 X25.4031 Y67.3026
G01 X25.4000 Y67.3020
G01 X25.3969 Y67.3026
G01 X25.3943 Y67.3043
G01 X25.3926 Y67.3069
G01 X25.3920 Y67.3100
G01 X25.3926 Y67.3131
G01 X25.3943 Y67.3157
G01 X25.3969 Y67.3174
G01 X25.4000 Y67.3180
G01 X25.4031 Y67.3174
G01 X25.4057 Y67.3157
G01 X25.4074 Y67.3131
G01 X25.4080 Y67.3100
G00 X25.4080 Y67.3100
G01 F100.00
G01 Z-1.6500
G01 F400.00
G01 X25.4074 Y67.3069
G01 X25.4057 Y67.3043
G01 X25.4031 Y67.3026
G01 X25.4000 Y67.3020
G01 X25.3969 Y67.3026
G01 X25.3943 Y67.3043
G01 X25.3926 Y67.3069
G01 X25.3920 Y67.3100
G01 X25.3926 Y67.3131
G01 X25.3943 Y67.3157
G01 X25.3969 Y67.3174
G01 X25.4000 Y67.3180
G01 X25.4031 Y67.3174
G01 X25.4057 Y67.3157
G01 X25.4074 Y67.3131
G01 X25.4080 Y67.3100
G00 Z3.0000
G00 X25.4080 Y74.9300
G01 F100.00
G01 Z-0.2500
G01 F400.00
G01 X25.4074 Y74.9269
G01 X25.4057 Y74.9243
G01 X25.4031 Y74.9226
G01 X25.4000 Y74.9220
G01 X25.3969 Y74.9226
G01 X25.3943 Y74.9243
G01 X25.3926 Y74.9269
G01 X25.3920 Y74.9300
G01 X25.3926 Y74.9331
G01 X25.3943 Y74.9357
G01 X25.3969 Y74.9374
G01 X25.4000 Y74.9380
G01 X25.4031 Y74.9374
G01 X25.4057 Y74.9357
G01 X25.4074 Y74.9331
G01 X25.4080 Y74.9300
G00 X25.4080 Y74.9300
G01 F100.00
G01 Z-0.5000
G01 F400.00
G01 X25.4074 Y74.9269
G01 X25.4057 Y74.9243
G01 X25.4031 Y74.9226
G01 X25.4000 Y74.9220
G01 X25.3969 Y74.9226
G01 X25.3943 Y74.9243
G01 X25.3926 Y74.9269
G01 X25.3920 Y74.9300
G01 X25.3926 Y74.9331
G01 X25.3943 Y74.9357
G01 X25.3969 Y74.9374
G01 X25.4000 Y74.9380
G01 X25.4031 Y74.9374
G01 X25.4057 Y74.9357
G01 X25.4074 Y74.9331
G01 X25.4080 Y74.9300
G00 X25.4080 Y74.9300
G01 F100.00
G01 Z-0.7500
G01 F400.00
G01 X25.4074 Y74.9269
G01 X25.4057 Y74.9243
G01 X25.4031 Y74.9226
G01 X25.4000 Y74.9220
G01 X25.3969 Y74.9226
G01 X25.3943 Y74.9243
G01 X25.3926 Y74.9269
G01 X25.3920 Y74.9300
G01 X25.3926 Y74.9331
G01 X25.3943 Y74.9357
G01 X25.3969 Y74.9374
G01 X25.4000 Y74.9380
G01 X25.4031 Y74.9374
G01 X25.4057 Y74.9357
G01 X25.4074 Y74.9331
G01 X25.4080 Y74.9300
G00 X25.4080 Y74.9300
G01 F100.00
G01 Z-1.0000
G01 F400.00
G01 X25.4074 Y74.9269
G01 X25.4057 Y74.9243
G01 X25.4031 Y74.9226
G01 X25.4000 Y74.9220
G01 X25.3969 Y74.9226
G01 X25.3943 Y74.9243
G01 X25.3926 Y74.9269
G01 X25.3920 Y74.9300
G01 X25.3926 Y74.9331
G01 X25.3943 Y74.9357
G01 X25.3969 Y74.9374
G01 X25.4000 Y74.9380
G01 X25.4031 Y74.9374
G01 X25.4057 Y74.9357
G01 X25.4074 Y74.9331
G01 X25.4080 Y74.9300
G00 X25.4080 Y74.9300
G01 F100.00
G01 Z-1.2500
G01 F400.00
G01 X25.4074 Y74.9269
G01 X25.4057 Y74.9243
G01 X25.4031 Y74.9226
G01 X25.4000 Y74.9220
G01 X25.3969 Y74.9226
G01 X25.3943 Y74.9243
G01 X25.3926 Y74.9269
G01 X25.3920 Y74.9300
G01 X25.3926 Y74.9331
G01 X25.3943 Y74.9357
G01 X25.3969 Y74.9374
G01 X25.4000 Y74.9380
G01 X25.4031 Y74.9374
G01 X25.4057 Y74.9357
G01 X25.4074 Y74.9331
G01 X25.4080 Y74.9300
G00 X25.4080 Y74.9300
G01 F100.00
G01 Z-1.5000
G01 F400.00
G01 X25.4074 Y74.9269
G01 X25.4057 Y74.9243
G01 X25.4031 Y74.9226
G01 X25.4000 Y74.9220
G01 X25.3969 Y74.9226
G01 X25.3943 Y74.9243
G01 X25.3926 Y74.9269
G01 X25.3920 Y74.9300
G01 X25.3926 Y74.9331
G01 X25.3943 Y74.9357
G01 X25.3969 Y74.9374
G01 X25.4000 Y74.9380
G01 X25.4031 Y74.9374
G01 X25.4057 Y74.9357
G01 X25.4074 Y74.9331
G01 X25.4080 Y74.9300
G00 X25.4080 Y74.9300
G01 F100.00
G01 Z-1.6500
G01 F400.00
G01 X25.4074 Y74.9269
G01 X25.4057 Y74.9243
G01 X25.4031 Y74.9226
G01 X25.4000 Y74.9220
G01 X25.3969 Y74.9226
G01 X25.3943 Y74.9243
G01 X25.3926 Y74.9269
G01 X25.3920 Y74.9300
G01 X25.3926 Y74.9331
G01 X25.3943 Y74.9357
G01 X25.3969 Y74.9374
G01 X25.4000 Y74.9380
G01 X25.4031 Y74.9374
G01 X25.4057 Y74.9357
G01 X25.4074 Y74.9331
G01 X25.4080 Y74.9300
G00 Z3.0000
G00 X18.9310 Y88.7730
G01 F100.00
G01 Z-0.2500
G01 F400.00
G01 X18.9304 Y88.7699
G01 X18.9287 Y88.7673
G01 X18.9261 Y88.7656
G01 X18.9230 Y88.7650
G01 X18.9199 Y88.7656
G01 X18.9173 Y88.7673
G01 X18.9156 Y88.7699
G01 X18.9150 Y88.7730
G01 X18.9156 Y88.7761
G01 X18.9173 Y88.7787
G01 X18.9199 Y88.7804
G01 X18.9230 Y88.7810
G01 X18.9261 Y88.7804
G01 X18.9287 Y88.7787
G01 X18.9304 Y88.7761
G01 X18.9310 Y88.7730
G00 X18.9310 Y88.7730
G01 F100.00
G01 Z-0.5000
G01 F400.00
G01 X18.9304 Y88.7699
G01 X18.9287 Y88.7673
G01 X18.9261 Y88.7656
G01 X18.9230 Y88.7650
G01 X18.9199 Y88.7656
G01 X18.9173 Y88.7673
G01 X18.9156 Y88.7699
G01 X18.9150 Y88.7730
G01 X18.9156 Y88.7761
G01 X18.9173 Y88.7787
G01 X18.9199 Y88.7804
G01 X18.9230 Y88.7810
G01 X18.9261 Y88.7804
G01 X18.9287 Y88.7787
G01 X18.9304 Y88.7761
G01 X18.9310 Y88.7730
G00 X18.9310 Y88.7730
G01 F100.00
G01 Z-0.7500
G01 F400.00
G01 X18.9304 Y88.7699
G01 X18.9287 Y88.7673
G01 X18.9261 Y88.7656
G01 X18.9230 Y88.7650
G01 X18.9199 Y88.7656
G01 X18.9173 Y88.7673
G01 X18.9156 Y88.7699
G01 X18.9150 Y88.7730
G01 X18.9156 Y88.7761
G01 X18.9173 Y88.7787
G01 X18.9199 Y88.7804
G01 X18.9230 Y88.7810
G01 X18.9261 Y88.7804
G01 X18.9287 Y88.7787
G01 X18.9304 Y88.7761
G01 X18.9310 Y88.7730
G00 X18.9310 Y88.7730
G01 F100.00
G01 Z-1.0000
G01 F400.00
G01 X18.9304 Y88.7699
G01 X18.9287 Y88.7673
G01 X18.9261 Y88.7656
G01 X18.9230 Y88.7650
G01 X18.9199 Y88.7656
G01 X18.9173 Y88.7673
G01 X18.9156 Y88.7699
G01 X18.9150 Y88.7730
G01 X18.9156 Y88.7761
G01 X18.9173 Y88.7787
G01 X18.9199 Y88.7804
G01 X18.9230 Y88.7810
G01 X18.9261 Y88.7804
G01 X18.9287 Y88.7787
G01 X18.9304 Y88.7761
G01 X18.9310 Y88.7730
G00 X18.9310 Y88.7730
G01 F100.00
G01 Z-1.2500
G01 F400.00
G01 X18.9304 Y88.7699
G01 X18.9287 Y88.7673
G01 X18.9261 Y88.7656
G01 X18.9230 Y88.7650
G01 X18.9199 Y88.7656
G01 X18.9173 Y88.7673
G01 X18.9156 Y88.7699
G01 X18.9150 Y88.7730
G01 X18.9156 Y88.7761
G01 X18.9173 Y88.7787
G01 X18.9199 Y88.7804
G01 X18.9230 Y88.7810
G01 X18.9261 Y88.7804
G01 X18.9287 Y88.7787
G01 X18.9304 Y88.7761
G01 X18.9310 Y88.7730
G00 X18.9310 Y88.7730
G01 F100.00
G01 Z-1.5000
G01 F400.00
G01 X18.9304 Y88.7699
G01 X18.9287 Y88.7673
G01 X18.9261 Y88.7656
G01 X18.9230 Y88.7650
G01 X18.9199 Y88.7656
G01 X18.9173 Y88.7673
G01 X18.9156 Y88.7699
G01 X18.9150 Y88.7730
G01 X18.9156 Y88.7761
G01 X18.9173 Y88.7787
G01 X18.9199 Y88.7804
G01 X18.9230 Y88.7810
G01 X18.9261 Y88.7804
G01 X18.9287 Y88.7787
G01 X18.9304 Y88.7761
G01 X18.9310 Y88.7730
G00 X18.9310 Y88.7730
G01 F100.00
G01 Z-1.6500
G01 F400.00
G01 X18.9304 Y88.7699
G01 X18.9287 Y88.7673
G01 X18.9261 Y88.7656
G01 X18.9230 Y88.7650
G01 X18.9199 Y88.7656
G01 X18.9173 Y88.7673
G01 X18.9156 Y88.7699
G01 X18.9150 Y88.7730
G01 X18.9156 Y88.7761
G01 X18.9173 Y88.7787
G01 X18.9199 Y88.7804
G01 X18.9230 Y88.7810
G01 X18.9261 Y88.7804
G01 X18.9287 Y88.7787
G01 X18.9304 Y88.7761
G01 X18.9310 Y88.7730
G00 Z3.0000
G00 X11.3110 Y88.7730
G01 F100.00
G01 Z-0.2500
G01 F400.00
G01 X11.3104 Y88.7699
G01 X11.3087 Y88.7673
G01 X11.3061 Y88.7656
G01 X11.3030 Y88.7650
G01 X11.2999 Y88.7656
G01 X11.2973 Y88.7673
G01 X11.2956 Y88.7699
G01 X11.2950 Y88.7730
G01 X11.2956 Y88.7761
G01 X11.2973 Y88.7787
G01 X11.2999 Y88.7804
G01 X11.3030 Y88.7810
G01 X11.3061 Y88.7804
G01 X11.3087 Y88.7787
G01 X11.3104 Y88.7761
G01 X11.3110 Y88.7730
G00 X11.3110 Y88.7730
G01 F100.00
G01 Z-0.5000
G01 F400.00
G01 X11.3104 Y88.7699
G01 X11.3087 Y88.7673
G01 X11.3061 Y88.7656
G01 X11.3030 Y88.7650
G01 X11.2999 Y88.7656
G01 X11.2973 Y88.7673
G01 X11.2956 Y88.7699
G01 X11.2950 Y88.7730
G01 X11.2956 Y88.7761
G01 X11.2973 Y88.7787
G01 X11.2999 Y88.7804
G01 X11.3030 Y88.7810
G01 X11.3061 Y88.7804
G01 X11.3087 Y88.7787
G01 X11.3104 Y88.7761
G01 X11.3110 Y88.7730
G00 X11.3110 Y88.7730
G01 F100.00
G01 Z-0.7500
G01 F400.00
G01 X11.3104 Y88.7699
G01 X11.3087 Y88.7673
G01 X11.3061 Y88.7656
G01 X11.3030 Y88.7650
G01 X11.2999 Y88.7656
G01 X11.2973 Y88.7673
G01 X11.2956 Y88.7699
G01 X11.2950 Y88.7730
G01 X11.2956 Y88.7761
G01 X11.2973 Y88.7787
G01 X11.2999 Y88.7804
G01 X11.3030 Y88.7810
G01 X11.3061 Y88.7804
G01 X11.3087 Y88.7787
G01 X11.3104 Y88.7761
G01 X11.3110 Y88.7730
G00 X11.3110 Y88.7730
G01 F100.00
G01 Z-1.0000
G01 F400.00
G01 X11.3104 Y88.7699
G01 X11.3087 Y88.7673
G01 X11.3061 Y88.7656
G01 X11.3030 Y88.7650
G01 X11.2999 Y88.7656
G01 X11.2973 Y88.7673
G01 X11.2956 Y88.7699
G01 X11.2950 Y88.7730
G01 X11.2956 Y88.7761
G01 X11.2973 Y88.7787
G01 X11.2999 Y88.7804
G01 X11.3030 Y88.7810
G01 X11.3061 Y88.7804
G01 X11.3087 Y88.7787
G01 X11.3104 Y88.7761
G01 X11.3110 Y88.7730
G00 X11.3110 Y88.7730
G01 F100.00
G01 Z-1.2500
G01 F400.00
G01 X11.3104 Y88.7699
G01 X11.3087 Y88.7673
G01 X11.3061 Y88.7656
G01 X11.3030 Y88.7650
G01 X11.2999 Y88.7656
G01 X11.2973 Y88.7673
G01 X11.2956 Y88.7699
G01 X11.2950 Y88.7730
G01 X11.2956 Y88.7761
G01 X11.2973 Y88.7787
G01 X11.2999 Y88.7804
G01 X11.3030 Y88.7810
G01 X11.3061 Y88.7804
G01 X11.3087 Y88.7787
G01 X11.3104 Y88.7761
G01 X11.3110 Y88.7730
G00 X11.3110 Y88.7730
G01 F100.00
G01 Z-1.5000
G01 F400.00
G01 X11.3104 Y88.7699
G01 X11.3087 Y88.7673
G01 X11.3061 Y88.7656
G01 X11.3030 Y88.7650
G01 X11.2999 Y88.7656
G01 X11.2973 Y88.7673
G01 X11.2956 Y88.7699
G01 X11.2950 Y88.7730
G01 X11.2956 Y88.7761
G01 X11.2973 Y88.7787
G01 X11.2999 Y88.7804
G01 X11.3030 Y88.7810
G01 X11.3061 Y88.7804
G01 X11.3087 Y88.7787
G01 X11.3104 Y88.7761
G01 X11.3110 Y88.7730
G00 X11.3110 Y88.7730
G01 F100.00
G01 Z-1.6500
G01 F400.00
G01 X11.3104 Y88.7699
G01 X11.3087 Y88.7673
G01 X11.3061 Y88.7656
G01 X11.3030 Y88.7650
G01 X11.2999 Y88.7656
G01 X11.2973 Y88.7673
G01 X11.2956 Y88.7699
G01 X11.2950 Y88.7730
G01 X11.2956 Y88.7761
G01 X11.2973 Y88.7787
G01 X11.2999 Y88.7804
G01 X11.3030 Y88.7810
G01 X11.3061 Y88.7804
G01 X11.3087 Y88.7787
G01 X11.3104 Y88.7761
G01 X11.3110 Y88.7730
G00 Z3.0000
G00 X28.3290 Y90.6780
G01 F100.00
G01 Z-0.2500
G01 F400.00
G01 X28.3284 Y90.6749
G01 X28.3267 Y90.6723
G01 X28.3241 Y90.6706
G01 X28.3210 Y90.6700
G01 X28.3179 Y90.6706
G01 X28.3153 Y90.6723
G01 X28.3136 Y90.6749
G01 X28.3130 Y90.6780
G01 X28.3136 Y90.6811
G01 X28.3153 Y90.6837
G01 X28.3179 Y90.6854
G01 X28.3210 Y90.6860
G01 X28.3241 Y90.6854
G01 X28.3267 Y90.6837
G01 X28.3284 Y90.6811
G01 X28.3290 Y90.6780
G00 X28.3290 Y90.6780
G01 F100.00
G01 Z-0.5000
G01 F400.00
G01 X28.3284 Y90.6749
G01 X28.3267 Y90.6723
G01 X28.3241 Y90.6706
G01 X28.3210 Y90.6700
G01 X28.3179 Y90.6706
G01 X28.3153 Y90.6723
G01 X28.3136 Y90.6749
G01 X28.3130 Y90.6780
G01 X28.3136 Y90.6811
G01 X28.3153 Y90.6837
G01 X28.3179 Y90.6854
G01 X28.3210 Y90.6860
G01 X28.3241 Y90.6854
G01 X28.3267 Y90.6837
G01 X28.3284 Y90.6811
G01 X28.3290 Y90.6780
G00 X28.3290 Y90.6780
G01 F100.00
G01 Z-0.7500
G01 F400.00
G01 X28.3284 Y90.6749
G01 X28.3267 Y90.6723
G01 X28.3241 Y90.6706
G01 X28.3210 Y90.6700
G01 X28.3179 Y90.6706
G01 X28.3153 Y90.6723
G01 X28.3136 Y90.6749
G01 X28.3130 Y90.6780
G01 X28.3136 Y90.6811
G01 X28.3153 Y90.6837
G01 X28.3179 Y90.6854
G01 X28.3210 Y90.6860
G01 X28.3241 Y90.6854
G01 X28.3267 Y90.6837
G01 X28.3284 Y90.6811
G01 X28.3290 Y90.6780
G00 X28.3290 Y90.6780
G01 F100.00
G01 Z-1.0000
G01 F400.00
G01 X28.3284 Y90.6749
G01 X28.3267 Y90.6723
G01 X28.3241 Y90.6706
G01 X28.3210 Y90.6700
G01 X28.3179 Y90.6706
G01 X28.3153 Y90.6723
G01 X28.3136 Y90.6749
G01 X28.3130 Y90.6780
G01 X28.3136 Y90.6811
G01 X28.3153 Y90.6837
G01 X28.3179 Y90.6854
G01 X28.3210 Y90.6860
G01 X28.3241 Y90.6854
G01 X28.3267 Y90.6837
G01 X28.3284 Y90.6811
G01 X28.3290 Y90.6780
G00 X28.3290 Y90.6780
G01 F100.00
G01 Z-1.2500
G01 F400.00
G01 X28.3284 Y90.6749
G01 X28.3267 Y90.6723
G01 X28.3241 Y90.6706
G01 X28.3210 Y90.6700
G01 X28.3179 Y90.6706
G01 X28.3153 Y90.6723
G01 X28.3136 Y90.6749
G01 X28.3130 Y90.6780
G01 X28.3136 Y90.6811
G01 X28.3153 Y90.6837
G01 X28.3179 Y90.6854
G01 X28.3210 Y90.6860
G01 X28.3241 Y90.6854
G01 X28.3267 Y90.6837
G01 X28.3284 Y90.6811
G01 X28.3290 Y90.6780
G00 X28.3290 Y90.6780
G01 F100.00
G01 Z-1.5000
G01 F400.00
G01 X28.3284 Y90.6749
G01 X28.3267 Y90.6723
G01 X28.3241 Y90.6706
G01 X28.3210 Y90.6700
G01 X28.3179 Y90.6706
G01 X28.3153 Y90.6723
G01 X28.3136 Y90.6749
G01 X28.3130 Y90.6780
G01 X28.3136 Y90.6811
G01 X28.3153 Y90.6837
G01 X28.3179 Y90.6854
G01 X28.3210 Y90.6860
G01 X28.3241 Y90.6854
G01 X28.3267 Y90.6837
G01 X28.3284 Y90.6811
G01 X28.3290 Y90.6780
G00 X28.3290 Y90.6780
G01 F100.00
G01 Z-1.6500
G01 F400.00
G01 X28.3284 Y90.6749
G01 X28.3267 Y90.6723
G01 X28.3241 Y90.6706
G01 X28.3210 Y90.6700
G01 X28.3179 Y90.6706
G01 X28.3153 Y90.6723
G01 X28.3136 Y90.6749
G01 X28.3130 Y90.6780
G01 X28.3136 Y90.6811
G01 X28.3153 Y90.6837
G01 X28.3179 Y90.6854
G01 X28.3210 Y90.6860
G01 X28.3241 Y90.6854
G01 X28.3267 Y90.6837
G01 X28.3284 Y90.6811
G01 X28.3290 Y90.6780
G00 Z3.0000
G00 X34.2980 Y90.6780
G01 F100.00
G01 Z-0.2500
G01 F400.00
G01 X34.2974 Y90.6749
G01 X34.2957 Y90.6723
G01 X34.2931 Y90.6706
G01 X34.2900 Y90.6700
G01 X34.2869 Y90.6706
G01 X34.2843 Y90.6723
G01 X34.2826 Y90.6749
G01 X34.2820 Y90.6780
G01 X34.2826 Y90.6811
G01 X34.2843 Y90.6837
G01 X34.2869 Y90.6854
G01 X34.2900 Y90.6860
G01 X34.2931 Y90.6854
G01 X34.2957 Y90.6837
G01 X34.2974 Y90.6811
G01 X34.2980 Y90.6780
G00 X34.2980 Y90.6780
G01 F100.00
G01 Z-0.5000
G01 F400.00
G01 X34.2974 Y90.6749
G01 X34.2957 Y90.6723
G01 X34.2931 Y90.6706
G01 X34.2900 Y90.6700
G01 X34.2869 Y90.6706
G01 X34.2843 Y90.6723
G01 X34.2826 Y90.6749
G01 X34.2820 Y90.6780
G01 X34.2826 Y90.6811
G01 X34.2843 Y90.6837
G01 X34.2869 Y90.6854
G01 X34.2900 Y90.6860
G01 X34.2931 Y90.6854
G01 X34.2957 Y90.6837
G01 X34.2974 Y90.6811
G01 X34.2980 Y90.6780
G00 X34.2980 Y90.6780
G01 F100.00
G01 Z-0.7500
G01 F400.00
G01 X34.2974 Y90.6749
G01 X34.2957 Y90.6723
G01 X34.2931 Y90.6706
G01 X34.2900 Y90.6700
G01 X34.2869 Y90.6706
G01 X34.2843 Y90.6723
G01 X34.2826 Y90.6749
G01 X34.2820 Y90.6780
G01 X34.2826 Y90.6811
G01 X34.2843 Y90.6837
G01 X34.2869 Y90.6854
G01 X34.2900 Y90.6860
G01 X34.2931 Y90.6854
G01 X34.2957 Y90.6837
G01 X34.2974 Y90.6811
G01 X34.2980 Y90.6780
G00 X34.2980 Y90.6780
G01 F100.00
G01 Z-1.0000
G01 F400.00
G01 X34.2974 Y90.6749
G01 X34.2957 Y90.6723
G01 X34.2931 Y90.6706
G01 X34.2900 Y90.6700
G01 X34.2869 Y90.6706
G01 X34.2843 Y90.6723
G01 X34.2826 Y90.6749
G01 X34.2820 Y90.6780
G01 X34.2826 Y90.6811
G01 X34.2843 Y90.6837
G01 X34.2869 Y90.6854
G01 X34.2900 Y90.6860
G01 X34.2931 Y90.6854
G01 X34.2957 Y90.6837
G01 X34.2974 Y90.6811
G01 X34.2980 Y90.6780
G00 X34.2980 Y90.6780
G01 F100.00
G01 Z-1.2500
G01 F400.00
G01 X34.2974 Y90.6749
G01 X34.2957 Y90.6723
G01 X34.2931 Y90.6706
G01 X34.2900 Y90.6700
G01 X34.2869 Y90.6706
G01 X34.2843 Y90.6723
G01 X34.2826 Y90.6749
G01 X34.2820 Y90.6780
G01 X34.2826 Y90.6811
G01 X34.2843 Y90.6837
G01 X34.2869 Y90.6854
G01 X34.2900 Y90.6860
G01 X34.2931 Y90.6854
G01 X34.2957 Y90.6837
G01 X34.2974 Y90.6811
G01 X34.2980 Y90.6780
G00 X34.2980 Y90.6780
G01 F100.00
G01 Z-1.5000
G01 F400.00
G01 X34.2974 Y90.6749
G01 X34.2957 Y90.6723
G01 X34.2931 Y90.6706
G01 X34.2900 Y90.6700
G01 X34.2869 Y90.6706
G01 X34.2843 Y90.6723
G01 X34.2826 Y90.6749
G01 X34.2820 Y90.6780
G01 X34.2826 Y90.6811
G01 X34.2843 Y90.6837
G01 X34.2869 Y90.6854
G01 X34.2900 Y90.6860
G01 X34.2931 Y90.6854
G01 X34.2957 Y90.6837
G01 X34.2974 Y90.6811
G01 X34.2980 Y90.6780
G00 X34.2980 Y90.6780
G01 F100.00
G01 Z-1.6500
G01 F400.00
G01 X34.2974 Y90.6749
G01 X34.2957 Y90.6723
G01 X34.2931 Y90.6706
G01 X34.2900 Y90.6700
G01 X34.2869 Y90.6706
G01 X34.2843 Y90.6723
G01 X34.2826 Y90.6749
G01 X34.2820 Y90.6780
G01 X34.2826 Y90.6811
G01 X34.2843 Y90.6837
G01 X34.2869 Y90.6854
G01 X34.2900 Y90.6860
G01 X34.2931 Y90.6854
G01 X34.2957 Y90.6837
G01 X34.2974 Y90.6811
G01 X34.2980 Y90.6780
G00 Z3.0000
G00 X34.2980 Y98.2980
G01 F100.00
G01 Z-0.2500
G01 F400.00
G01 X34.2974 Y98.2949
G01 X34.2957 Y98.2923
G01 X34.2931 Y98.2906
G01 X34.2900 Y98.2900
G01 X34.2869 Y98.2906
G01 X34.2843 Y98.2923
G01 X34.2826 Y98.2949
G01 X34.2820 Y98.2980
G01 X34.2826 Y98.3011
G01 X34.2843 Y98.3037
G01 X34.2869 Y98.3054
G01 X34.2900 Y98.3060
G01 X34.2931 Y98.3054
G01 X34.2957 Y98.3037
G01 X34.2974 Y98.3011
G01 X34.2980 Y98.2980
G00 X34.2980 Y98.2980
G01 F100.00
G01 Z-0.5000
G01 F400.00
G01 X34.2974 Y98.2949
G01 X34.2957 Y98.2923
G01 X34.2931 Y98.2906
G01 X34.2900 Y98.2900
G01 X34.2869 Y98.2906
G01 X34.2843 Y98.2923
G01 X34.2826 Y98.2949
G01 X34.2820 Y98.2980
G01 X34.2826 Y98.3011
G01 X34.2843 Y98.3037
G01 X34.2869 Y98.3054
G01 X34.2900 Y98.3060
G01 X34.2931 Y98.3054
G01 X34.2957 Y98.3037
G01 X34.2974 Y98.3011
G01 X34.2980 Y98.2980
G00 X34.2980 Y98.2980
G01 F100.00
G01 Z-0.7500
G01 F400.00
G01 X34.2974 Y98.2949
G01 X34.2957 Y98.2923
G01 X34.2931 Y98.2906
G01 X34.2900 Y98.2900
G01 X34.2869 Y98.2906
G01 X34.2843 Y98.2923
G01 X34.2826 Y98.2949
G01 X34.2820 Y98.2980
G01 X34.2826 Y98.3011
G01 X34.2843 Y98.3037
G01 X34.2869 Y98.3054
G01 X34.2900 Y98.3060
G01 X34.2931 Y98.3054
G01 X34.2957 Y98.3037
G01 X34.2974 Y98.3011
G01 X34.2980 Y98.2980
G00 X34.2980 Y98.2980
G01 F100.00
G01 Z-1.0000
G01 F400.00
G01 X34.2974 Y98.2949
G01 X34.2957 Y98.2923
G01 X34.2931 Y98.2906
G01 X34.2900 Y98.2900
G01 X34.2869 Y98.2906
G01 X34.2843 Y98.2923
G01 X34.2826 Y98.2949
G01 X34.2820 Y98.2980
G01 X34.2826 Y98.3011
G01 X34.2843 Y98.3037
G01 X34.2869 Y98.3054
G01 X34.2900 Y98.3060
G01 X34.2931 Y98.3054
G01 X34.2957 Y98.3037
G01 X34.2974 Y98.3011
G01 X34.2980 Y98.2980
G00 X34.2980 Y98.2980
G01 F100.00
G01 Z-1.2500
G01 F400.00
G01 X34.2974 Y98.2949
G01 X34.2957 Y98.2923
G01 X34.2931 Y98.2906
G01 X34.2900 Y98.2900
G01 X34.2869 Y98.2906
G01 X34.2843 Y98.2923
G01 X34.2826 Y98.2949
G01 X34.2820 Y98.2980
G01 X34.2826 Y98.3011
G01 X34.2843 Y98.3037
G01 X34.2869 Y98.3054
G01 X34.2900 Y98.3060
G01 X34.2931 Y98.3054
G01 X34.2957 Y98.3037
G01 X34.2974 Y98.3011
G01 X34.2980 Y98.2980
G00 X34.2980 Y98.2980
G01 F100.00
G01 Z-1.5000
G01 F400.00
G01 X34.2974 Y98.2949
G01 X34.2957 Y98.2923
G01 X34.2931 Y98.2906
G01 X34.2900 Y98.2900
G01 X34.2869 Y98.2906
G01 X34.2843 Y98.2923
G01 X34.2826 Y98.2949
G01 X34.2820 Y98.2980
G01 X34.2826 Y98.3011
G01 X34.2843 Y98.3037
G01 X34.2869 Y98.3054
G01 X34.2900 Y98.3060
G01 X34.2931 Y98.3054
G01 X34.2957 Y98.3037
G01 X34.2974 Y98.3011
G01 X34.2980 Y98.2980
G00 X34.2980 Y98.2980
G01 F100.00
G01 Z-1.6500
G01 F400.00
G01 X34.2974 Y98.2949
G01 X34.2957 Y98.2923
G01 X34.2931 Y98.2906
G01 X34.2900 Y98.2900
G01 X34.2869 Y98.2906
G01 X34.2843 Y98.2923
G01 X34.2826 Y98.2949
G01 X34.2820 Y98.2980
G01 X34.2826 Y98.3011
G01 X34.2843 Y98.3037
G01 X34.2869 Y98.3054
G01 X34.2900 Y98.3060
G01 X34.2931 Y98.3054
G01 X34.2957 Y98.3037
G01 X34.2974 Y98.3011
G01 X34.2980 Y98.2980
G00 Z3.0000
G00 X28.3290 Y98.2980
G01 F100.00
G01 Z-0.2500
G01 F400.00
G01 X28.3284 Y98.2949
G01 X28.3267 Y98.2923
G01 X28.3241 Y98.2906
G01 X28.3210 Y98.2900
G01 X28.3179 Y98.2906
G01 X28.3153 Y98.2923
G01 X28.3136 Y98.2949
G01 X28.3130 Y98.2980
G01 X28.3136 Y98.3011
G01 X28.3153 Y98.3037
G01 X28.3179 Y98.3054
G01 X28.3210 Y98.3060
G01 X28.3241 Y98.3054
G01 X28.3267 Y98.3037
G01 X28.3284 Y98.3011
G01 X28.3290 Y98.2980
G00 X28.3290 Y98.2980
G01 F100.00
G01 Z-0.5000
G01 F400.00
G01 X28.3284 Y98.2949
G01 X28.3267 Y98.2923
G01 X28.3241 Y98.2906
G01 X28.3210 Y98.2900
G01 X28.3179 Y98.2906
G01 X28.3153 Y98.2923
G01 X28.3136 Y98.2949
G01 X28.3130 Y98.2980
G01 X28.3136 Y98.3011
G01 X28.3153 Y98.3037
G01 X28.3179 Y98.3054
G01 X28.3210 Y98.3060
G01 X28.3241 Y98.3054
G01 X28.3267 Y98.3037
G01 X28.3284 Y98.3011
G01 X28.3290 Y98.2980
G00 X28.3290 Y98.2980
G01 F100.00
G01 Z-0.7500
G01 F400.00
G01 X28.3284 Y98.2949
G01 X28.3267 Y98.2923
G01 X28.3241 Y98.2906
G01 X28.3210 Y98.2900
G01 X28.3179 Y98.2906
G01 X28.3153 Y98.2923
G01 X28.3136 Y98.2949
G01 X28.3130 Y98.2980
G01 X28.3136 Y98.3011
G01 X28.3153 Y98.3037
G01 X28.3179 Y98.3054
G01 X28.3210 Y98.3060
G01 X28.3241 Y98.3054
G01 X28.3267 Y98.3037
G01 X28.3284 Y98.3011
G01 X28.3290 Y98.2980
G00 X28.3290 Y98.2980
G01 F100.00
G01 Z-1.0000
G01 F400.00
G01 X28.3284 Y98.2949
G01 X28.3267 Y98.2923
G01 X28.3241 Y98.2906
G01 X28.3210 Y98.2900
G01 X28.3179 Y98.2906
G01 X28.3153 Y98.2923
G01 X28.3136 Y98.2949
G01 X28.3130 Y98.2980
G01 X28.3136 Y98.3011
G01 X28.3153 Y98.3037
G01 X28.3179 Y98.3054
G01 X28.3210 Y98.3060
G01 X28.3241 Y98.3054
G01 X28.3267 Y98.3037
G01 X28.3284 Y98.3011
G01 X28.3290 Y98.2980
G00 X28.3290 Y98.2980
G01 F100.00
G01 Z-1.2500
G01 F400.00
G01 X28.3284 Y98.2949
G01 X28.3267 Y98.2923
G01 X28.3241 Y98.2906
G01 X28.3210 Y98.2900
G01 X28.3179 Y98.2906
G01 X28.3153 Y98.2923
G01 X28.3136 Y98.2949
G01 X28.3130 Y98.2980
G01 X28.3136 Y98.3011
G01 X28.3153 Y98.3037
G01 X28.3179 Y98.3054
G01 X28.3210 Y98.3060
G01 X28.3241 Y98.3054
G01 X28.3267 Y98.3037
G01 X28.3284 Y98.3011
G01 X28.3290 Y98.2980
G00 X28.3290 Y98.2980
G01 F100.00
G01 Z-1.5000
G01 F400.00
G01 X28.3284 Y98.2949
G01 X28.3267 Y98.2923
G01 X28.3241 Y98.2906
G01 X28.3210 Y98.2900
G01 X28.3179 Y98.2906
G01 X28.3153 Y98.2923
G01 X28.3136 Y98.2949
G01 X28.3130 Y98.2980
G01 X28.3136 Y98.3011
G01 X28.3153 Y98.3037
G01 X28.3179 Y98.3054
G01 X28.3210 Y98.3060
G01 X28.3241 Y98.3054
G01 X28.3267 Y98.3037
G01 X28.3284 Y98.3011
G01 X28.3290 Y98.2980
G00 X28.3290 Y98.2980
G01 F100.00
G01 Z-1.6500
G01 F400.00
G01 X28.3284 Y98.2949
G01 X28.3267 Y98.2923
G01 X28.3241 Y98.2906
G01 X28.3210 Y98.2900
G01 X28.3179 Y98.2906
G01 X28.3153 Y98.2923
G01 X28.3136 Y98.2949
G01 X28.3130 Y98.2980
G01 X28.3136 Y98.3011
G01 X28.3153 Y98.3037
G01 X28.3179 Y98.3054
G01 X28.3210 Y98.3060
G01 X28.3241 Y98.3054
G01 X28.3267 Y98.3037
G01 X28.3284 Y98.3011
G01 X28.3290 Y98.2980
G00 Z3.0000
G00 X46.2360 Y98.2980
G01 F100.00
G01 Z-0.2500
G01 F400.00
G01 X46.2354 Y98.2949
G01 X46.2337 Y98.2923
G01 X46.2311 Y98.2906
G01 X46.2280 Y98.2900
G01 X46.2249 Y98.2906
G01 X46.2223 Y98.2923
G01 X46.2206 Y98.2949
G01 X46.2200 Y98.2980
G01 X46.2206 Y98.3011
G01 X46.2223 Y98.3037
G01 X46.2249 Y98.3054
G01 X46.2280 Y98.3060
G01 X46.2311 Y98.3054
G01 X46.2337 Y98.3037
G01 X46.2354 Y98.3011
G01 X46.2360 Y98.2980
G00 X46.2360 Y98.2980
G01 F100.00
G01 Z-0.5000
G01 F400.00
G01 X46.2354 Y98.2949
G01 X46.2337 Y98.2923
G01 X46.2311 Y98.2906
G01 X46.2280 Y98.2900
G01 X46.2249 Y98.2906
G01 X46.2223 Y98.2923
G01 X46.2206 Y98.2949
G01 X46.2200 Y98.2980
G01 X46.2206 Y98.3011
G01 X46.2223 Y98.3037
G01 X46.2249 Y98.3054
G01 X46.2280 Y98.3060
G01 X46.2311 Y98.3054
G01 X46.2337 Y98.3037
G01 X46.2354 Y98.3011
G01 X46.2360 Y98.2980
G00 X46.2360 Y98.2980
G01 F100.00
G01 Z-0.7500
G01 F400.00
G01 X46.2354 Y98.2949
G01 X46.2337 Y98.2923
G01 X46.2311 Y98.2906
G01 X46.2280 Y98.2900
G01 X46.2249 Y98.2906
G01 X46.2223 Y98.2923
G01 X46.2206 Y98.2949
G01 X46.2200 Y98.2980
G01 X46.2206 Y98.3011
G01 X46.2223 Y98.3037
G01 X46.2249 Y98.3054
G01 X46.2280 Y98.3060
G01 X46.2311 Y98.3054
G01 X46.2337 Y98.3037
G01 X46.2354 Y98.3011
G01 X46.2360 Y98.2980
G00 X46.2360 Y98.2980
G01 F100.00
G01 Z-1.0000
G01 F400.00
G01 X46.2354 Y98.2949
G01 X46.2337 Y98.2923
G01 X46.2311 Y98.2906
G01 X46.2280 Y98.2900
G01 X46.2249 Y98.2906
G01 X46.2223 Y98.2923
G01 X46.2206 Y98.2949
G01 X46.2200 Y98.2980
G01 X46.2206 Y98.3011
G01 X46.2223 Y98.3037
G01 X46.2249 Y98.3054
G01 X46.2280 Y98.3060
G01 X46.2311 Y98.3054
G01 X46.2337 Y98.3037
G01 X46.2354 Y98.3011
G01 X46.2360 Y98.2980
G00 X46.2360 Y98.2980
G01 F100.00
G01 Z-1.2500
G01 F400.00
G01 X46.2354 Y98.2949
G01 X46.2337 Y98.2923
G01 X46.2311 Y98.2906
G01 X46.2280 Y98.2900
G01 X46.2249 Y98.2906
G01 X46.2223 Y98.2923
G01 X46.2206 Y98.2949
G01 X46.2200 Y98.2980
G01 X46.2206 Y98.3011
G01 X46.2223 Y98.3037
G01 X46.2249 Y98.3054
G01 X46.2280 Y98.3060
G01 X46.2311 Y98.3054
G01 X46.2337 Y98.3037
G01 X46.2354 Y98.3011
G01 X46.2360 Y98.2980
G00 X46.2360 Y98.2980
G01 F100.00
G01 Z-1.5000
G01 F400.00
G01 X46.2354 Y98.2949
G01 X46.2337 Y98.2923
G01 X46.2311 Y98.2906
G01 X46.2280 Y98.2900
G01 X46.2249 Y98.2906
G01 X46.2223 Y98.2923
G01 X46.2206 Y98.2949
G01 X46.2200 Y98.2980
G01 X46.2206 Y98.3011
G01 X46.2223 Y98.3037
G01 X46.2249 Y98.3054
G01 X46.2280 Y98.3060
G01 X46.2311 Y98.3054
G01 X46.2337 Y98.3037
G01 X46.2354 Y98.3011
G01 X46.2360 Y98.2980
G00 X46.2360 Y98.2980
G01 F100.00
G01 Z-1.6500
G01 F400.00
G01 X46.2354 Y98.2949
G01 X46.2337 Y98.2923
G01 X46.2311 Y98.2906
G01 X46.2280 Y98.2900
G01 X46.2249 Y98.2906
G01 X46.2223 Y98.2923
G01 X46.2206 Y98.2949
G01 X46.2200 Y98.2980
G01 X46.2206 Y98.3011
G01 X46.2223 Y98.3037
G01 X46.2249 Y98.3054
G01 X46.2280 Y98.3060
G01 X46.2311 Y98.3054
G01 X46.2337 Y98.3037
G01 X46.2354 Y98.3011
G01 X46.2360 Y98.2980
G00 Z3.0000
G00 X46.2360 Y90.6780
G01 F100.00
G01 Z-0.2500
G01 F400.00
G01 X46.2354 Y90.6749
G01 X46.2337 Y90.6723
G01 X46.2311 Y90.6706
G01 X46.2280 Y90.6700
G01 X46.2249 Y90.6706
G01 X46.2223 Y90.6723
G01 X46.2206 Y90.6749
G01 X46.2200 Y90.6780
G01 X46.2206 Y90.6811
G01 X46.2223 Y90.6837
G01 X46.2249 Y90.6854
G01 X46.2280 Y90.6860
G01 X46.2311 Y90.6854
G01 X46.2337 Y90.6837
G01 X46.2354 Y90.6811
G01 X46.2360 Y90.6780
G00 X46.2360 Y90.6780
G01 F100.00
G01 Z-0.5000
G01 F400.00
G01 X46.2354 Y90.6749
G01 X46.2337 Y90.6723
G01 X46.2311 Y90.6706
G01 X46.2280 Y90.6700
G01 X46.2249 Y90.6706
G01 X46.2223 Y90.6723
G01 X46.2206 Y90.6749
G01 X46.2200 Y90.6780
G01 X46.2206 Y90.6811
G01 X46.2223 Y90.6837
G01 X46.2249 Y90.6854
G01 X46.2280 Y90.6860
G01 X46.2311 Y90.6854
G01 X46.2337 Y90.6837
G01 X46.2354 Y90.6811
G01 X46.2360 Y90.6780
G00 X46.2360 Y90.6780
G01 F100.00
G01 Z-0.7500
G01 F400.00
G01 X46.2354 Y90.6749
G01 X46.2337 Y90.6723
G01 X46.2311 Y90.6706
G01 X46.2280 Y90.6700
G01 X46.2249 Y90.6706
G01 X46.2223 Y90.6723
G01 X46.2206 Y90.6749
G01 X46.2200 Y90.6780
G01 X46.2206 Y90.6811
G01 X46.2223 Y90.6837
G01 X46.2249 Y90.6854
G01 X46.2280 Y90.6860
G01 X46.2311 Y90.6854
G01 X46.2337 Y90.6837
G01 X46.2354 Y90.6811
G01 X46.2360 Y90.6780
G00 X46.2360 Y90.6780
G01 F100.00
G01 Z-1.0000
G01 F400.00
G01 X46.2354 Y90.6749
G01 X46.2337 Y90.6723
G01 X46.2311 Y90.6706
G01 X46.2280 Y90.6700
G01 X46.2249 Y90.6706
G01 X46.2223 Y90.6723
G01 X46.2206 Y90.6749
G01 X46.2200 Y90.6780
G01 X46.2206 Y90.6811
G01 X46.2223 Y90.6837
G01 X46.2249 Y90.6854
G01 X46.2280 Y90.6860
G01 X46.2311 Y90.6854
G01 X46.2337 Y90.6837
G01 X46.2354 Y90.6811
G01 X46.2360 Y90.6780
G00 X46.2360 Y90.6780
G01 F100.00
G01 Z-1.2500
G01 F400.00
G01 X46.2354 Y90.6749
G01 X46.2337 Y90.6723
G01 X46.2311 Y90.6706
G01 X46.2280 Y90.6700
G01 X46.2249 Y90.6706
G01 X46.2223 Y90.6723
G01 X46.2206 Y90.6749
G01 X46.2200 Y90.6780
G01 X46.2206 Y90.6811
G01 X46.2223 Y90.6837
G01 X46.2249 Y90.6854
G01 X46.2280 Y90.6860
G01 X46.2311 Y90.6854
G01 X46.2337 Y90.6837
G01 X46.2354 Y90.6811
G01 X46.2360 Y90.6780
G00 X46.2360 Y90.6780
G01 F100.00
G01 Z-1.5000
G01 F400.00
G01 X46.2354 Y90.6749
G01 X46.2337 Y90.6723
G01 X46.2311 Y90.6706
G01 X46.2280 Y90.6700
G01 X46.2249 Y90.6706
G01 X46.2223 Y90.6723
G01 X46.2206 Y90.6749
G01 X46.2200 Y90.6780
G01 X46.2206 Y90.6811
G01 X46.2223 Y90.6837
G01 X46.2249 Y90.6854
G01 X46.2280 Y90.6860
G01 X46.2311 Y90.6854
G01 X46.2337 Y90.6837
G01 X46.2354 Y90.6811
G01 X46.2360 Y90.6780
G00 X46.2360 Y90.6780
G01 F100.00
G01 Z-1.6500
G01 F400.00
G01 X46.2354 Y90.6749
G01 X46.2337 Y90.6723
G01 X46.2311 Y90.6706
G01 X46.2280 Y90.6700
G01 X46.2249 Y90.6706
G01 X46.2223 Y90.6723
G01 X46.2206 Y90.6749
G01 X46.2200 Y90.6780
G01 X46.2206 Y90.6811
G01 X46.2223 Y90.6837
G01 X46.2249 Y90.6854
G01 X46.2280 Y90.6860
G01 X46.2311 Y90.6854
G01 X46.2337 Y90.6837
G01 X46.2354 Y90.6811
G01 X46.2360 Y90.6780
G00 Z3.0000
G00 X43.1880 Y74.9300
G01 F100.00
G01 Z-0.2500
G01 F400.00
G01 X43.1874 Y74.9269
G01 X43.1857 Y74.9243
G01 X43.1831 Y74.9226
G01 X43.1800 Y74.9220
G01 X43.1769 Y74.9226
G01 X43.1743 Y74.9243
G01 X43.1726 Y74.9269
G01 X43.1720 Y74.9300
G01 X43.1726 Y74.9331
G01 X43.1743 Y74.9357
G01 X43.1769 Y74.9374
G01 X43.1800 Y74.9380
G01 X43.1831 Y74.9374
G01 X43.1857 Y74.9357
G01 X43.1874 Y74.9331
G01 X43.1880 Y74.9300
G00 X43.1880 Y74.9300
G01 F100.00
G01 Z-0.5000
G01 F400.00
G01 X43.1874 Y74.9269
G01 X43.1857 Y74.9243
G01 X43.1831 Y74.9226
G01 X43.1800 Y74.9220
G01 X43.1769 Y74.9226
G01 X43.1743 Y74.9243
G01 X43.1726 Y74.9269
G01 X43.1720 Y74.9300
G01 X43.1726 Y74.9331
G01 X43.1743 Y74.9357
G01 X43.1769 Y74.9374
G01 X43.1800 Y74.9380
G01 X43.1831 Y74.9374
G01 X43.1857 Y74.9357
G01 X43.1874 Y74.9331
G01 X43.1880 Y74.9300
G00 X43.1880 Y74.9300
G01 F100.00
G01 Z-0.7500
G01 F400.00
G01 X43.1874 Y74.9269
G01 X43.1857 Y74.9243
G01 X43.1831 Y74.9226
G01 X43.1800 Y74.9220
G01 X43.1769 Y74.9226
G01 X43.1743 Y74.9243
G01 X43.1726 Y74.9269
G01 X43.1720 Y74.9300
G01 X43.1726 Y74.9331
G01 X43.1743 Y74.9357
G01 X43.1769 Y74.9374
G01 X43.1800 Y74.9380
G01 X43.1831 Y74.9374
G01 X43.1857 Y74.9357
G01 X43.1874 Y74.9331
G01 X43.1880 Y74.9300
G00 X43.1880 Y74.9300
G01 F100.00
G01 Z-1.0000
G01 F400.00
G01 X43.1874 Y74.9269
G01 X43.1857 Y74.9243
G01 X43.1831 Y74.9226
G01 X43.1800 Y74.9220
G01 X43.1769 Y74.9226
G01 X43.1743 Y74.9243
G01 X43.1726 Y74.9269
G01 X43.1720 Y74.9300
G01 X43.1726 Y74.9331
G01 X43.1743 Y74.9357
G01 X43.1769 Y74.9374
G01 X43.1800 Y74.9380
G01 X43.1831 Y74.9374
G01 X43.1857 Y74.9357
G01 X43.1874 Y74.9331
G01 X43.1880 Y74.9300
G00 X43.1880 Y74.9300
G01 F100.00
G01 Z-1.2500
G01 F400.00
G01 X43.1874 Y74.9269
G01 X43.1857 Y74.9243
G01 X43.1831 Y74.9226
G01 X43.1800 Y74.9220
G01 X43.1769 Y74.9226
G01 X43.1743 Y74.9243
G01 X43.1726 Y74.9269
G01 X43.1720 Y74.9300
G01 X43.1726 Y74.9331
G01 X43.1743 Y74.9357
G01 X43.1769 Y74.9374
G01 X43.1800 Y74.9380
G01 X43.1831 Y74.9374
G01 X43.1857 Y74.9357
G01 X43.1874 Y74.9331
G01 X43.1880 Y74.9300
G00 X43.1880 Y74.9300
G01 F100.00
G01 Z-1.5000
G01 F400.00
G01 X43.1874 Y74.9269
G01 X43.1857 Y74.9243
G01 X43.1831 Y74.9226
G01 X43.1800 Y74.9220
G01 X43.1769 Y74.9226
G01 X43.1743 Y74.9243
G01 X43.1726 Y74.9269
G01 X43.1720 Y74.9300
G01 X43.1726 Y74.9331
G01 X43.1743 Y74.9357
G01 X43.1769 Y74.9374
G01 X43.1800 Y74.9380
G01 X43.1831 Y74.9374
G01 X43.1857 Y74.9357
G01 X43.1874 Y74.9331
G01 X43.1880 Y74.9300
G00 X43.1880 Y74.9300
G01 F100.00
G01 Z-1.6500
G01 F400.00
G01 X43.1874 Y74.9269
G01 X43.1857 Y74.9243
G01 X43.1831 Y74.9226
G01 X43.1800 Y74.9220
G01 X43.1769 Y74.9226
G01 X43.1743 Y74.9243
G01 X43.1726 Y74.9269
G01 X43.1720 Y74.9300
G01 X43.1726 Y74.9331
G01 X43.1743 Y74.9357
G01 X43.1769 Y74.9374
G01 X43.1800 Y74.9380
G01 X43.1831 Y74.9374
G01 X43.1857 Y74.9357
G01 X43.1874 Y74.9331
G01 X43.1880 Y74.9300
G00 Z3.0000
G00 X43.1880 Y67.3100
G01 F100.00
G01 Z-0.2500
G01 F400.00
G01 X43.1874 Y67.3069
G01 X43.1857 Y67.3043
G01 X43.1831 Y67.3026
G01 X43.1800 Y67.3020
G01 X43.1769 Y67.3026
G01 X43.1743 Y67.3043
G01 X43.1726 Y67.3069
G01 X43.1720 Y67.3100
G01 X43.1726 Y67.3131
G01 X43.1743 Y67.3157
G01 X43.1769 Y67.3174
G01 X43.1800 Y67.3180
G01 X43.1831 Y67.3174
G01 X43.1857 Y67.3157
G01 X43.1874 Y67.3131
G01 X43.1880 Y67.3100
G00 X43.1880 Y67.3100
G01 F100.00
G01 Z-0.5000
G01 F400.00
G01 X43.1874 Y67.3069
G01 X43.1857 Y67.3043
G01 X43.1831 Y67.3026
G01 X43.1800 Y67.3020
G01 X43.1769 Y67.3026
G01 X43.1743 Y67.3043
G01 X43.1726 Y67.3069
G01 X43.1720 Y67.3100
G01 X43.1726 Y67.3131
G01 X43.1743 Y67.3157
G01 X43.1769 Y67.3174
G01 X43.1800 Y67.3180
G01 X43.1831 Y67.3174
G01 X43.1857 Y67.3157
G01 X43.1874 Y67.3131
G01 X43.1880 Y67.3100
G00 X43.1880 Y67.3100
G01 F100.00
G01 Z-0.7500
G01 F400.00
G01 X43.1874 Y67.3069
G01 X43.1857 Y67.3043
G01 X43.1831 Y67.3026
G01 X43.1800 Y67.3020
G01 X43.1769 Y67.3026
G01 X43.1743 Y67.3043
G01 X43.1726 Y67.3069
G01 X43.1720 Y67.3100
G01 X43.1726 Y67.3131
G01 X43.1743 Y67.3157
G01 X43.1769 Y67.3174
G01 X43.1800 Y67.3180
G01 X43.1831 Y67.3174
G01 X43.1857 Y67.3157
G01 X43.1874 Y67.3131
G01 X43.1880 Y67.3100
G00 X43.1880 Y67.3100
G01 F100.00
G01 Z-1.0000
G01 F400.00
G01 X43.1874 Y67.3069
G01 X43.1857 Y67.3043
G01 X43.1831 Y67.3026
G01 X43.1800 Y67.3020
G01 X43.1769 Y67.3026
G01 X43.1743 Y67.3043
G01 X43.1726 Y67.3069
G01 X43.1720 Y67.3100
G01 X43.1726 Y67.3131
G01 X43.1743 Y67.3157
G01 X43.1769 Y67.3174
G01 X43.1800 Y67.3180
G01 X43.1831 Y67.3174
G01 X43.1857 Y67.3157
G01 X43.1874 Y67.3131
G01 X43.1880 Y67.3100
G00 X43.1880 Y67.3100
G01 F100.00
G01 Z-1.2500
G01 F400.00
G01 X43.1874 Y67.3069
G01 X43.1857 Y67.3043
G01 X43.1831 Y67.3026
G01 X43.1800 Y67.3020
G01 X43.1769 Y67.3026
G01 X43.1743 Y67.3043
G01 X43.1726 Y67.3069
G01 X43.1720 Y67.3100
G01 X43.1726 Y67.3131
G01 X43.1743 Y67.3157
G01 X43.1769 Y67.3174
G01 X43.1800 Y67.3180
G01 X43.1831 Y67.3174
G01 X43.1857 Y67.3157
G01 X43.1874 Y67.3131
G01 X43.1880 Y67.3100
G00 X43.1880 Y67.3100
G01 F100.00
G01 Z-1.5000
G01 F400.00
G01 X43.1874 Y67.3069
G01 X43.1857 Y67.3043
G01 X43.1831 Y67.3026
G01 X43.1800 Y67.3020
G01 X43.1769 Y67.3026
G01 X43.1743 Y67.3043
G01 X43.1726 Y67.3069
G01 X43.1720 Y67.3100
G01 X43.1726 Y67.3131
G01 X43.1743 Y67.3157
G01 X43.1769 Y67.3174
G01 X43.1800 Y67.3180
G01 X43.1831 Y67.3174
G01 X43.1857 Y67.3157
G01 X43.1874 Y67.3131
G01 X43.1880 Y67.3100
G00 X43.1880 Y67.3100
G01 F100.00
G01 Z-1.6500
G01 F400.00
G01 X43.1874 Y67.3069
G01 X43.1857 Y67.3043
G01 X43.1831 Y67.3026
G01 X43.1800 Y67.3020
G01 X43.1769 Y67.3026
G01 X43.1743 Y67.3043
G01 X43.1726 Y67.3069
G01 X43.1720 Y67.3100
G01 X43.1726 Y67.3131
G01 X43.1743 Y67.3157
G01 X43.1769 Y67.3174
G01 X43.1800 Y67.3180
G01 X43.1831 Y67.3174
G01 X43.1857 Y67.3157
G01 X43.1874 Y67.3131
G01 X43.1880 Y67.3100
G00 Z3.0000
G00 X53.3400 Y68.5800
G01 F100.00
G01 Z-0.2500
G01 F400.00
G01 X53.3400 Y68.5800
G01 X53.3400 Y68.5800
G01 X53.3400 Y68.5800
G01 X53.3400 Y68.5800
G00 X53.3400 Y68.5800
G01 F100.00
G01 Z-0.5000
G01 F400.00
G01 X53.3400 Y68.5800
G01 X53.3400 Y68.5800
G01 X53.3400 Y68.5800
G01 X53.3400 Y68.5800
G00 X53.3400 Y68.5800
G01 F100.00
G01 Z-0.7500
G01 F400.00
G01 X53.3400 Y68.5800
G01 X53.3400 Y68.5800
G01 X53.3400 Y68.5800
G01 X53.3400 Y68.5800
G00 X53.3400 Y68.5800
G01 F100.00
G01 Z-1.0000
G01 F400.00
G01 X53.3400 Y68.5800
G01 X53.3400 Y68.5800
G01 X53.3400 Y68.5800
G01 X53.3400 Y68.5800
G00 X53.3400 Y68.5800
G01 F100.00
G01 Z-1.2500
G01 F400.00
G01 X53.3400 Y68.5800
G01 X53.3400 Y68.5800
G01 X53.3400 Y68.5800
G01 X53.3400 Y68.5800
G00 X53.3400 Y68.5800
G01 F100.00
G01 Z-1.5000
G01 F400.00
G01 X53.3400 Y68.5800
G01 X53.3400 Y68.5800
G01 X53.3400 Y68.5800
G01 X53.3400 Y68.5800
G00 X53.3400 Y68.5800
G01 F100.00
G01 Z-1.6500
G01 F400.00
G01 X53.3400 Y68.5800
G01 X53.3400 Y68.5800
G01 X53.3400 Y68.5800
G01 X53.3400 Y68.5800
G00 Z3.0000
G00 X53.3400 Y71.1200
G01 F100.00
G01 Z-0.2500
G01 F400.00
G01 X53.3400 Y71.1200
G01 X53.3400 Y71.1200
G01 X53.3400 Y71.1200
G01 X53.3400 Y71.1200
G00 X53.3400 Y71.1200
G01 F100.00
G01 Z-0.5000
G01 F400.00
G01 X53.3400 Y71.1200
G01 X53.3400 Y71.1200
G01 X53.3400 Y71.1200
G01 X53.3400 Y71.1200
G00 X53.3400 Y71.1200
G01 F100.00
G01 Z-0.7500
G01 F400.00
G01 X53.3400 Y71.1200
G01 X53.3400 Y71.1200
G01 X53.3400 Y71.1200
G01 X53.3400 Y71.1200
G00 X53.3400 Y71.1200
G01 F100.00
G01 Z-1.0000
G01 F400.00
G01 X53.3400 Y71.1200
G01 X53.3400 Y71.1200
G01 X53.3400 Y71.1200
G01 X53.3400 Y71.1200
G00 X53.3400 Y71.1200
G01 F100.00
G01 Z-1.2500
G01 F400.00
G01 X53.3400 Y71.1200
G01 X53.3400 Y71.1200
G01 X53.3400 Y71.1200
G01 X53.3400 Y71.1200
G00 X53.3400 Y71.1200
G01 F100.00
G01 Z-1.5000
G01 F400.00
G01 X53.3400 Y71.1200
G01 X53.3400 Y71.1200
G01 X53.3400 Y71.1200
G01 X53.3400 Y71.1200
G00 X53.3400 Y71.1200
G01 F100.00
G01 Z-1.6500
G01 F400.00
G01 X53.3400 Y71.1200
G01 X53.3400 Y71.1200
G01 X53.3400 Y71.1200
G01 X53.3400 Y71.1200
G00 Z3.0000
G00 X53.3400 Y73.6600
G01 F100.00
G01 Z-0.2500
G01 F400.00
G01 X53.3400 Y73.6600
G01 X53.3400 Y73.6600
G01 X53.3400 Y73.6600
G01 X53.3400 Y73.6600
G00 X53.3400 Y73.6600
G01 F100.00
G01 Z-0.5000
G01 F400.00
G01 X53.3400 Y73.6600
G01 X53.3400 Y73.6600
G01 X53.3400 Y73.6600
G01 X53.3400 Y73.6600
G00 X53.3400 Y73.6600
G01 F100.00
G01 Z-0.7500
G01 F400.00
G01 X53.3400 Y73.6600
G01 X53.3400 Y73.6600
G01 X53.3400 Y73.6600
G01 X53.3400 Y73.6600
G00 X53.3400 Y73.6600
G01 F100.00
G01 Z-1.0000
G01 F400.00
G01 X53.3400 Y73.6600
G01 X53.3400 Y73.6600
G01 X53.3400 Y73.6600
G01 X53.3400 Y73.6600
G00 X53.3400 Y73.6600
G01 F100.00
G01 Z-1.2500
G01 F400.00
G01 X53.3400 Y73.6600
G01 X53.3400 Y73.6600
G01 X53.3400 Y73.6600
G01 X53.3400 Y73.6600
G00 X53.3400 Y73.6600
G01 F100.00
G01 Z-1.5000
G01 F400.00
G01 X53.3400 Y73.6600
G01 X53.3400 Y73.6600
G01 X53.3400 Y73.6600
G01 X53.3400 Y73.6600
G00 X53.3400 Y73.6600
G01 F100.00
G01 Z-1.6500
G01 F400.00
G01 X53.3400 Y73.6600
G01 X53.3400 Y73.6600
G01 X53.3400 Y73.6600
G01 X53.3400 Y73.6600
G00 Z3.0000
M05
G00 Z3.0000
G00 Z15.00


