(G-CODE GENERATED BY FLATCAM v8.994 - www.flatcam.org - Version Date: 2020/11/7)

(Name: drill_1_16.xln_mill_cnc)
(Type: G-code from Geometry)
(Units: MM)

(Created on Friday, 25 March 2022 at 13:36)

(This preprocessor is the default preprocessor used by FlatCAM.)
(It is made to work with MACH3 compatible motion controllers.)

(TOOL DIAMETER: 1.0 mm)
(Feedrate_XY: 400.0 mm/min)
(Feedrate_Z: 100.0 mm/min)
(Feedrate rapids 800.0 mm/min)

(Z_Cut: -1.65 mm)
(DepthPerCut: 0.25 mm <=>7 passes)
(Z_Move: 3.0 mm)
(Z Start: None mm)
(Z End: 15.0 mm)
(X,Y End: None mm)
(Steps per circle: 64)
(Preprocessor Geometry: default)

(X range:   12.0570 ...   56.5230  mm)
(Y range:   95.8770 ...  142.8830  mm)

(Spindle Speed: 29000.0 RPM)
G21
G90
G94

G01 F400.00

M5
G00 Z15.0000
G00 X0.0000 Y0.0000
T2
M6    
(MSG, Change to Tool Dia = 1.0000)
M0
G00 Z15.0000

M03 S29000.0
G01 F400.00
G00 X15.8830 Y96.5200
G01 F100.00
G01 Z-0.2500
G01 F400.00
G01 X15.8799 Y96.4570
G01 X15.8706 Y96.3946
G01 X15.8553 Y96.3333
G01 X15.8341 Y96.2739
G01 X15.8071 Y96.2169
G01 X15.7746 Y96.1628
G01 X15.7370 Y96.1121
G01 X15.6947 Y96.0653
G01 X15.6479 Y96.0230
G01 X15.5972 Y95.9854
G01 X15.5431 Y95.9529
G01 X15.4861 Y95.9259
G01 X15.4267 Y95.9047
G01 X15.3654 Y95.8894
G01 X15.3030 Y95.8801
G01 X15.2400 Y95.8770
G01 X15.1770 Y95.8801
G01 X15.1146 Y95.8894
G01 X15.0533 Y95.9047
G01 X14.9939 Y95.9259
G01 X14.9369 Y95.9529
G01 X14.8828 Y95.9854
G01 X14.8321 Y96.0230
G01 X14.7853 Y96.0653
G01 X14.7430 Y96.1121
G01 X14.7054 Y96.1628
G01 X14.6729 Y96.2169
G01 X14.6459 Y96.2739
G01 X14.6247 Y96.3333
G01 X14.6094 Y96.3946
G01 X14.6001 Y96.4570
G01 X14.5970 Y96.5200
G01 X14.6001 Y96.5830
G01 X14.6094 Y96.6454
G01 X14.6247 Y96.7067
G01 X14.6459 Y96.7661
G01 X14.6729 Y96.8231
G01 X14.7054 Y96.8772
G01 X14.7430 Y96.9279
G01 X14.7853 Y96.9747
G01 X14.8321 Y97.0170
G01 X14.8828 Y97.0546
G01 X14.9369 Y97.0871
G01 X14.9939 Y97.1141
G01 X15.0533 Y97.1353
G01 X15.1146 Y97.1506
G01 X15.1770 Y97.1599
G01 X15.2400 Y97.1630
G01 X15.3030 Y97.1599
G01 X15.3654 Y97.1506
G01 X15.4267 Y97.1353
G01 X15.4861 Y97.1141
G01 X15.5431 Y97.0871
G01 X15.5972 Y97.0546
G01 X15.6479 Y97.0170
G01 X15.6947 Y96.9747
G01 X15.7370 Y96.9279
G01 X15.7746 Y96.8772
G01 X15.8071 Y96.8231
G01 X15.8341 Y96.7661
G01 X15.8553 Y96.7067
G01 X15.8706 Y96.6454
G01 X15.8799 Y96.5830
G01 X15.8830 Y96.5200
G00 X15.8830 Y96.5200
G01 F100.00
G01 Z-0.5000
G01 F400.00
G01 X15.8799 Y96.4570
G01 X15.8706 Y96.3946
G01 X15.8553 Y96.3333
G01 X15.8341 Y96.2739
G01 X15.8071 Y96.2169
G01 X15.7746 Y96.1628
G01 X15.7370 Y96.1121
G01 X15.6947 Y96.0653
G01 X15.6479 Y96.0230
G01 X15.5972 Y95.9854
G01 X15.5431 Y95.9529
G01 X15.4861 Y95.9259
G01 X15.4267 Y95.9047
G01 X15.3654 Y95.8894
G01 X15.3030 Y95.8801
G01 X15.2400 Y95.8770
G01 X15.1770 Y95.8801
G01 X15.1146 Y95.8894
G01 X15.0533 Y95.9047
G01 X14.9939 Y95.9259
G01 X14.9369 Y95.9529
G01 X14.8828 Y95.9854
G01 X14.8321 Y96.0230
G01 X14.7853 Y96.0653
G01 X14.7430 Y96.1121
G01 X14.7054 Y96.1628
G01 X14.6729 Y96.2169
G01 X14.6459 Y96.2739
G01 X14.6247 Y96.3333
G01 X14.6094 Y96.3946
G01 X14.6001 Y96.4570
G01 X14.5970 Y96.5200
G01 X14.6001 Y96.5830
G01 X14.6094 Y96.6454
G01 X14.6247 Y96.7067
G01 X14.6459 Y96.7661
G01 X14.6729 Y96.8231
G01 X14.7054 Y96.8772
G01 X14.7430 Y96.9279
G01 X14.7853 Y96.9747
G01 X14.8321 Y97.0170
G01 X14.8828 Y97.0546
G01 X14.9369 Y97.0871
G01 X14.9939 Y97.1141
G01 X15.0533 Y97.1353
G01 X15.1146 Y97.1506
G01 X15.1770 Y97.1599
G01 X15.2400 Y97.1630
G01 X15.3030 Y97.1599
G01 X15.3654 Y97.1506
G01 X15.4267 Y97.1353
G01 X15.4861 Y97.1141
G01 X15.5431 Y97.0871
G01 X15.5972 Y97.0546
G01 X15.6479 Y97.0170
G01 X15.6947 Y96.9747
G01 X15.7370 Y96.9279
G01 X15.7746 Y96.8772
G01 X15.8071 Y96.8231
G01 X15.8341 Y96.7661
G01 X15.8553 Y96.7067
G01 X15.8706 Y96.6454
G01 X15.8799 Y96.5830
G01 X15.8830 Y96.5200
G00 X15.8830 Y96.5200
G01 F100.00
G01 Z-0.7500
G01 F400.00
G01 X15.8799 Y96.4570
G01 X15.8706 Y96.3946
G01 X15.8553 Y96.3333
G01 X15.8341 Y96.2739
G01 X15.8071 Y96.2169
G01 X15.7746 Y96.1628
G01 X15.7370 Y96.1121
G01 X15.6947 Y96.0653
G01 X15.6479 Y96.0230
G01 X15.5972 Y95.9854
G01 X15.5431 Y95.9529
G01 X15.4861 Y95.9259
G01 X15.4267 Y95.9047
G01 X15.3654 Y95.8894
G01 X15.3030 Y95.8801
G01 X15.2400 Y95.8770
G01 X15.1770 Y95.8801
G01 X15.1146 Y95.8894
G01 X15.0533 Y95.9047
G01 X14.9939 Y95.9259
G01 X14.9369 Y95.9529
G01 X14.8828 Y95.9854
G01 X14.8321 Y96.0230
G01 X14.7853 Y96.0653
G01 X14.7430 Y96.1121
G01 X14.7054 Y96.1628
G01 X14.6729 Y96.2169
G01 X14.6459 Y96.2739
G01 X14.6247 Y96.3333
G01 X14.6094 Y96.3946
G01 X14.6001 Y96.4570
G01 X14.5970 Y96.5200
G01 X14.6001 Y96.5830
G01 X14.6094 Y96.6454
G01 X14.6247 Y96.7067
G01 X14.6459 Y96.7661
G01 X14.6729 Y96.8231
G01 X14.7054 Y96.8772
G01 X14.7430 Y96.9279
G01 X14.7853 Y96.9747
G01 X14.8321 Y97.0170
G01 X14.8828 Y97.0546
G01 X14.9369 Y97.0871
G01 X14.9939 Y97.1141
G01 X15.0533 Y97.1353
G01 X15.1146 Y97.1506
G01 X15.1770 Y97.1599
G01 X15.2400 Y97.1630
G01 X15.3030 Y97.1599
G01 X15.3654 Y97.1506
G01 X15.4267 Y97.1353
G01 X15.4861 Y97.1141
G01 X15.5431 Y97.0871
G01 X15.5972 Y97.0546
G01 X15.6479 Y97.0170
G01 X15.6947 Y96.9747
G01 X15.7370 Y96.9279
G01 X15.7746 Y96.8772
G01 X15.8071 Y96.8231
G01 X15.8341 Y96.7661
G01 X15.8553 Y96.7067
G01 X15.8706 Y96.6454
G01 X15.8799 Y96.5830
G01 X15.8830 Y96.5200
G00 X15.8830 Y96.5200
G01 F100.00
G01 Z-1.0000
G01 F400.00
G01 X15.8799 Y96.4570
G01 X15.8706 Y96.3946
G01 X15.8553 Y96.3333
G01 X15.8341 Y96.2739
G01 X15.8071 Y96.2169
G01 X15.7746 Y96.1628
G01 X15.7370 Y96.1121
G01 X15.6947 Y96.0653
G01 X15.6479 Y96.0230
G01 X15.5972 Y95.9854
G01 X15.5431 Y95.9529
G01 X15.4861 Y95.9259
G01 X15.4267 Y95.9047
G01 X15.3654 Y95.8894
G01 X15.3030 Y95.8801
G01 X15.2400 Y95.8770
G01 X15.1770 Y95.8801
G01 X15.1146 Y95.8894
G01 X15.0533 Y95.9047
G01 X14.9939 Y95.9259
G01 X14.9369 Y95.9529
G01 X14.8828 Y95.9854
G01 X14.8321 Y96.0230
G01 X14.7853 Y96.0653
G01 X14.7430 Y96.1121
G01 X14.7054 Y96.1628
G01 X14.6729 Y96.2169
G01 X14.6459 Y96.2739
G01 X14.6247 Y96.3333
G01 X14.6094 Y96.3946
G01 X14.6001 Y96.4570
G01 X14.5970 Y96.5200
G01 X14.6001 Y96.5830
G01 X14.6094 Y96.6454
G01 X14.6247 Y96.7067
G01 X14.6459 Y96.7661
G01 X14.6729 Y96.8231
G01 X14.7054 Y96.8772
G01 X14.7430 Y96.9279
G01 X14.7853 Y96.9747
G01 X14.8321 Y97.0170
G01 X14.8828 Y97.0546
G01 X14.9369 Y97.0871
G01 X14.9939 Y97.1141
G01 X15.0533 Y97.1353
G01 X15.1146 Y97.1506
G01 X15.1770 Y97.1599
G01 X15.2400 Y97.1630
G01 X15.3030 Y97.1599
G01 X15.3654 Y97.1506
G01 X15.4267 Y97.1353
G01 X15.4861 Y97.1141
G01 X15.5431 Y97.0871
G01 X15.5972 Y97.0546
G01 X15.6479 Y97.0170
G01 X15.6947 Y96.9747
G01 X15.7370 Y96.9279
G01 X15.7746 Y96.8772
G01 X15.8071 Y96.8231
G01 X15.8341 Y96.7661
G01 X15.8553 Y96.7067
G01 X15.8706 Y96.6454
G01 X15.8799 Y96.5830
G01 X15.8830 Y96.5200
G00 X15.8830 Y96.5200
G01 F100.00
G01 Z-1.2500
G01 F400.00
G01 X15.8799 Y96.4570
G01 X15.8706 Y96.3946
G01 X15.8553 Y96.3333
G01 X15.8341 Y96.2739
G01 X15.8071 Y96.2169
G01 X15.7746 Y96.1628
G01 X15.7370 Y96.1121
G01 X15.6947 Y96.0653
G01 X15.6479 Y96.0230
G01 X15.5972 Y95.9854
G01 X15.5431 Y95.9529
G01 X15.4861 Y95.9259
G01 X15.4267 Y95.9047
G01 X15.3654 Y95.8894
G01 X15.3030 Y95.8801
G01 X15.2400 Y95.8770
G01 X15.1770 Y95.8801
G01 X15.1146 Y95.8894
G01 X15.0533 Y95.9047
G01 X14.9939 Y95.9259
G01 X14.9369 Y95.9529
G01 X14.8828 Y95.9854
G01 X14.8321 Y96.0230
G01 X14.7853 Y96.0653
G01 X14.7430 Y96.1121
G01 X14.7054 Y96.1628
G01 X14.6729 Y96.2169
G01 X14.6459 Y96.2739
G01 X14.6247 Y96.3333
G01 X14.6094 Y96.3946
G01 X14.6001 Y96.4570
G01 X14.5970 Y96.5200
G01 X14.6001 Y96.5830
G01 X14.6094 Y96.6454
G01 X14.6247 Y96.7067
G01 X14.6459 Y96.7661
G01 X14.6729 Y96.8231
G01 X14.7054 Y96.8772
G01 X14.7430 Y96.9279
G01 X14.7853 Y96.9747
G01 X14.8321 Y97.0170
G01 X14.8828 Y97.0546
G01 X14.9369 Y97.0871
G01 X14.9939 Y97.1141
G01 X15.0533 Y97.1353
G01 X15.1146 Y97.1506
G01 X15.1770 Y97.1599
G01 X15.2400 Y97.1630
G01 X15.3030 Y97.1599
G01 X15.3654 Y97.1506
G01 X15.4267 Y97.1353
G01 X15.4861 Y97.1141
G01 X15.5431 Y97.0871
G01 X15.5972 Y97.0546
G01 X15.6479 Y97.0170
G01 X15.6947 Y96.9747
G01 X15.7370 Y96.9279
G01 X15.7746 Y96.8772
G01 X15.8071 Y96.8231
G01 X15.8341 Y96.7661
G01 X15.8553 Y96.7067
G01 X15.8706 Y96.6454
G01 X15.8799 Y96.5830
G01 X15.8830 Y96.5200
G00 X15.8830 Y96.5200
G01 F100.00
G01 Z-1.5000
G01 F400.00
G01 X15.8799 Y96.4570
G01 X15.8706 Y96.3946
G01 X15.8553 Y96.3333
G01 X15.8341 Y96.2739
G01 X15.8071 Y96.2169
G01 X15.7746 Y96.1628
G01 X15.7370 Y96.1121
G01 X15.6947 Y96.0653
G01 X15.6479 Y96.0230
G01 X15.5972 Y95.9854
G01 X15.5431 Y95.9529
G01 X15.4861 Y95.9259
G01 X15.4267 Y95.9047
G01 X15.3654 Y95.8894
G01 X15.3030 Y95.8801
G01 X15.2400 Y95.8770
G01 X15.1770 Y95.8801
G01 X15.1146 Y95.8894
G01 X15.0533 Y95.9047
G01 X14.9939 Y95.9259
G01 X14.9369 Y95.9529
G01 X14.8828 Y95.9854
G01 X14.8321 Y96.0230
G01 X14.7853 Y96.0653
G01 X14.7430 Y96.1121
G01 X14.7054 Y96.1628
G01 X14.6729 Y96.2169
G01 X14.6459 Y96.2739
G01 X14.6247 Y96.3333
G01 X14.6094 Y96.3946
G01 X14.6001 Y96.4570
G01 X14.5970 Y96.5200
G01 X14.6001 Y96.5830
G01 X14.6094 Y96.6454
G01 X14.6247 Y96.7067
G01 X14.6459 Y96.7661
G01 X14.6729 Y96.8231
G01 X14.7054 Y96.8772
G01 X14.7430 Y96.9279
G01 X14.7853 Y96.9747
G01 X14.8321 Y97.0170
G01 X14.8828 Y97.0546
G01 X14.9369 Y97.0871
G01 X14.9939 Y97.1141
G01 X15.0533 Y97.1353
G01 X15.1146 Y97.1506
G01 X15.1770 Y97.1599
G01 X15.2400 Y97.1630
G01 X15.3030 Y97.1599
G01 X15.3654 Y97.1506
G01 X15.4267 Y97.1353
G01 X15.4861 Y97.1141
G01 X15.5431 Y97.0871
G01 X15.5972 Y97.0546
G01 X15.6479 Y97.0170
G01 X15.6947 Y96.9747
G01 X15.7370 Y96.9279
G01 X15.7746 Y96.8772
G01 X15.8071 Y96.8231
G01 X15.8341 Y96.7661
G01 X15.8553 Y96.7067
G01 X15.8706 Y96.6454
G01 X15.8799 Y96.5830
G01 X15.8830 Y96.5200
G00 X15.8830 Y96.5200
G01 F100.00
G01 Z-1.6500
G01 F400.00
G01 X15.8799 Y96.4570
G01 X15.8706 Y96.3946
G01 X15.8553 Y96.3333
G01 X15.8341 Y96.2739
G01 X15.8071 Y96.2169
G01 X15.7746 Y96.1628
G01 X15.7370 Y96.1121
G01 X15.6947 Y96.0653
G01 X15.6479 Y96.0230
G01 X15.5972 Y95.9854
G01 X15.5431 Y95.9529
G01 X15.4861 Y95.9259
G01 X15.4267 Y95.9047
G01 X15.3654 Y95.8894
G01 X15.3030 Y95.8801
G01 X15.2400 Y95.8770
G01 X15.1770 Y95.8801
G01 X15.1146 Y95.8894
G01 X15.0533 Y95.9047
G01 X14.9939 Y95.9259
G01 X14.9369 Y95.9529
G01 X14.8828 Y95.9854
G01 X14.8321 Y96.0230
G01 X14.7853 Y96.0653
G01 X14.7430 Y96.1121
G01 X14.7054 Y96.1628
G01 X14.6729 Y96.2169
G01 X14.6459 Y96.2739
G01 X14.6247 Y96.3333
G01 X14.6094 Y96.3946
G01 X14.6001 Y96.4570
G01 X14.5970 Y96.5200
G01 X14.6001 Y96.5830
G01 X14.6094 Y96.6454
G01 X14.6247 Y96.7067
G01 X14.6459 Y96.7661
G01 X14.6729 Y96.8231
G01 X14.7054 Y96.8772
G01 X14.7430 Y96.9279
G01 X14.7853 Y96.9747
G01 X14.8321 Y97.0170
G01 X14.8828 Y97.0546
G01 X14.9369 Y97.0871
G01 X14.9939 Y97.1141
G01 X15.0533 Y97.1353
G01 X15.1146 Y97.1506
G01 X15.1770 Y97.1599
G01 X15.2400 Y97.1630
G01 X15.3030 Y97.1599
G01 X15.3654 Y97.1506
G01 X15.4267 Y97.1353
G01 X15.4861 Y97.1141
G01 X15.5431 Y97.0871
G01 X15.5972 Y97.0546
G01 X15.6479 Y97.0170
G01 X15.6947 Y96.9747
G01 X15.7370 Y96.9279
G01 X15.7746 Y96.8772
G01 X15.8071 Y96.8231
G01 X15.8341 Y96.7661
G01 X15.8553 Y96.7067
G01 X15.8706 Y96.6454
G01 X15.8799 Y96.5830
G01 X15.8830 Y96.5200
G00 Z3.0000
G00 X15.8830 Y101.6000
G01 F100.00
G01 Z-0.2500
G01 F400.00
G01 X15.8799 Y101.5370
G01 X15.8706 Y101.4746
G01 X15.8553 Y101.4133
G01 X15.8341 Y101.3539
G01 X15.8071 Y101.2969
G01 X15.7746 Y101.2428
G01 X15.7370 Y101.1921
G01 X15.6947 Y101.1453
G01 X15.6479 Y101.1030
G01 X15.5972 Y101.0654
G01 X15.5431 Y101.0329
G01 X15.4861 Y101.0059
G01 X15.4267 Y100.9847
G01 X15.3654 Y100.9694
G01 X15.3030 Y100.9601
G01 X15.2400 Y100.9570
G01 X15.1770 Y100.9601
G01 X15.1146 Y100.9694
G01 X15.0533 Y100.9847
G01 X14.9939 Y101.0059
G01 X14.9369 Y101.0329
G01 X14.8828 Y101.0654
G01 X14.8321 Y101.1030
G01 X14.7853 Y101.1453
G01 X14.7430 Y101.1921
G01 X14.7054 Y101.2428
G01 X14.6729 Y101.2969
G01 X14.6459 Y101.3539
G01 X14.6247 Y101.4133
G01 X14.6094 Y101.4746
G01 X14.6001 Y101.5370
G01 X14.5970 Y101.6000
G01 X14.6001 Y101.6630
G01 X14.6094 Y101.7254
G01 X14.6247 Y101.7867
G01 X14.6459 Y101.8461
G01 X14.6729 Y101.9031
G01 X14.7054 Y101.9572
G01 X14.7430 Y102.0079
G01 X14.7853 Y102.0547
G01 X14.8321 Y102.0970
G01 X14.8828 Y102.1346
G01 X14.9369 Y102.1671
G01 X14.9939 Y102.1941
G01 X15.0533 Y102.2153
G01 X15.1146 Y102.2306
G01 X15.1770 Y102.2399
G01 X15.2400 Y102.2430
G01 X15.3030 Y102.2399
G01 X15.3654 Y102.2306
G01 X15.4267 Y102.2153
G01 X15.4861 Y102.1941
G01 X15.5431 Y102.1671
G01 X15.5972 Y102.1346
G01 X15.6479 Y102.0970
G01 X15.6947 Y102.0547
G01 X15.7370 Y102.0079
G01 X15.7746 Y101.9572
G01 X15.8071 Y101.9031
G01 X15.8341 Y101.8461
G01 X15.8553 Y101.7867
G01 X15.8706 Y101.7254
G01 X15.8799 Y101.6630
G01 X15.8830 Y101.6000
G00 X15.8830 Y101.6000
G01 F100.00
G01 Z-0.5000
G01 F400.00
G01 X15.8799 Y101.5370
G01 X15.8706 Y101.4746
G01 X15.8553 Y101.4133
G01 X15.8341 Y101.3539
G01 X15.8071 Y101.2969
G01 X15.7746 Y101.2428
G01 X15.7370 Y101.1921
G01 X15.6947 Y101.1453
G01 X15.6479 Y101.1030
G01 X15.5972 Y101.0654
G01 X15.5431 Y101.0329
G01 X15.4861 Y101.0059
G01 X15.4267 Y100.9847
G01 X15.3654 Y100.9694
G01 X15.3030 Y100.9601
G01 X15.2400 Y100.9570
G01 X15.1770 Y100.9601
G01 X15.1146 Y100.9694
G01 X15.0533 Y100.9847
G01 X14.9939 Y101.0059
G01 X14.9369 Y101.0329
G01 X14.8828 Y101.0654
G01 X14.8321 Y101.1030
G01 X14.7853 Y101.1453
G01 X14.7430 Y101.1921
G01 X14.7054 Y101.2428
G01 X14.6729 Y101.2969
G01 X14.6459 Y101.3539
G01 X14.6247 Y101.4133
G01 X14.6094 Y101.4746
G01 X14.6001 Y101.5370
G01 X14.5970 Y101.6000
G01 X14.6001 Y101.6630
G01 X14.6094 Y101.7254
G01 X14.6247 Y101.7867
G01 X14.6459 Y101.8461
G01 X14.6729 Y101.9031
G01 X14.7054 Y101.9572
G01 X14.7430 Y102.0079
G01 X14.7853 Y102.0547
G01 X14.8321 Y102.0970
G01 X14.8828 Y102.1346
G01 X14.9369 Y102.1671
G01 X14.9939 Y102.1941
G01 X15.0533 Y102.2153
G01 X15.1146 Y102.2306
G01 X15.1770 Y102.2399
G01 X15.2400 Y102.2430
G01 X15.3030 Y102.2399
G01 X15.3654 Y102.2306
G01 X15.4267 Y102.2153
G01 X15.4861 Y102.1941
G01 X15.5431 Y102.1671
G01 X15.5972 Y102.1346
G01 X15.6479 Y102.0970
G01 X15.6947 Y102.0547
G01 X15.7370 Y102.0079
G01 X15.7746 Y101.9572
G01 X15.8071 Y101.9031
G01 X15.8341 Y101.8461
G01 X15.8553 Y101.7867
G01 X15.8706 Y101.7254
G01 X15.8799 Y101.6630
G01 X15.8830 Y101.6000
G00 X15.8830 Y101.6000
G01 F100.00
G01 Z-0.7500
G01 F400.00
G01 X15.8799 Y101.5370
G01 X15.8706 Y101.4746
G01 X15.8553 Y101.4133
G01 X15.8341 Y101.3539
G01 X15.8071 Y101.2969
G01 X15.7746 Y101.2428
G01 X15.7370 Y101.1921
G01 X15.6947 Y101.1453
G01 X15.6479 Y101.1030
G01 X15.5972 Y101.0654
G01 X15.5431 Y101.0329
G01 X15.4861 Y101.0059
G01 X15.4267 Y100.9847
G01 X15.3654 Y100.9694
G01 X15.3030 Y100.9601
G01 X15.2400 Y100.9570
G01 X15.1770 Y100.9601
G01 X15.1146 Y100.9694
G01 X15.0533 Y100.9847
G01 X14.9939 Y101.0059
G01 X14.9369 Y101.0329
G01 X14.8828 Y101.0654
G01 X14.8321 Y101.1030
G01 X14.7853 Y101.1453
G01 X14.7430 Y101.1921
G01 X14.7054 Y101.2428
G01 X14.6729 Y101.2969
G01 X14.6459 Y101.3539
G01 X14.6247 Y101.4133
G01 X14.6094 Y101.4746
G01 X14.6001 Y101.5370
G01 X14.5970 Y101.6000
G01 X14.6001 Y101.6630
G01 X14.6094 Y101.7254
G01 X14.6247 Y101.7867
G01 X14.6459 Y101.8461
G01 X14.6729 Y101.9031
G01 X14.7054 Y101.9572
G01 X14.7430 Y102.0079
G01 X14.7853 Y102.0547
G01 X14.8321 Y102.0970
G01 X14.8828 Y102.1346
G01 X14.9369 Y102.1671
G01 X14.9939 Y102.1941
G01 X15.0533 Y102.2153
G01 X15.1146 Y102.2306
G01 X15.1770 Y102.2399
G01 X15.2400 Y102.2430
G01 X15.3030 Y102.2399
G01 X15.3654 Y102.2306
G01 X15.4267 Y102.2153
G01 X15.4861 Y102.1941
G01 X15.5431 Y102.1671
G01 X15.5972 Y102.1346
G01 X15.6479 Y102.0970
G01 X15.6947 Y102.0547
G01 X15.7370 Y102.0079
G01 X15.7746 Y101.9572
G01 X15.8071 Y101.9031
G01 X15.8341 Y101.8461
G01 X15.8553 Y101.7867
G01 X15.8706 Y101.7254
G01 X15.8799 Y101.6630
G01 X15.8830 Y101.6000
G00 X15.8830 Y101.6000
G01 F100.00
G01 Z-1.0000
G01 F400.00
G01 X15.8799 Y101.5370
G01 X15.8706 Y101.4746
G01 X15.8553 Y101.4133
G01 X15.8341 Y101.3539
G01 X15.8071 Y101.2969
G01 X15.7746 Y101.2428
G01 X15.7370 Y101.1921
G01 X15.6947 Y101.1453
G01 X15.6479 Y101.1030
G01 X15.5972 Y101.0654
G01 X15.5431 Y101.0329
G01 X15.4861 Y101.0059
G01 X15.4267 Y100.9847
G01 X15.3654 Y100.9694
G01 X15.3030 Y100.9601
G01 X15.2400 Y100.9570
G01 X15.1770 Y100.9601
G01 X15.1146 Y100.9694
G01 X15.0533 Y100.9847
G01 X14.9939 Y101.0059
G01 X14.9369 Y101.0329
G01 X14.8828 Y101.0654
G01 X14.8321 Y101.1030
G01 X14.7853 Y101.1453
G01 X14.7430 Y101.1921
G01 X14.7054 Y101.2428
G01 X14.6729 Y101.2969
G01 X14.6459 Y101.3539
G01 X14.6247 Y101.4133
G01 X14.6094 Y101.4746
G01 X14.6001 Y101.5370
G01 X14.5970 Y101.6000
G01 X14.6001 Y101.6630
G01 X14.6094 Y101.7254
G01 X14.6247 Y101.7867
G01 X14.6459 Y101.8461
G01 X14.6729 Y101.9031
G01 X14.7054 Y101.9572
G01 X14.7430 Y102.0079
G01 X14.7853 Y102.0547
G01 X14.8321 Y102.0970
G01 X14.8828 Y102.1346
G01 X14.9369 Y102.1671
G01 X14.9939 Y102.1941
G01 X15.0533 Y102.2153
G01 X15.1146 Y102.2306
G01 X15.1770 Y102.2399
G01 X15.2400 Y102.2430
G01 X15.3030 Y102.2399
G01 X15.3654 Y102.2306
G01 X15.4267 Y102.2153
G01 X15.4861 Y102.1941
G01 X15.5431 Y102.1671
G01 X15.5972 Y102.1346
G01 X15.6479 Y102.0970
G01 X15.6947 Y102.0547
G01 X15.7370 Y102.0079
G01 X15.7746 Y101.9572
G01 X15.8071 Y101.9031
G01 X15.8341 Y101.8461
G01 X15.8553 Y101.7867
G01 X15.8706 Y101.7254
G01 X15.8799 Y101.6630
G01 X15.8830 Y101.6000
G00 X15.8830 Y101.6000
G01 F100.00
G01 Z-1.2500
G01 F400.00
G01 X15.8799 Y101.5370
G01 X15.8706 Y101.4746
G01 X15.8553 Y101.4133
G01 X15.8341 Y101.3539
G01 X15.8071 Y101.2969
G01 X15.7746 Y101.2428
G01 X15.7370 Y101.1921
G01 X15.6947 Y101.1453
G01 X15.6479 Y101.1030
G01 X15.5972 Y101.0654
G01 X15.5431 Y101.0329
G01 X15.4861 Y101.0059
G01 X15.4267 Y100.9847
G01 X15.3654 Y100.9694
G01 X15.3030 Y100.9601
G01 X15.2400 Y100.9570
G01 X15.1770 Y100.9601
G01 X15.1146 Y100.9694
G01 X15.0533 Y100.9847
G01 X14.9939 Y101.0059
G01 X14.9369 Y101.0329
G01 X14.8828 Y101.0654
G01 X14.8321 Y101.1030
G01 X14.7853 Y101.1453
G01 X14.7430 Y101.1921
G01 X14.7054 Y101.2428
G01 X14.6729 Y101.2969
G01 X14.6459 Y101.3539
G01 X14.6247 Y101.4133
G01 X14.6094 Y101.4746
G01 X14.6001 Y101.5370
G01 X14.5970 Y101.6000
G01 X14.6001 Y101.6630
G01 X14.6094 Y101.7254
G01 X14.6247 Y101.7867
G01 X14.6459 Y101.8461
G01 X14.6729 Y101.9031
G01 X14.7054 Y101.9572
G01 X14.7430 Y102.0079
G01 X14.7853 Y102.0547
G01 X14.8321 Y102.0970
G01 X14.8828 Y102.1346
G01 X14.9369 Y102.1671
G01 X14.9939 Y102.1941
G01 X15.0533 Y102.2153
G01 X15.1146 Y102.2306
G01 X15.1770 Y102.2399
G01 X15.2400 Y102.2430
G01 X15.3030 Y102.2399
G01 X15.3654 Y102.2306
G01 X15.4267 Y102.2153
G01 X15.4861 Y102.1941
G01 X15.5431 Y102.1671
G01 X15.5972 Y102.1346
G01 X15.6479 Y102.0970
G01 X15.6947 Y102.0547
G01 X15.7370 Y102.0079
G01 X15.7746 Y101.9572
G01 X15.8071 Y101.9031
G01 X15.8341 Y101.8461
G01 X15.8553 Y101.7867
G01 X15.8706 Y101.7254
G01 X15.8799 Y101.6630
G01 X15.8830 Y101.6000
G00 X15.8830 Y101.6000
G01 F100.00
G01 Z-1.5000
G01 F400.00
G01 X15.8799 Y101.5370
G01 X15.8706 Y101.4746
G01 X15.8553 Y101.4133
G01 X15.8341 Y101.3539
G01 X15.8071 Y101.2969
G01 X15.7746 Y101.2428
G01 X15.7370 Y101.1921
G01 X15.6947 Y101.1453
G01 X15.6479 Y101.1030
G01 X15.5972 Y101.0654
G01 X15.5431 Y101.0329
G01 X15.4861 Y101.0059
G01 X15.4267 Y100.9847
G01 X15.3654 Y100.9694
G01 X15.3030 Y100.9601
G01 X15.2400 Y100.9570
G01 X15.1770 Y100.9601
G01 X15.1146 Y100.9694
G01 X15.0533 Y100.9847
G01 X14.9939 Y101.0059
G01 X14.9369 Y101.0329
G01 X14.8828 Y101.0654
G01 X14.8321 Y101.1030
G01 X14.7853 Y101.1453
G01 X14.7430 Y101.1921
G01 X14.7054 Y101.2428
G01 X14.6729 Y101.2969
G01 X14.6459 Y101.3539
G01 X14.6247 Y101.4133
G01 X14.6094 Y101.4746
G01 X14.6001 Y101.5370
G01 X14.5970 Y101.6000
G01 X14.6001 Y101.6630
G01 X14.6094 Y101.7254
G01 X14.6247 Y101.7867
G01 X14.6459 Y101.8461
G01 X14.6729 Y101.9031
G01 X14.7054 Y101.9572
G01 X14.7430 Y102.0079
G01 X14.7853 Y102.0547
G01 X14.8321 Y102.0970
G01 X14.8828 Y102.1346
G01 X14.9369 Y102.1671
G01 X14.9939 Y102.1941
G01 X15.0533 Y102.2153
G01 X15.1146 Y102.2306
G01 X15.1770 Y102.2399
G01 X15.2400 Y102.2430
G01 X15.3030 Y102.2399
G01 X15.3654 Y102.2306
G01 X15.4267 Y102.2153
G01 X15.4861 Y102.1941
G01 X15.5431 Y102.1671
G01 X15.5972 Y102.1346
G01 X15.6479 Y102.0970
G01 X15.6947 Y102.0547
G01 X15.7370 Y102.0079
G01 X15.7746 Y101.9572
G01 X15.8071 Y101.9031
G01 X15.8341 Y101.8461
G01 X15.8553 Y101.7867
G01 X15.8706 Y101.7254
G01 X15.8799 Y101.6630
G01 X15.8830 Y101.6000
G00 X15.8830 Y101.6000
G01 F100.00
G01 Z-1.6500
G01 F400.00
G01 X15.8799 Y101.5370
G01 X15.8706 Y101.4746
G01 X15.8553 Y101.4133
G01 X15.8341 Y101.3539
G01 X15.8071 Y101.2969
G01 X15.7746 Y101.2428
G01 X15.7370 Y101.1921
G01 X15.6947 Y101.1453
G01 X15.6479 Y101.1030
G01 X15.5972 Y101.0654
G01 X15.5431 Y101.0329
G01 X15.4861 Y101.0059
G01 X15.4267 Y100.9847
G01 X15.3654 Y100.9694
G01 X15.3030 Y100.9601
G01 X15.2400 Y100.9570
G01 X15.1770 Y100.9601
G01 X15.1146 Y100.9694
G01 X15.0533 Y100.9847
G01 X14.9939 Y101.0059
G01 X14.9369 Y101.0329
G01 X14.8828 Y101.0654
G01 X14.8321 Y101.1030
G01 X14.7853 Y101.1453
G01 X14.7430 Y101.1921
G01 X14.7054 Y101.2428
G01 X14.6729 Y101.2969
G01 X14.6459 Y101.3539
G01 X14.6247 Y101.4133
G01 X14.6094 Y101.4746
G01 X14.6001 Y101.5370
G01 X14.5970 Y101.6000
G01 X14.6001 Y101.6630
G01 X14.6094 Y101.7254
G01 X14.6247 Y101.7867
G01 X14.6459 Y101.8461
G01 X14.6729 Y101.9031
G01 X14.7054 Y101.9572
G01 X14.7430 Y102.0079
G01 X14.7853 Y102.0547
G01 X14.8321 Y102.0970
G01 X14.8828 Y102.1346
G01 X14.9369 Y102.1671
G01 X14.9939 Y102.1941
G01 X15.0533 Y102.2153
G01 X15.1146 Y102.2306
G01 X15.1770 Y102.2399
G01 X15.2400 Y102.2430
G01 X15.3030 Y102.2399
G01 X15.3654 Y102.2306
G01 X15.4267 Y102.2153
G01 X15.4861 Y102.1941
G01 X15.5431 Y102.1671
G01 X15.5972 Y102.1346
G01 X15.6479 Y102.0970
G01 X15.6947 Y102.0547
G01 X15.7370 Y102.0079
G01 X15.7746 Y101.9572
G01 X15.8071 Y101.9031
G01 X15.8341 Y101.8461
G01 X15.8553 Y101.7867
G01 X15.8706 Y101.7254
G01 X15.8799 Y101.6630
G01 X15.8830 Y101.6000
G00 Z3.0000
G00 X22.7410 Y118.9990
G01 F100.00
G01 Z-0.2500
G01 F400.00
G01 X22.7385 Y118.9484
G01 X22.7311 Y118.8983
G01 X22.7188 Y118.8492
G01 X22.7017 Y118.8015
G01 X22.6801 Y118.7558
G01 X22.6540 Y118.7123
G01 X22.6239 Y118.6717
G01 X22.5899 Y118.6341
G01 X22.5523 Y118.6001
G01 X22.5117 Y118.5700
G01 X22.4682 Y118.5439
G01 X22.4225 Y118.5223
G01 X22.3748 Y118.5052
G01 X22.3257 Y118.4929
G01 X22.2756 Y118.4855
G01 X22.2250 Y118.4830
G01 X22.1744 Y118.4855
G01 X22.1243 Y118.4929
G01 X22.0752 Y118.5052
G01 X22.0275 Y118.5223
G01 X21.9818 Y118.5439
G01 X21.9383 Y118.5700
G01 X21.8977 Y118.6001
G01 X21.8601 Y118.6341
G01 X21.8261 Y118.6717
G01 X21.7960 Y118.7123
G01 X21.7699 Y118.7558
G01 X21.7483 Y118.8015
G01 X21.7312 Y118.8492
G01 X21.7189 Y118.8983
G01 X21.7115 Y118.9484
G01 X21.7090 Y118.9990
G01 X21.7115 Y119.0496
G01 X21.7189 Y119.0997
G01 X21.7312 Y119.1488
G01 X21.7483 Y119.1965
G01 X21.7699 Y119.2422
G01 X21.7960 Y119.2857
G01 X21.8261 Y119.3263
G01 X21.8601 Y119.3639
G01 X21.8977 Y119.3979
G01 X21.9383 Y119.4280
G01 X21.9818 Y119.4541
G01 X22.0275 Y119.4757
G01 X22.0752 Y119.4928
G01 X22.1243 Y119.5051
G01 X22.1744 Y119.5125
G01 X22.2250 Y119.5150
G01 X22.2756 Y119.5125
G01 X22.3257 Y119.5051
G01 X22.3748 Y119.4928
G01 X22.4225 Y119.4757
G01 X22.4682 Y119.4541
G01 X22.5117 Y119.4280
G01 X22.5523 Y119.3979
G01 X22.5899 Y119.3639
G01 X22.6239 Y119.3263
G01 X22.6540 Y119.2857
G01 X22.6801 Y119.2422
G01 X22.7017 Y119.1965
G01 X22.7188 Y119.1488
G01 X22.7311 Y119.0997
G01 X22.7385 Y119.0496
G01 X22.7410 Y118.9990
G00 X22.7410 Y118.9990
G01 F100.00
G01 Z-0.5000
G01 F400.00
G01 X22.7385 Y118.9484
G01 X22.7311 Y118.8983
G01 X22.7188 Y118.8492
G01 X22.7017 Y118.8015
G01 X22.6801 Y118.7558
G01 X22.6540 Y118.7123
G01 X22.6239 Y118.6717
G01 X22.5899 Y118.6341
G01 X22.5523 Y118.6001
G01 X22.5117 Y118.5700
G01 X22.4682 Y118.5439
G01 X22.4225 Y118.5223
G01 X22.3748 Y118.5052
G01 X22.3257 Y118.4929
G01 X22.2756 Y118.4855
G01 X22.2250 Y118.4830
G01 X22.1744 Y118.4855
G01 X22.1243 Y118.4929
G01 X22.0752 Y118.5052
G01 X22.0275 Y118.5223
G01 X21.9818 Y118.5439
G01 X21.9383 Y118.5700
G01 X21.8977 Y118.6001
G01 X21.8601 Y118.6341
G01 X21.8261 Y118.6717
G01 X21.7960 Y118.7123
G01 X21.7699 Y118.7558
G01 X21.7483 Y118.8015
G01 X21.7312 Y118.8492
G01 X21.7189 Y118.8983
G01 X21.7115 Y118.9484
G01 X21.7090 Y118.9990
G01 X21.7115 Y119.0496
G01 X21.7189 Y119.0997
G01 X21.7312 Y119.1488
G01 X21.7483 Y119.1965
G01 X21.7699 Y119.2422
G01 X21.7960 Y119.2857
G01 X21.8261 Y119.3263
G01 X21.8601 Y119.3639
G01 X21.8977 Y119.3979
G01 X21.9383 Y119.4280
G01 X21.9818 Y119.4541
G01 X22.0275 Y119.4757
G01 X22.0752 Y119.4928
G01 X22.1243 Y119.5051
G01 X22.1744 Y119.5125
G01 X22.2250 Y119.5150
G01 X22.2756 Y119.5125
G01 X22.3257 Y119.5051
G01 X22.3748 Y119.4928
G01 X22.4225 Y119.4757
G01 X22.4682 Y119.4541
G01 X22.5117 Y119.4280
G01 X22.5523 Y119.3979
G01 X22.5899 Y119.3639
G01 X22.6239 Y119.3263
G01 X22.6540 Y119.2857
G01 X22.6801 Y119.2422
G01 X22.7017 Y119.1965
G01 X22.7188 Y119.1488
G01 X22.7311 Y119.0997
G01 X22.7385 Y119.0496
G01 X22.7410 Y118.9990
G00 X22.7410 Y118.9990
G01 F100.00
G01 Z-0.7500
G01 F400.00
G01 X22.7385 Y118.9484
G01 X22.7311 Y118.8983
G01 X22.7188 Y118.8492
G01 X22.7017 Y118.8015
G01 X22.6801 Y118.7558
G01 X22.6540 Y118.7123
G01 X22.6239 Y118.6717
G01 X22.5899 Y118.6341
G01 X22.5523 Y118.6001
G01 X22.5117 Y118.5700
G01 X22.4682 Y118.5439
G01 X22.4225 Y118.5223
G01 X22.3748 Y118.5052
G01 X22.3257 Y118.4929
G01 X22.2756 Y118.4855
G01 X22.2250 Y118.4830
G01 X22.1744 Y118.4855
G01 X22.1243 Y118.4929
G01 X22.0752 Y118.5052
G01 X22.0275 Y118.5223
G01 X21.9818 Y118.5439
G01 X21.9383 Y118.5700
G01 X21.8977 Y118.6001
G01 X21.8601 Y118.6341
G01 X21.8261 Y118.6717
G01 X21.7960 Y118.7123
G01 X21.7699 Y118.7558
G01 X21.7483 Y118.8015
G01 X21.7312 Y118.8492
G01 X21.7189 Y118.8983
G01 X21.7115 Y118.9484
G01 X21.7090 Y118.9990
G01 X21.7115 Y119.0496
G01 X21.7189 Y119.0997
G01 X21.7312 Y119.1488
G01 X21.7483 Y119.1965
G01 X21.7699 Y119.2422
G01 X21.7960 Y119.2857
G01 X21.8261 Y119.3263
G01 X21.8601 Y119.3639
G01 X21.8977 Y119.3979
G01 X21.9383 Y119.4280
G01 X21.9818 Y119.4541
G01 X22.0275 Y119.4757
G01 X22.0752 Y119.4928
G01 X22.1243 Y119.5051
G01 X22.1744 Y119.5125
G01 X22.2250 Y119.5150
G01 X22.2756 Y119.5125
G01 X22.3257 Y119.5051
G01 X22.3748 Y119.4928
G01 X22.4225 Y119.4757
G01 X22.4682 Y119.4541
G01 X22.5117 Y119.4280
G01 X22.5523 Y119.3979
G01 X22.5899 Y119.3639
G01 X22.6239 Y119.3263
G01 X22.6540 Y119.2857
G01 X22.6801 Y119.2422
G01 X22.7017 Y119.1965
G01 X22.7188 Y119.1488
G01 X22.7311 Y119.0997
G01 X22.7385 Y119.0496
G01 X22.7410 Y118.9990
G00 X22.7410 Y118.9990
G01 F100.00
G01 Z-1.0000
G01 F400.00
G01 X22.7385 Y118.9484
G01 X22.7311 Y118.8983
G01 X22.7188 Y118.8492
G01 X22.7017 Y118.8015
G01 X22.6801 Y118.7558
G01 X22.6540 Y118.7123
G01 X22.6239 Y118.6717
G01 X22.5899 Y118.6341
G01 X22.5523 Y118.6001
G01 X22.5117 Y118.5700
G01 X22.4682 Y118.5439
G01 X22.4225 Y118.5223
G01 X22.3748 Y118.5052
G01 X22.3257 Y118.4929
G01 X22.2756 Y118.4855
G01 X22.2250 Y118.4830
G01 X22.1744 Y118.4855
G01 X22.1243 Y118.4929
G01 X22.0752 Y118.5052
G01 X22.0275 Y118.5223
G01 X21.9818 Y118.5439
G01 X21.9383 Y118.5700
G01 X21.8977 Y118.6001
G01 X21.8601 Y118.6341
G01 X21.8261 Y118.6717
G01 X21.7960 Y118.7123
G01 X21.7699 Y118.7558
G01 X21.7483 Y118.8015
G01 X21.7312 Y118.8492
G01 X21.7189 Y118.8983
G01 X21.7115 Y118.9484
G01 X21.7090 Y118.9990
G01 X21.7115 Y119.0496
G01 X21.7189 Y119.0997
G01 X21.7312 Y119.1488
G01 X21.7483 Y119.1965
G01 X21.7699 Y119.2422
G01 X21.7960 Y119.2857
G01 X21.8261 Y119.3263
G01 X21.8601 Y119.3639
G01 X21.8977 Y119.3979
G01 X21.9383 Y119.4280
G01 X21.9818 Y119.4541
G01 X22.0275 Y119.4757
G01 X22.0752 Y119.4928
G01 X22.1243 Y119.5051
G01 X22.1744 Y119.5125
G01 X22.2250 Y119.5150
G01 X22.2756 Y119.5125
G01 X22.3257 Y119.5051
G01 X22.3748 Y119.4928
G01 X22.4225 Y119.4757
G01 X22.4682 Y119.4541
G01 X22.5117 Y119.4280
G01 X22.5523 Y119.3979
G01 X22.5899 Y119.3639
G01 X22.6239 Y119.3263
G01 X22.6540 Y119.2857
G01 X22.6801 Y119.2422
G01 X22.7017 Y119.1965
G01 X22.7188 Y119.1488
G01 X22.7311 Y119.0997
G01 X22.7385 Y119.0496
G01 X22.7410 Y118.9990
G00 X22.7410 Y118.9990
G01 F100.00
G01 Z-1.2500
G01 F400.00
G01 X22.7385 Y118.9484
G01 X22.7311 Y118.8983
G01 X22.7188 Y118.8492
G01 X22.7017 Y118.8015
G01 X22.6801 Y118.7558
G01 X22.6540 Y118.7123
G01 X22.6239 Y118.6717
G01 X22.5899 Y118.6341
G01 X22.5523 Y118.6001
G01 X22.5117 Y118.5700
G01 X22.4682 Y118.5439
G01 X22.4225 Y118.5223
G01 X22.3748 Y118.5052
G01 X22.3257 Y118.4929
G01 X22.2756 Y118.4855
G01 X22.2250 Y118.4830
G01 X22.1744 Y118.4855
G01 X22.1243 Y118.4929
G01 X22.0752 Y118.5052
G01 X22.0275 Y118.5223
G01 X21.9818 Y118.5439
G01 X21.9383 Y118.5700
G01 X21.8977 Y118.6001
G01 X21.8601 Y118.6341
G01 X21.8261 Y118.6717
G01 X21.7960 Y118.7123
G01 X21.7699 Y118.7558
G01 X21.7483 Y118.8015
G01 X21.7312 Y118.8492
G01 X21.7189 Y118.8983
G01 X21.7115 Y118.9484
G01 X21.7090 Y118.9990
G01 X21.7115 Y119.0496
G01 X21.7189 Y119.0997
G01 X21.7312 Y119.1488
G01 X21.7483 Y119.1965
G01 X21.7699 Y119.2422
G01 X21.7960 Y119.2857
G01 X21.8261 Y119.3263
G01 X21.8601 Y119.3639
G01 X21.8977 Y119.3979
G01 X21.9383 Y119.4280
G01 X21.9818 Y119.4541
G01 X22.0275 Y119.4757
G01 X22.0752 Y119.4928
G01 X22.1243 Y119.5051
G01 X22.1744 Y119.5125
G01 X22.2250 Y119.5150
G01 X22.2756 Y119.5125
G01 X22.3257 Y119.5051
G01 X22.3748 Y119.4928
G01 X22.4225 Y119.4757
G01 X22.4682 Y119.4541
G01 X22.5117 Y119.4280
G01 X22.5523 Y119.3979
G01 X22.5899 Y119.3639
G01 X22.6239 Y119.3263
G01 X22.6540 Y119.2857
G01 X22.6801 Y119.2422
G01 X22.7017 Y119.1965
G01 X22.7188 Y119.1488
G01 X22.7311 Y119.0997
G01 X22.7385 Y119.0496
G01 X22.7410 Y118.9990
G00 X22.7410 Y118.9990
G01 F100.00
G01 Z-1.5000
G01 F400.00
G01 X22.7385 Y118.9484
G01 X22.7311 Y118.8983
G01 X22.7188 Y118.8492
G01 X22.7017 Y118.8015
G01 X22.6801 Y118.7558
G01 X22.6540 Y118.7123
G01 X22.6239 Y118.6717
G01 X22.5899 Y118.6341
G01 X22.5523 Y118.6001
G01 X22.5117 Y118.5700
G01 X22.4682 Y118.5439
G01 X22.4225 Y118.5223
G01 X22.3748 Y118.5052
G01 X22.3257 Y118.4929
G01 X22.2756 Y118.4855
G01 X22.2250 Y118.4830
G01 X22.1744 Y118.4855
G01 X22.1243 Y118.4929
G01 X22.0752 Y118.5052
G01 X22.0275 Y118.5223
G01 X21.9818 Y118.5439
G01 X21.9383 Y118.5700
G01 X21.8977 Y118.6001
G01 X21.8601 Y118.6341
G01 X21.8261 Y118.6717
G01 X21.7960 Y118.7123
G01 X21.7699 Y118.7558
G01 X21.7483 Y118.8015
G01 X21.7312 Y118.8492
G01 X21.7189 Y118.8983
G01 X21.7115 Y118.9484
G01 X21.7090 Y118.9990
G01 X21.7115 Y119.0496
G01 X21.7189 Y119.0997
G01 X21.7312 Y119.1488
G01 X21.7483 Y119.1965
G01 X21.7699 Y119.2422
G01 X21.7960 Y119.2857
G01 X21.8261 Y119.3263
G01 X21.8601 Y119.3639
G01 X21.8977 Y119.3979
G01 X21.9383 Y119.4280
G01 X21.9818 Y119.4541
G01 X22.0275 Y119.4757
G01 X22.0752 Y119.4928
G01 X22.1243 Y119.5051
G01 X22.1744 Y119.5125
G01 X22.2250 Y119.5150
G01 X22.2756 Y119.5125
G01 X22.3257 Y119.5051
G01 X22.3748 Y119.4928
G01 X22.4225 Y119.4757
G01 X22.4682 Y119.4541
G01 X22.5117 Y119.4280
G01 X22.5523 Y119.3979
G01 X22.5899 Y119.3639
G01 X22.6239 Y119.3263
G01 X22.6540 Y119.2857
G01 X22.6801 Y119.2422
G01 X22.7017 Y119.1965
G01 X22.7188 Y119.1488
G01 X22.7311 Y119.0997
G01 X22.7385 Y119.0496
G01 X22.7410 Y118.9990
G00 X22.7410 Y118.9990
G01 F100.00
G01 Z-1.6500
G01 F400.00
G01 X22.7385 Y118.9484
G01 X22.7311 Y118.8983
G01 X22.7188 Y118.8492
G01 X22.7017 Y118.8015
G01 X22.6801 Y118.7558
G01 X22.6540 Y118.7123
G01 X22.6239 Y118.6717
G01 X22.5899 Y118.6341
G01 X22.5523 Y118.6001
G01 X22.5117 Y118.5700
G01 X22.4682 Y118.5439
G01 X22.4225 Y118.5223
G01 X22.3748 Y118.5052
G01 X22.3257 Y118.4929
G01 X22.2756 Y118.4855
G01 X22.2250 Y118.4830
G01 X22.1744 Y118.4855
G01 X22.1243 Y118.4929
G01 X22.0752 Y118.5052
G01 X22.0275 Y118.5223
G01 X21.9818 Y118.5439
G01 X21.9383 Y118.5700
G01 X21.8977 Y118.6001
G01 X21.8601 Y118.6341
G01 X21.8261 Y118.6717
G01 X21.7960 Y118.7123
G01 X21.7699 Y118.7558
G01 X21.7483 Y118.8015
G01 X21.7312 Y118.8492
G01 X21.7189 Y118.8983
G01 X21.7115 Y118.9484
G01 X21.7090 Y118.9990
G01 X21.7115 Y119.0496
G01 X21.7189 Y119.0997
G01 X21.7312 Y119.1488
G01 X21.7483 Y119.1965
G01 X21.7699 Y119.2422
G01 X21.7960 Y119.2857
G01 X21.8261 Y119.3263
G01 X21.8601 Y119.3639
G01 X21.8977 Y119.3979
G01 X21.9383 Y119.4280
G01 X21.9818 Y119.4541
G01 X22.0275 Y119.4757
G01 X22.0752 Y119.4928
G01 X22.1243 Y119.5051
G01 X22.1744 Y119.5125
G01 X22.2250 Y119.5150
G01 X22.2756 Y119.5125
G01 X22.3257 Y119.5051
G01 X22.3748 Y119.4928
G01 X22.4225 Y119.4757
G01 X22.4682 Y119.4541
G01 X22.5117 Y119.4280
G01 X22.5523 Y119.3979
G01 X22.5899 Y119.3639
G01 X22.6239 Y119.3263
G01 X22.6540 Y119.2857
G01 X22.6801 Y119.2422
G01 X22.7017 Y119.1965
G01 X22.7188 Y119.1488
G01 X22.7311 Y119.0997
G01 X22.7385 Y119.0496
G01 X22.7410 Y118.9990
G00 Z3.0000
G00 X25.9160 Y121.1580
G01 F100.00
G01 Z-0.2500
G01 F400.00
G01 X25.9135 Y121.1074
G01 X25.9061 Y121.0573
G01 X25.8938 Y121.0082
G01 X25.8767 Y120.9605
G01 X25.8551 Y120.9148
G01 X25.8290 Y120.8713
G01 X25.7989 Y120.8307
G01 X25.7649 Y120.7931
G01 X25.7273 Y120.7591
G01 X25.6867 Y120.7290
G01 X25.6432 Y120.7029
G01 X25.5975 Y120.6813
G01 X25.5498 Y120.6642
G01 X25.5007 Y120.6519
G01 X25.4506 Y120.6445
G01 X25.4000 Y120.6420
G01 X25.3494 Y120.6445
G01 X25.2993 Y120.6519
G01 X25.2502 Y120.6642
G01 X25.2025 Y120.6813
G01 X25.1568 Y120.7029
G01 X25.1133 Y120.7290
G01 X25.0727 Y120.7591
G01 X25.0351 Y120.7931
G01 X25.0011 Y120.8307
G01 X24.9710 Y120.8713
G01 X24.9449 Y120.9148
G01 X24.9233 Y120.9605
G01 X24.9062 Y121.0082
G01 X24.8939 Y121.0573
G01 X24.8865 Y121.1074
G01 X24.8840 Y121.1580
G01 X24.8865 Y121.2086
G01 X24.8939 Y121.2587
G01 X24.9062 Y121.3078
G01 X24.9233 Y121.3555
G01 X24.9449 Y121.4012
G01 X24.9710 Y121.4447
G01 X25.0011 Y121.4853
G01 X25.0351 Y121.5229
G01 X25.0727 Y121.5569
G01 X25.1133 Y121.5870
G01 X25.1568 Y121.6131
G01 X25.2025 Y121.6347
G01 X25.2502 Y121.6518
G01 X25.2993 Y121.6641
G01 X25.3494 Y121.6715
G01 X25.4000 Y121.6740
G01 X25.4506 Y121.6715
G01 X25.5007 Y121.6641
G01 X25.5498 Y121.6518
G01 X25.5975 Y121.6347
G01 X25.6432 Y121.6131
G01 X25.6867 Y121.5870
G01 X25.7273 Y121.5569
G01 X25.7649 Y121.5229
G01 X25.7989 Y121.4853
G01 X25.8290 Y121.4447
G01 X25.8551 Y121.4012
G01 X25.8767 Y121.3555
G01 X25.8938 Y121.3078
G01 X25.9061 Y121.2587
G01 X25.9135 Y121.2086
G01 X25.9160 Y121.1580
G00 X25.9160 Y121.1580
G01 F100.00
G01 Z-0.5000
G01 F400.00
G01 X25.9135 Y121.1074
G01 X25.9061 Y121.0573
G01 X25.8938 Y121.0082
G01 X25.8767 Y120.9605
G01 X25.8551 Y120.9148
G01 X25.8290 Y120.8713
G01 X25.7989 Y120.8307
G01 X25.7649 Y120.7931
G01 X25.7273 Y120.7591
G01 X25.6867 Y120.7290
G01 X25.6432 Y120.7029
G01 X25.5975 Y120.6813
G01 X25.5498 Y120.6642
G01 X25.5007 Y120.6519
G01 X25.4506 Y120.6445
G01 X25.4000 Y120.6420
G01 X25.3494 Y120.6445
G01 X25.2993 Y120.6519
G01 X25.2502 Y120.6642
G01 X25.2025 Y120.6813
G01 X25.1568 Y120.7029
G01 X25.1133 Y120.7290
G01 X25.0727 Y120.7591
G01 X25.0351 Y120.7931
G01 X25.0011 Y120.8307
G01 X24.9710 Y120.8713
G01 X24.9449 Y120.9148
G01 X24.9233 Y120.9605
G01 X24.9062 Y121.0082
G01 X24.8939 Y121.0573
G01 X24.8865 Y121.1074
G01 X24.8840 Y121.1580
G01 X24.8865 Y121.2086
G01 X24.8939 Y121.2587
G01 X24.9062 Y121.3078
G01 X24.9233 Y121.3555
G01 X24.9449 Y121.4012
G01 X24.9710 Y121.4447
G01 X25.0011 Y121.4853
G01 X25.0351 Y121.5229
G01 X25.0727 Y121.5569
G01 X25.1133 Y121.5870
G01 X25.1568 Y121.6131
G01 X25.2025 Y121.6347
G01 X25.2502 Y121.6518
G01 X25.2993 Y121.6641
G01 X25.3494 Y121.6715
G01 X25.4000 Y121.6740
G01 X25.4506 Y121.6715
G01 X25.5007 Y121.6641
G01 X25.5498 Y121.6518
G01 X25.5975 Y121.6347
G01 X25.6432 Y121.6131
G01 X25.6867 Y121.5870
G01 X25.7273 Y121.5569
G01 X25.7649 Y121.5229
G01 X25.7989 Y121.4853
G01 X25.8290 Y121.4447
G01 X25.8551 Y121.4012
G01 X25.8767 Y121.3555
G01 X25.8938 Y121.3078
G01 X25.9061 Y121.2587
G01 X25.9135 Y121.2086
G01 X25.9160 Y121.1580
G00 X25.9160 Y121.1580
G01 F100.00
G01 Z-0.7500
G01 F400.00
G01 X25.9135 Y121.1074
G01 X25.9061 Y121.0573
G01 X25.8938 Y121.0082
G01 X25.8767 Y120.9605
G01 X25.8551 Y120.9148
G01 X25.8290 Y120.8713
G01 X25.7989 Y120.8307
G01 X25.7649 Y120.7931
G01 X25.7273 Y120.7591
G01 X25.6867 Y120.7290
G01 X25.6432 Y120.7029
G01 X25.5975 Y120.6813
G01 X25.5498 Y120.6642
G01 X25.5007 Y120.6519
G01 X25.4506 Y120.6445
G01 X25.4000 Y120.6420
G01 X25.3494 Y120.6445
G01 X25.2993 Y120.6519
G01 X25.2502 Y120.6642
G01 X25.2025 Y120.6813
G01 X25.1568 Y120.7029
G01 X25.1133 Y120.7290
G01 X25.0727 Y120.7591
G01 X25.0351 Y120.7931
G01 X25.0011 Y120.8307
G01 X24.9710 Y120.8713
G01 X24.9449 Y120.9148
G01 X24.9233 Y120.9605
G01 X24.9062 Y121.0082
G01 X24.8939 Y121.0573
G01 X24.8865 Y121.1074
G01 X24.8840 Y121.1580
G01 X24.8865 Y121.2086
G01 X24.8939 Y121.2587
G01 X24.9062 Y121.3078
G01 X24.9233 Y121.3555
G01 X24.9449 Y121.4012
G01 X24.9710 Y121.4447
G01 X25.0011 Y121.4853
G01 X25.0351 Y121.5229
G01 X25.0727 Y121.5569
G01 X25.1133 Y121.5870
G01 X25.1568 Y121.6131
G01 X25.2025 Y121.6347
G01 X25.2502 Y121.6518
G01 X25.2993 Y121.6641
G01 X25.3494 Y121.6715
G01 X25.4000 Y121.6740
G01 X25.4506 Y121.6715
G01 X25.5007 Y121.6641
G01 X25.5498 Y121.6518
G01 X25.5975 Y121.6347
G01 X25.6432 Y121.6131
G01 X25.6867 Y121.5870
G01 X25.7273 Y121.5569
G01 X25.7649 Y121.5229
G01 X25.7989 Y121.4853
G01 X25.8290 Y121.4447
G01 X25.8551 Y121.4012
G01 X25.8767 Y121.3555
G01 X25.8938 Y121.3078
G01 X25.9061 Y121.2587
G01 X25.9135 Y121.2086
G01 X25.9160 Y121.1580
G00 X25.9160 Y121.1580
G01 F100.00
G01 Z-1.0000
G01 F400.00
G01 X25.9135 Y121.1074
G01 X25.9061 Y121.0573
G01 X25.8938 Y121.0082
G01 X25.8767 Y120.9605
G01 X25.8551 Y120.9148
G01 X25.8290 Y120.8713
G01 X25.7989 Y120.8307
G01 X25.7649 Y120.7931
G01 X25.7273 Y120.7591
G01 X25.6867 Y120.7290
G01 X25.6432 Y120.7029
G01 X25.5975 Y120.6813
G01 X25.5498 Y120.6642
G01 X25.5007 Y120.6519
G01 X25.4506 Y120.6445
G01 X25.4000 Y120.6420
G01 X25.3494 Y120.6445
G01 X25.2993 Y120.6519
G01 X25.2502 Y120.6642
G01 X25.2025 Y120.6813
G01 X25.1568 Y120.7029
G01 X25.1133 Y120.7290
G01 X25.0727 Y120.7591
G01 X25.0351 Y120.7931
G01 X25.0011 Y120.8307
G01 X24.9710 Y120.8713
G01 X24.9449 Y120.9148
G01 X24.9233 Y120.9605
G01 X24.9062 Y121.0082
G01 X24.8939 Y121.0573
G01 X24.8865 Y121.1074
G01 X24.8840 Y121.1580
G01 X24.8865 Y121.2086
G01 X24.8939 Y121.2587
G01 X24.9062 Y121.3078
G01 X24.9233 Y121.3555
G01 X24.9449 Y121.4012
G01 X24.9710 Y121.4447
G01 X25.0011 Y121.4853
G01 X25.0351 Y121.5229
G01 X25.0727 Y121.5569
G01 X25.1133 Y121.5870
G01 X25.1568 Y121.6131
G01 X25.2025 Y121.6347
G01 X25.2502 Y121.6518
G01 X25.2993 Y121.6641
G01 X25.3494 Y121.6715
G01 X25.4000 Y121.6740
G01 X25.4506 Y121.6715
G01 X25.5007 Y121.6641
G01 X25.5498 Y121.6518
G01 X25.5975 Y121.6347
G01 X25.6432 Y121.6131
G01 X25.6867 Y121.5870
G01 X25.7273 Y121.5569
G01 X25.7649 Y121.5229
G01 X25.7989 Y121.4853
G01 X25.8290 Y121.4447
G01 X25.8551 Y121.4012
G01 X25.8767 Y121.3555
G01 X25.8938 Y121.3078
G01 X25.9061 Y121.2587
G01 X25.9135 Y121.2086
G01 X25.9160 Y121.1580
G00 X25.9160 Y121.1580
G01 F100.00
G01 Z-1.2500
G01 F400.00
G01 X25.9135 Y121.1074
G01 X25.9061 Y121.0573
G01 X25.8938 Y121.0082
G01 X25.8767 Y120.9605
G01 X25.8551 Y120.9148
G01 X25.8290 Y120.8713
G01 X25.7989 Y120.8307
G01 X25.7649 Y120.7931
G01 X25.7273 Y120.7591
G01 X25.6867 Y120.7290
G01 X25.6432 Y120.7029
G01 X25.5975 Y120.6813
G01 X25.5498 Y120.6642
G01 X25.5007 Y120.6519
G01 X25.4506 Y120.6445
G01 X25.4000 Y120.6420
G01 X25.3494 Y120.6445
G01 X25.2993 Y120.6519
G01 X25.2502 Y120.6642
G01 X25.2025 Y120.6813
G01 X25.1568 Y120.7029
G01 X25.1133 Y120.7290
G01 X25.0727 Y120.7591
G01 X25.0351 Y120.7931
G01 X25.0011 Y120.8307
G01 X24.9710 Y120.8713
G01 X24.9449 Y120.9148
G01 X24.9233 Y120.9605
G01 X24.9062 Y121.0082
G01 X24.8939 Y121.0573
G01 X24.8865 Y121.1074
G01 X24.8840 Y121.1580
G01 X24.8865 Y121.2086
G01 X24.8939 Y121.2587
G01 X24.9062 Y121.3078
G01 X24.9233 Y121.3555
G01 X24.9449 Y121.4012
G01 X24.9710 Y121.4447
G01 X25.0011 Y121.4853
G01 X25.0351 Y121.5229
G01 X25.0727 Y121.5569
G01 X25.1133 Y121.5870
G01 X25.1568 Y121.6131
G01 X25.2025 Y121.6347
G01 X25.2502 Y121.6518
G01 X25.2993 Y121.6641
G01 X25.3494 Y121.6715
G01 X25.4000 Y121.6740
G01 X25.4506 Y121.6715
G01 X25.5007 Y121.6641
G01 X25.5498 Y121.6518
G01 X25.5975 Y121.6347
G01 X25.6432 Y121.6131
G01 X25.6867 Y121.5870
G01 X25.7273 Y121.5569
G01 X25.7649 Y121.5229
G01 X25.7989 Y121.4853
G01 X25.8290 Y121.4447
G01 X25.8551 Y121.4012
G01 X25.8767 Y121.3555
G01 X25.8938 Y121.3078
G01 X25.9061 Y121.2587
G01 X25.9135 Y121.2086
G01 X25.9160 Y121.1580
G00 X25.9160 Y121.1580
G01 F100.00
G01 Z-1.5000
G01 F400.00
G01 X25.9135 Y121.1074
G01 X25.9061 Y121.0573
G01 X25.8938 Y121.0082
G01 X25.8767 Y120.9605
G01 X25.8551 Y120.9148
G01 X25.8290 Y120.8713
G01 X25.7989 Y120.8307
G01 X25.7649 Y120.7931
G01 X25.7273 Y120.7591
G01 X25.6867 Y120.7290
G01 X25.6432 Y120.7029
G01 X25.5975 Y120.6813
G01 X25.5498 Y120.6642
G01 X25.5007 Y120.6519
G01 X25.4506 Y120.6445
G01 X25.4000 Y120.6420
G01 X25.3494 Y120.6445
G01 X25.2993 Y120.6519
G01 X25.2502 Y120.6642
G01 X25.2025 Y120.6813
G01 X25.1568 Y120.7029
G01 X25.1133 Y120.7290
G01 X25.0727 Y120.7591
G01 X25.0351 Y120.7931
G01 X25.0011 Y120.8307
G01 X24.9710 Y120.8713
G01 X24.9449 Y120.9148
G01 X24.9233 Y120.9605
G01 X24.9062 Y121.0082
G01 X24.8939 Y121.0573
G01 X24.8865 Y121.1074
G01 X24.8840 Y121.1580
G01 X24.8865 Y121.2086
G01 X24.8939 Y121.2587
G01 X24.9062 Y121.3078
G01 X24.9233 Y121.3555
G01 X24.9449 Y121.4012
G01 X24.9710 Y121.4447
G01 X25.0011 Y121.4853
G01 X25.0351 Y121.5229
G01 X25.0727 Y121.5569
G01 X25.1133 Y121.5870
G01 X25.1568 Y121.6131
G01 X25.2025 Y121.6347
G01 X25.2502 Y121.6518
G01 X25.2993 Y121.6641
G01 X25.3494 Y121.6715
G01 X25.4000 Y121.6740
G01 X25.4506 Y121.6715
G01 X25.5007 Y121.6641
G01 X25.5498 Y121.6518
G01 X25.5975 Y121.6347
G01 X25.6432 Y121.6131
G01 X25.6867 Y121.5870
G01 X25.7273 Y121.5569
G01 X25.7649 Y121.5229
G01 X25.7989 Y121.4853
G01 X25.8290 Y121.4447
G01 X25.8551 Y121.4012
G01 X25.8767 Y121.3555
G01 X25.8938 Y121.3078
G01 X25.9061 Y121.2587
G01 X25.9135 Y121.2086
G01 X25.9160 Y121.1580
G00 X25.9160 Y121.1580
G01 F100.00
G01 Z-1.6500
G01 F400.00
G01 X25.9135 Y121.1074
G01 X25.9061 Y121.0573
G01 X25.8938 Y121.0082
G01 X25.8767 Y120.9605
G01 X25.8551 Y120.9148
G01 X25.8290 Y120.8713
G01 X25.7989 Y120.8307
G01 X25.7649 Y120.7931
G01 X25.7273 Y120.7591
G01 X25.6867 Y120.7290
G01 X25.6432 Y120.7029
G01 X25.5975 Y120.6813
G01 X25.5498 Y120.6642
G01 X25.5007 Y120.6519
G01 X25.4506 Y120.6445
G01 X25.4000 Y120.6420
G01 X25.3494 Y120.6445
G01 X25.2993 Y120.6519
G01 X25.2502 Y120.6642
G01 X25.2025 Y120.6813
G01 X25.1568 Y120.7029
G01 X25.1133 Y120.7290
G01 X25.0727 Y120.7591
G01 X25.0351 Y120.7931
G01 X25.0011 Y120.8307
G01 X24.9710 Y120.8713
G01 X24.9449 Y120.9148
G01 X24.9233 Y120.9605
G01 X24.9062 Y121.0082
G01 X24.8939 Y121.0573
G01 X24.8865 Y121.1074
G01 X24.8840 Y121.1580
G01 X24.8865 Y121.2086
G01 X24.8939 Y121.2587
G01 X24.9062 Y121.3078
G01 X24.9233 Y121.3555
G01 X24.9449 Y121.4012
G01 X24.9710 Y121.4447
G01 X25.0011 Y121.4853
G01 X25.0351 Y121.5229
G01 X25.0727 Y121.5569
G01 X25.1133 Y121.5870
G01 X25.1568 Y121.6131
G01 X25.2025 Y121.6347
G01 X25.2502 Y121.6518
G01 X25.2993 Y121.6641
G01 X25.3494 Y121.6715
G01 X25.4000 Y121.6740
G01 X25.4506 Y121.6715
G01 X25.5007 Y121.6641
G01 X25.5498 Y121.6518
G01 X25.5975 Y121.6347
G01 X25.6432 Y121.6131
G01 X25.6867 Y121.5870
G01 X25.7273 Y121.5569
G01 X25.7649 Y121.5229
G01 X25.7989 Y121.4853
G01 X25.8290 Y121.4447
G01 X25.8551 Y121.4012
G01 X25.8767 Y121.3555
G01 X25.8938 Y121.3078
G01 X25.9061 Y121.2587
G01 X25.9135 Y121.2086
G01 X25.9160 Y121.1580
G00 Z3.0000
G00 X29.0910 Y118.9990
G01 F100.00
G01 Z-0.2500
G01 F400.00
G01 X29.0885 Y118.9484
G01 X29.0811 Y118.8983
G01 X29.0688 Y118.8492
G01 X29.0517 Y118.8015
G01 X29.0301 Y118.7558
G01 X29.0040 Y118.7123
G01 X28.9739 Y118.6717
G01 X28.9399 Y118.6341
G01 X28.9023 Y118.6001
G01 X28.8617 Y118.5700
G01 X28.8182 Y118.5439
G01 X28.7725 Y118.5223
G01 X28.7248 Y118.5052
G01 X28.6757 Y118.4929
G01 X28.6256 Y118.4855
G01 X28.5750 Y118.4830
G01 X28.5244 Y118.4855
G01 X28.4743 Y118.4929
G01 X28.4252 Y118.5052
G01 X28.3775 Y118.5223
G01 X28.3318 Y118.5439
G01 X28.2883 Y118.5700
G01 X28.2477 Y118.6001
G01 X28.2101 Y118.6341
G01 X28.1761 Y118.6717
G01 X28.1460 Y118.7123
G01 X28.1199 Y118.7558
G01 X28.0983 Y118.8015
G01 X28.0812 Y118.8492
G01 X28.0689 Y118.8983
G01 X28.0615 Y118.9484
G01 X28.0590 Y118.9990
G01 X28.0615 Y119.0496
G01 X28.0689 Y119.0997
G01 X28.0812 Y119.1488
G01 X28.0983 Y119.1965
G01 X28.1199 Y119.2422
G01 X28.1460 Y119.2857
G01 X28.1761 Y119.3263
G01 X28.2101 Y119.3639
G01 X28.2477 Y119.3979
G01 X28.2883 Y119.4280
G01 X28.3318 Y119.4541
G01 X28.3775 Y119.4757
G01 X28.4252 Y119.4928
G01 X28.4743 Y119.5051
G01 X28.5244 Y119.5125
G01 X28.5750 Y119.5150
G01 X28.6256 Y119.5125
G01 X28.6757 Y119.5051
G01 X28.7248 Y119.4928
G01 X28.7725 Y119.4757
G01 X28.8182 Y119.4541
G01 X28.8617 Y119.4280
G01 X28.9023 Y119.3979
G01 X28.9399 Y119.3639
G01 X28.9739 Y119.3263
G01 X29.0040 Y119.2857
G01 X29.0301 Y119.2422
G01 X29.0517 Y119.1965
G01 X29.0688 Y119.1488
G01 X29.0811 Y119.0997
G01 X29.0885 Y119.0496
G01 X29.0910 Y118.9990
G00 X29.0910 Y118.9990
G01 F100.00
G01 Z-0.5000
G01 F400.00
G01 X29.0885 Y118.9484
G01 X29.0811 Y118.8983
G01 X29.0688 Y118.8492
G01 X29.0517 Y118.8015
G01 X29.0301 Y118.7558
G01 X29.0040 Y118.7123
G01 X28.9739 Y118.6717
G01 X28.9399 Y118.6341
G01 X28.9023 Y118.6001
G01 X28.8617 Y118.5700
G01 X28.8182 Y118.5439
G01 X28.7725 Y118.5223
G01 X28.7248 Y118.5052
G01 X28.6757 Y118.4929
G01 X28.6256 Y118.4855
G01 X28.5750 Y118.4830
G01 X28.5244 Y118.4855
G01 X28.4743 Y118.4929
G01 X28.4252 Y118.5052
G01 X28.3775 Y118.5223
G01 X28.3318 Y118.5439
G01 X28.2883 Y118.5700
G01 X28.2477 Y118.6001
G01 X28.2101 Y118.6341
G01 X28.1761 Y118.6717
G01 X28.1460 Y118.7123
G01 X28.1199 Y118.7558
G01 X28.0983 Y118.8015
G01 X28.0812 Y118.8492
G01 X28.0689 Y118.8983
G01 X28.0615 Y118.9484
G01 X28.0590 Y118.9990
G01 X28.0615 Y119.0496
G01 X28.0689 Y119.0997
G01 X28.0812 Y119.1488
G01 X28.0983 Y119.1965
G01 X28.1199 Y119.2422
G01 X28.1460 Y119.2857
G01 X28.1761 Y119.3263
G01 X28.2101 Y119.3639
G01 X28.2477 Y119.3979
G01 X28.2883 Y119.4280
G01 X28.3318 Y119.4541
G01 X28.3775 Y119.4757
G01 X28.4252 Y119.4928
G01 X28.4743 Y119.5051
G01 X28.5244 Y119.5125
G01 X28.5750 Y119.5150
G01 X28.6256 Y119.5125
G01 X28.6757 Y119.5051
G01 X28.7248 Y119.4928
G01 X28.7725 Y119.4757
G01 X28.8182 Y119.4541
G01 X28.8617 Y119.4280
G01 X28.9023 Y119.3979
G01 X28.9399 Y119.3639
G01 X28.9739 Y119.3263
G01 X29.0040 Y119.2857
G01 X29.0301 Y119.2422
G01 X29.0517 Y119.1965
G01 X29.0688 Y119.1488
G01 X29.0811 Y119.0997
G01 X29.0885 Y119.0496
G01 X29.0910 Y118.9990
G00 X29.0910 Y118.9990
G01 F100.00
G01 Z-0.7500
G01 F400.00
G01 X29.0885 Y118.9484
G01 X29.0811 Y118.8983
G01 X29.0688 Y118.8492
G01 X29.0517 Y118.8015
G01 X29.0301 Y118.7558
G01 X29.0040 Y118.7123
G01 X28.9739 Y118.6717
G01 X28.9399 Y118.6341
G01 X28.9023 Y118.6001
G01 X28.8617 Y118.5700
G01 X28.8182 Y118.5439
G01 X28.7725 Y118.5223
G01 X28.7248 Y118.5052
G01 X28.6757 Y118.4929
G01 X28.6256 Y118.4855
G01 X28.5750 Y118.4830
G01 X28.5244 Y118.4855
G01 X28.4743 Y118.4929
G01 X28.4252 Y118.5052
G01 X28.3775 Y118.5223
G01 X28.3318 Y118.5439
G01 X28.2883 Y118.5700
G01 X28.2477 Y118.6001
G01 X28.2101 Y118.6341
G01 X28.1761 Y118.6717
G01 X28.1460 Y118.7123
G01 X28.1199 Y118.7558
G01 X28.0983 Y118.8015
G01 X28.0812 Y118.8492
G01 X28.0689 Y118.8983
G01 X28.0615 Y118.9484
G01 X28.0590 Y118.9990
G01 X28.0615 Y119.0496
G01 X28.0689 Y119.0997
G01 X28.0812 Y119.1488
G01 X28.0983 Y119.1965
G01 X28.1199 Y119.2422
G01 X28.1460 Y119.2857
G01 X28.1761 Y119.3263
G01 X28.2101 Y119.3639
G01 X28.2477 Y119.3979
G01 X28.2883 Y119.4280
G01 X28.3318 Y119.4541
G01 X28.3775 Y119.4757
G01 X28.4252 Y119.4928
G01 X28.4743 Y119.5051
G01 X28.5244 Y119.5125
G01 X28.5750 Y119.5150
G01 X28.6256 Y119.5125
G01 X28.6757 Y119.5051
G01 X28.7248 Y119.4928
G01 X28.7725 Y119.4757
G01 X28.8182 Y119.4541
G01 X28.8617 Y119.4280
G01 X28.9023 Y119.3979
G01 X28.9399 Y119.3639
G01 X28.9739 Y119.3263
G01 X29.0040 Y119.2857
G01 X29.0301 Y119.2422
G01 X29.0517 Y119.1965
G01 X29.0688 Y119.1488
G01 X29.0811 Y119.0997
G01 X29.0885 Y119.0496
G01 X29.0910 Y118.9990
G00 X29.0910 Y118.9990
G01 F100.00
G01 Z-1.0000
G01 F400.00
G01 X29.0885 Y118.9484
G01 X29.0811 Y118.8983
G01 X29.0688 Y118.8492
G01 X29.0517 Y118.8015
G01 X29.0301 Y118.7558
G01 X29.0040 Y118.7123
G01 X28.9739 Y118.6717
G01 X28.9399 Y118.6341
G01 X28.9023 Y118.6001
G01 X28.8617 Y118.5700
G01 X28.8182 Y118.5439
G01 X28.7725 Y118.5223
G01 X28.7248 Y118.5052
G01 X28.6757 Y118.4929
G01 X28.6256 Y118.4855
G01 X28.5750 Y118.4830
G01 X28.5244 Y118.4855
G01 X28.4743 Y118.4929
G01 X28.4252 Y118.5052
G01 X28.3775 Y118.5223
G01 X28.3318 Y118.5439
G01 X28.2883 Y118.5700
G01 X28.2477 Y118.6001
G01 X28.2101 Y118.6341
G01 X28.1761 Y118.6717
G01 X28.1460 Y118.7123
G01 X28.1199 Y118.7558
G01 X28.0983 Y118.8015
G01 X28.0812 Y118.8492
G01 X28.0689 Y118.8983
G01 X28.0615 Y118.9484
G01 X28.0590 Y118.9990
G01 X28.0615 Y119.0496
G01 X28.0689 Y119.0997
G01 X28.0812 Y119.1488
G01 X28.0983 Y119.1965
G01 X28.1199 Y119.2422
G01 X28.1460 Y119.2857
G01 X28.1761 Y119.3263
G01 X28.2101 Y119.3639
G01 X28.2477 Y119.3979
G01 X28.2883 Y119.4280
G01 X28.3318 Y119.4541
G01 X28.3775 Y119.4757
G01 X28.4252 Y119.4928
G01 X28.4743 Y119.5051
G01 X28.5244 Y119.5125
G01 X28.5750 Y119.5150
G01 X28.6256 Y119.5125
G01 X28.6757 Y119.5051
G01 X28.7248 Y119.4928
G01 X28.7725 Y119.4757
G01 X28.8182 Y119.4541
G01 X28.8617 Y119.4280
G01 X28.9023 Y119.3979
G01 X28.9399 Y119.3639
G01 X28.9739 Y119.3263
G01 X29.0040 Y119.2857
G01 X29.0301 Y119.2422
G01 X29.0517 Y119.1965
G01 X29.0688 Y119.1488
G01 X29.0811 Y119.0997
G01 X29.0885 Y119.0496
G01 X29.0910 Y118.9990
G00 X29.0910 Y118.9990
G01 F100.00
G01 Z-1.2500
G01 F400.00
G01 X29.0885 Y118.9484
G01 X29.0811 Y118.8983
G01 X29.0688 Y118.8492
G01 X29.0517 Y118.8015
G01 X29.0301 Y118.7558
G01 X29.0040 Y118.7123
G01 X28.9739 Y118.6717
G01 X28.9399 Y118.6341
G01 X28.9023 Y118.6001
G01 X28.8617 Y118.5700
G01 X28.8182 Y118.5439
G01 X28.7725 Y118.5223
G01 X28.7248 Y118.5052
G01 X28.6757 Y118.4929
G01 X28.6256 Y118.4855
G01 X28.5750 Y118.4830
G01 X28.5244 Y118.4855
G01 X28.4743 Y118.4929
G01 X28.4252 Y118.5052
G01 X28.3775 Y118.5223
G01 X28.3318 Y118.5439
G01 X28.2883 Y118.5700
G01 X28.2477 Y118.6001
G01 X28.2101 Y118.6341
G01 X28.1761 Y118.6717
G01 X28.1460 Y118.7123
G01 X28.1199 Y118.7558
G01 X28.0983 Y118.8015
G01 X28.0812 Y118.8492
G01 X28.0689 Y118.8983
G01 X28.0615 Y118.9484
G01 X28.0590 Y118.9990
G01 X28.0615 Y119.0496
G01 X28.0689 Y119.0997
G01 X28.0812 Y119.1488
G01 X28.0983 Y119.1965
G01 X28.1199 Y119.2422
G01 X28.1460 Y119.2857
G01 X28.1761 Y119.3263
G01 X28.2101 Y119.3639
G01 X28.2477 Y119.3979
G01 X28.2883 Y119.4280
G01 X28.3318 Y119.4541
G01 X28.3775 Y119.4757
G01 X28.4252 Y119.4928
G01 X28.4743 Y119.5051
G01 X28.5244 Y119.5125
G01 X28.5750 Y119.5150
G01 X28.6256 Y119.5125
G01 X28.6757 Y119.5051
G01 X28.7248 Y119.4928
G01 X28.7725 Y119.4757
G01 X28.8182 Y119.4541
G01 X28.8617 Y119.4280
G01 X28.9023 Y119.3979
G01 X28.9399 Y119.3639
G01 X28.9739 Y119.3263
G01 X29.0040 Y119.2857
G01 X29.0301 Y119.2422
G01 X29.0517 Y119.1965
G01 X29.0688 Y119.1488
G01 X29.0811 Y119.0997
G01 X29.0885 Y119.0496
G01 X29.0910 Y118.9990
G00 X29.0910 Y118.9990
G01 F100.00
G01 Z-1.5000
G01 F400.00
G01 X29.0885 Y118.9484
G01 X29.0811 Y118.8983
G01 X29.0688 Y118.8492
G01 X29.0517 Y118.8015
G01 X29.0301 Y118.7558
G01 X29.0040 Y118.7123
G01 X28.9739 Y118.6717
G01 X28.9399 Y118.6341
G01 X28.9023 Y118.6001
G01 X28.8617 Y118.5700
G01 X28.8182 Y118.5439
G01 X28.7725 Y118.5223
G01 X28.7248 Y118.5052
G01 X28.6757 Y118.4929
G01 X28.6256 Y118.4855
G01 X28.5750 Y118.4830
G01 X28.5244 Y118.4855
G01 X28.4743 Y118.4929
G01 X28.4252 Y118.5052
G01 X28.3775 Y118.5223
G01 X28.3318 Y118.5439
G01 X28.2883 Y118.5700
G01 X28.2477 Y118.6001
G01 X28.2101 Y118.6341
G01 X28.1761 Y118.6717
G01 X28.1460 Y118.7123
G01 X28.1199 Y118.7558
G01 X28.0983 Y118.8015
G01 X28.0812 Y118.8492
G01 X28.0689 Y118.8983
G01 X28.0615 Y118.9484
G01 X28.0590 Y118.9990
G01 X28.0615 Y119.0496
G01 X28.0689 Y119.0997
G01 X28.0812 Y119.1488
G01 X28.0983 Y119.1965
G01 X28.1199 Y119.2422
G01 X28.1460 Y119.2857
G01 X28.1761 Y119.3263
G01 X28.2101 Y119.3639
G01 X28.2477 Y119.3979
G01 X28.2883 Y119.4280
G01 X28.3318 Y119.4541
G01 X28.3775 Y119.4757
G01 X28.4252 Y119.4928
G01 X28.4743 Y119.5051
G01 X28.5244 Y119.5125
G01 X28.5750 Y119.5150
G01 X28.6256 Y119.5125
G01 X28.6757 Y119.5051
G01 X28.7248 Y119.4928
G01 X28.7725 Y119.4757
G01 X28.8182 Y119.4541
G01 X28.8617 Y119.4280
G01 X28.9023 Y119.3979
G01 X28.9399 Y119.3639
G01 X28.9739 Y119.3263
G01 X29.0040 Y119.2857
G01 X29.0301 Y119.2422
G01 X29.0517 Y119.1965
G01 X29.0688 Y119.1488
G01 X29.0811 Y119.0997
G01 X29.0885 Y119.0496
G01 X29.0910 Y118.9990
G00 X29.0910 Y118.9990
G01 F100.00
G01 Z-1.6500
G01 F400.00
G01 X29.0885 Y118.9484
G01 X29.0811 Y118.8983
G01 X29.0688 Y118.8492
G01 X29.0517 Y118.8015
G01 X29.0301 Y118.7558
G01 X29.0040 Y118.7123
G01 X28.9739 Y118.6717
G01 X28.9399 Y118.6341
G01 X28.9023 Y118.6001
G01 X28.8617 Y118.5700
G01 X28.8182 Y118.5439
G01 X28.7725 Y118.5223
G01 X28.7248 Y118.5052
G01 X28.6757 Y118.4929
G01 X28.6256 Y118.4855
G01 X28.5750 Y118.4830
G01 X28.5244 Y118.4855
G01 X28.4743 Y118.4929
G01 X28.4252 Y118.5052
G01 X28.3775 Y118.5223
G01 X28.3318 Y118.5439
G01 X28.2883 Y118.5700
G01 X28.2477 Y118.6001
G01 X28.2101 Y118.6341
G01 X28.1761 Y118.6717
G01 X28.1460 Y118.7123
G01 X28.1199 Y118.7558
G01 X28.0983 Y118.8015
G01 X28.0812 Y118.8492
G01 X28.0689 Y118.8983
G01 X28.0615 Y118.9484
G01 X28.0590 Y118.9990
G01 X28.0615 Y119.0496
G01 X28.0689 Y119.0997
G01 X28.0812 Y119.1488
G01 X28.0983 Y119.1965
G01 X28.1199 Y119.2422
G01 X28.1460 Y119.2857
G01 X28.1761 Y119.3263
G01 X28.2101 Y119.3639
G01 X28.2477 Y119.3979
G01 X28.2883 Y119.4280
G01 X28.3318 Y119.4541
G01 X28.3775 Y119.4757
G01 X28.4252 Y119.4928
G01 X28.4743 Y119.5051
G01 X28.5244 Y119.5125
G01 X28.5750 Y119.5150
G01 X28.6256 Y119.5125
G01 X28.6757 Y119.5051
G01 X28.7248 Y119.4928
G01 X28.7725 Y119.4757
G01 X28.8182 Y119.4541
G01 X28.8617 Y119.4280
G01 X28.9023 Y119.3979
G01 X28.9399 Y119.3639
G01 X28.9739 Y119.3263
G01 X29.0040 Y119.2857
G01 X29.0301 Y119.2422
G01 X29.0517 Y119.1965
G01 X29.0688 Y119.1488
G01 X29.0811 Y119.0997
G01 X29.0885 Y119.0496
G01 X29.0910 Y118.9990
G00 Z3.0000
G00 X40.6480 Y119.1260
G01 F100.00
G01 Z-0.2500
G01 F400.00
G01 X40.6455 Y119.0754
G01 X40.6381 Y119.0253
G01 X40.6258 Y118.9762
G01 X40.6087 Y118.9285
G01 X40.5871 Y118.8828
G01 X40.5610 Y118.8393
G01 X40.5309 Y118.7987
G01 X40.4969 Y118.7611
G01 X40.4593 Y118.7271
G01 X40.4187 Y118.6970
G01 X40.3752 Y118.6709
G01 X40.3295 Y118.6493
G01 X40.2818 Y118.6322
G01 X40.2327 Y118.6199
G01 X40.1826 Y118.6125
G01 X40.1320 Y118.6100
G01 X40.0814 Y118.6125
G01 X40.0313 Y118.6199
G01 X39.9822 Y118.6322
G01 X39.9345 Y118.6493
G01 X39.8888 Y118.6709
G01 X39.8453 Y118.6970
G01 X39.8047 Y118.7271
G01 X39.7671 Y118.7611
G01 X39.7331 Y118.7987
G01 X39.7030 Y118.8393
G01 X39.6769 Y118.8828
G01 X39.6553 Y118.9285
G01 X39.6382 Y118.9762
G01 X39.6259 Y119.0253
G01 X39.6185 Y119.0754
G01 X39.6160 Y119.1260
G01 X39.6185 Y119.1766
G01 X39.6259 Y119.2267
G01 X39.6382 Y119.2758
G01 X39.6553 Y119.3235
G01 X39.6769 Y119.3692
G01 X39.7030 Y119.4127
G01 X39.7331 Y119.4533
G01 X39.7671 Y119.4909
G01 X39.8047 Y119.5249
G01 X39.8453 Y119.5550
G01 X39.8888 Y119.5811
G01 X39.9345 Y119.6027
G01 X39.9822 Y119.6198
G01 X40.0313 Y119.6321
G01 X40.0814 Y119.6395
G01 X40.1320 Y119.6420
G01 X40.1826 Y119.6395
G01 X40.2327 Y119.6321
G01 X40.2818 Y119.6198
G01 X40.3295 Y119.6027
G01 X40.3752 Y119.5811
G01 X40.4187 Y119.5550
G01 X40.4593 Y119.5249
G01 X40.4969 Y119.4909
G01 X40.5309 Y119.4533
G01 X40.5610 Y119.4127
G01 X40.5871 Y119.3692
G01 X40.6087 Y119.3235
G01 X40.6258 Y119.2758
G01 X40.6381 Y119.2267
G01 X40.6455 Y119.1766
G01 X40.6480 Y119.1260
G00 X40.6480 Y119.1260
G01 F100.00
G01 Z-0.5000
G01 F400.00
G01 X40.6455 Y119.0754
G01 X40.6381 Y119.0253
G01 X40.6258 Y118.9762
G01 X40.6087 Y118.9285
G01 X40.5871 Y118.8828
G01 X40.5610 Y118.8393
G01 X40.5309 Y118.7987
G01 X40.4969 Y118.7611
G01 X40.4593 Y118.7271
G01 X40.4187 Y118.6970
G01 X40.3752 Y118.6709
G01 X40.3295 Y118.6493
G01 X40.2818 Y118.6322
G01 X40.2327 Y118.6199
G01 X40.1826 Y118.6125
G01 X40.1320 Y118.6100
G01 X40.0814 Y118.6125
G01 X40.0313 Y118.6199
G01 X39.9822 Y118.6322
G01 X39.9345 Y118.6493
G01 X39.8888 Y118.6709
G01 X39.8453 Y118.6970
G01 X39.8047 Y118.7271
G01 X39.7671 Y118.7611
G01 X39.7331 Y118.7987
G01 X39.7030 Y118.8393
G01 X39.6769 Y118.8828
G01 X39.6553 Y118.9285
G01 X39.6382 Y118.9762
G01 X39.6259 Y119.0253
G01 X39.6185 Y119.0754
G01 X39.6160 Y119.1260
G01 X39.6185 Y119.1766
G01 X39.6259 Y119.2267
G01 X39.6382 Y119.2758
G01 X39.6553 Y119.3235
G01 X39.6769 Y119.3692
G01 X39.7030 Y119.4127
G01 X39.7331 Y119.4533
G01 X39.7671 Y119.4909
G01 X39.8047 Y119.5249
G01 X39.8453 Y119.5550
G01 X39.8888 Y119.5811
G01 X39.9345 Y119.6027
G01 X39.9822 Y119.6198
G01 X40.0313 Y119.6321
G01 X40.0814 Y119.6395
G01 X40.1320 Y119.6420
G01 X40.1826 Y119.6395
G01 X40.2327 Y119.6321
G01 X40.2818 Y119.6198
G01 X40.3295 Y119.6027
G01 X40.3752 Y119.5811
G01 X40.4187 Y119.5550
G01 X40.4593 Y119.5249
G01 X40.4969 Y119.4909
G01 X40.5309 Y119.4533
G01 X40.5610 Y119.4127
G01 X40.5871 Y119.3692
G01 X40.6087 Y119.3235
G01 X40.6258 Y119.2758
G01 X40.6381 Y119.2267
G01 X40.6455 Y119.1766
G01 X40.6480 Y119.1260
G00 X40.6480 Y119.1260
G01 F100.00
G01 Z-0.7500
G01 F400.00
G01 X40.6455 Y119.0754
G01 X40.6381 Y119.0253
G01 X40.6258 Y118.9762
G01 X40.6087 Y118.9285
G01 X40.5871 Y118.8828
G01 X40.5610 Y118.8393
G01 X40.5309 Y118.7987
G01 X40.4969 Y118.7611
G01 X40.4593 Y118.7271
G01 X40.4187 Y118.6970
G01 X40.3752 Y118.6709
G01 X40.3295 Y118.6493
G01 X40.2818 Y118.6322
G01 X40.2327 Y118.6199
G01 X40.1826 Y118.6125
G01 X40.1320 Y118.6100
G01 X40.0814 Y118.6125
G01 X40.0313 Y118.6199
G01 X39.9822 Y118.6322
G01 X39.9345 Y118.6493
G01 X39.8888 Y118.6709
G01 X39.8453 Y118.6970
G01 X39.8047 Y118.7271
G01 X39.7671 Y118.7611
G01 X39.7331 Y118.7987
G01 X39.7030 Y118.8393
G01 X39.6769 Y118.8828
G01 X39.6553 Y118.9285
G01 X39.6382 Y118.9762
G01 X39.6259 Y119.0253
G01 X39.6185 Y119.0754
G01 X39.6160 Y119.1260
G01 X39.6185 Y119.1766
G01 X39.6259 Y119.2267
G01 X39.6382 Y119.2758
G01 X39.6553 Y119.3235
G01 X39.6769 Y119.3692
G01 X39.7030 Y119.4127
G01 X39.7331 Y119.4533
G01 X39.7671 Y119.4909
G01 X39.8047 Y119.5249
G01 X39.8453 Y119.5550
G01 X39.8888 Y119.5811
G01 X39.9345 Y119.6027
G01 X39.9822 Y119.6198
G01 X40.0313 Y119.6321
G01 X40.0814 Y119.6395
G01 X40.1320 Y119.6420
G01 X40.1826 Y119.6395
G01 X40.2327 Y119.6321
G01 X40.2818 Y119.6198
G01 X40.3295 Y119.6027
G01 X40.3752 Y119.5811
G01 X40.4187 Y119.5550
G01 X40.4593 Y119.5249
G01 X40.4969 Y119.4909
G01 X40.5309 Y119.4533
G01 X40.5610 Y119.4127
G01 X40.5871 Y119.3692
G01 X40.6087 Y119.3235
G01 X40.6258 Y119.2758
G01 X40.6381 Y119.2267
G01 X40.6455 Y119.1766
G01 X40.6480 Y119.1260
G00 X40.6480 Y119.1260
G01 F100.00
G01 Z-1.0000
G01 F400.00
G01 X40.6455 Y119.0754
G01 X40.6381 Y119.0253
G01 X40.6258 Y118.9762
G01 X40.6087 Y118.9285
G01 X40.5871 Y118.8828
G01 X40.5610 Y118.8393
G01 X40.5309 Y118.7987
G01 X40.4969 Y118.7611
G01 X40.4593 Y118.7271
G01 X40.4187 Y118.6970
G01 X40.3752 Y118.6709
G01 X40.3295 Y118.6493
G01 X40.2818 Y118.6322
G01 X40.2327 Y118.6199
G01 X40.1826 Y118.6125
G01 X40.1320 Y118.6100
G01 X40.0814 Y118.6125
G01 X40.0313 Y118.6199
G01 X39.9822 Y118.6322
G01 X39.9345 Y118.6493
G01 X39.8888 Y118.6709
G01 X39.8453 Y118.6970
G01 X39.8047 Y118.7271
G01 X39.7671 Y118.7611
G01 X39.7331 Y118.7987
G01 X39.7030 Y118.8393
G01 X39.6769 Y118.8828
G01 X39.6553 Y118.9285
G01 X39.6382 Y118.9762
G01 X39.6259 Y119.0253
G01 X39.6185 Y119.0754
G01 X39.6160 Y119.1260
G01 X39.6185 Y119.1766
G01 X39.6259 Y119.2267
G01 X39.6382 Y119.2758
G01 X39.6553 Y119.3235
G01 X39.6769 Y119.3692
G01 X39.7030 Y119.4127
G01 X39.7331 Y119.4533
G01 X39.7671 Y119.4909
G01 X39.8047 Y119.5249
G01 X39.8453 Y119.5550
G01 X39.8888 Y119.5811
G01 X39.9345 Y119.6027
G01 X39.9822 Y119.6198
G01 X40.0313 Y119.6321
G01 X40.0814 Y119.6395
G01 X40.1320 Y119.6420
G01 X40.1826 Y119.6395
G01 X40.2327 Y119.6321
G01 X40.2818 Y119.6198
G01 X40.3295 Y119.6027
G01 X40.3752 Y119.5811
G01 X40.4187 Y119.5550
G01 X40.4593 Y119.5249
G01 X40.4969 Y119.4909
G01 X40.5309 Y119.4533
G01 X40.5610 Y119.4127
G01 X40.5871 Y119.3692
G01 X40.6087 Y119.3235
G01 X40.6258 Y119.2758
G01 X40.6381 Y119.2267
G01 X40.6455 Y119.1766
G01 X40.6480 Y119.1260
G00 X40.6480 Y119.1260
G01 F100.00
G01 Z-1.2500
G01 F400.00
G01 X40.6455 Y119.0754
G01 X40.6381 Y119.0253
G01 X40.6258 Y118.9762
G01 X40.6087 Y118.9285
G01 X40.5871 Y118.8828
G01 X40.5610 Y118.8393
G01 X40.5309 Y118.7987
G01 X40.4969 Y118.7611
G01 X40.4593 Y118.7271
G01 X40.4187 Y118.6970
G01 X40.3752 Y118.6709
G01 X40.3295 Y118.6493
G01 X40.2818 Y118.6322
G01 X40.2327 Y118.6199
G01 X40.1826 Y118.6125
G01 X40.1320 Y118.6100
G01 X40.0814 Y118.6125
G01 X40.0313 Y118.6199
G01 X39.9822 Y118.6322
G01 X39.9345 Y118.6493
G01 X39.8888 Y118.6709
G01 X39.8453 Y118.6970
G01 X39.8047 Y118.7271
G01 X39.7671 Y118.7611
G01 X39.7331 Y118.7987
G01 X39.7030 Y118.8393
G01 X39.6769 Y118.8828
G01 X39.6553 Y118.9285
G01 X39.6382 Y118.9762
G01 X39.6259 Y119.0253
G01 X39.6185 Y119.0754
G01 X39.6160 Y119.1260
G01 X39.6185 Y119.1766
G01 X39.6259 Y119.2267
G01 X39.6382 Y119.2758
G01 X39.6553 Y119.3235
G01 X39.6769 Y119.3692
G01 X39.7030 Y119.4127
G01 X39.7331 Y119.4533
G01 X39.7671 Y119.4909
G01 X39.8047 Y119.5249
G01 X39.8453 Y119.5550
G01 X39.8888 Y119.5811
G01 X39.9345 Y119.6027
G01 X39.9822 Y119.6198
G01 X40.0313 Y119.6321
G01 X40.0814 Y119.6395
G01 X40.1320 Y119.6420
G01 X40.1826 Y119.6395
G01 X40.2327 Y119.6321
G01 X40.2818 Y119.6198
G01 X40.3295 Y119.6027
G01 X40.3752 Y119.5811
G01 X40.4187 Y119.5550
G01 X40.4593 Y119.5249
G01 X40.4969 Y119.4909
G01 X40.5309 Y119.4533
G01 X40.5610 Y119.4127
G01 X40.5871 Y119.3692
G01 X40.6087 Y119.3235
G01 X40.6258 Y119.2758
G01 X40.6381 Y119.2267
G01 X40.6455 Y119.1766
G01 X40.6480 Y119.1260
G00 X40.6480 Y119.1260
G01 F100.00
G01 Z-1.5000
G01 F400.00
G01 X40.6455 Y119.0754
G01 X40.6381 Y119.0253
G01 X40.6258 Y118.9762
G01 X40.6087 Y118.9285
G01 X40.5871 Y118.8828
G01 X40.5610 Y118.8393
G01 X40.5309 Y118.7987
G01 X40.4969 Y118.7611
G01 X40.4593 Y118.7271
G01 X40.4187 Y118.6970
G01 X40.3752 Y118.6709
G01 X40.3295 Y118.6493
G01 X40.2818 Y118.6322
G01 X40.2327 Y118.6199
G01 X40.1826 Y118.6125
G01 X40.1320 Y118.6100
G01 X40.0814 Y118.6125
G01 X40.0313 Y118.6199
G01 X39.9822 Y118.6322
G01 X39.9345 Y118.6493
G01 X39.8888 Y118.6709
G01 X39.8453 Y118.6970
G01 X39.8047 Y118.7271
G01 X39.7671 Y118.7611
G01 X39.7331 Y118.7987
G01 X39.7030 Y118.8393
G01 X39.6769 Y118.8828
G01 X39.6553 Y118.9285
G01 X39.6382 Y118.9762
G01 X39.6259 Y119.0253
G01 X39.6185 Y119.0754
G01 X39.6160 Y119.1260
G01 X39.6185 Y119.1766
G01 X39.6259 Y119.2267
G01 X39.6382 Y119.2758
G01 X39.6553 Y119.3235
G01 X39.6769 Y119.3692
G01 X39.7030 Y119.4127
G01 X39.7331 Y119.4533
G01 X39.7671 Y119.4909
G01 X39.8047 Y119.5249
G01 X39.8453 Y119.5550
G01 X39.8888 Y119.5811
G01 X39.9345 Y119.6027
G01 X39.9822 Y119.6198
G01 X40.0313 Y119.6321
G01 X40.0814 Y119.6395
G01 X40.1320 Y119.6420
G01 X40.1826 Y119.6395
G01 X40.2327 Y119.6321
G01 X40.2818 Y119.6198
G01 X40.3295 Y119.6027
G01 X40.3752 Y119.5811
G01 X40.4187 Y119.5550
G01 X40.4593 Y119.5249
G01 X40.4969 Y119.4909
G01 X40.5309 Y119.4533
G01 X40.5610 Y119.4127
G01 X40.5871 Y119.3692
G01 X40.6087 Y119.3235
G01 X40.6258 Y119.2758
G01 X40.6381 Y119.2267
G01 X40.6455 Y119.1766
G01 X40.6480 Y119.1260
G00 X40.6480 Y119.1260
G01 F100.00
G01 Z-1.6500
G01 F400.00
G01 X40.6455 Y119.0754
G01 X40.6381 Y119.0253
G01 X40.6258 Y118.9762
G01 X40.6087 Y118.9285
G01 X40.5871 Y118.8828
G01 X40.5610 Y118.8393
G01 X40.5309 Y118.7987
G01 X40.4969 Y118.7611
G01 X40.4593 Y118.7271
G01 X40.4187 Y118.6970
G01 X40.3752 Y118.6709
G01 X40.3295 Y118.6493
G01 X40.2818 Y118.6322
G01 X40.2327 Y118.6199
G01 X40.1826 Y118.6125
G01 X40.1320 Y118.6100
G01 X40.0814 Y118.6125
G01 X40.0313 Y118.6199
G01 X39.9822 Y118.6322
G01 X39.9345 Y118.6493
G01 X39.8888 Y118.6709
G01 X39.8453 Y118.6970
G01 X39.8047 Y118.7271
G01 X39.7671 Y118.7611
G01 X39.7331 Y118.7987
G01 X39.7030 Y118.8393
G01 X39.6769 Y118.8828
G01 X39.6553 Y118.9285
G01 X39.6382 Y118.9762
G01 X39.6259 Y119.0253
G01 X39.6185 Y119.0754
G01 X39.6160 Y119.1260
G01 X39.6185 Y119.1766
G01 X39.6259 Y119.2267
G01 X39.6382 Y119.2758
G01 X39.6553 Y119.3235
G01 X39.6769 Y119.3692
G01 X39.7030 Y119.4127
G01 X39.7331 Y119.4533
G01 X39.7671 Y119.4909
G01 X39.8047 Y119.5249
G01 X39.8453 Y119.5550
G01 X39.8888 Y119.5811
G01 X39.9345 Y119.6027
G01 X39.9822 Y119.6198
G01 X40.0313 Y119.6321
G01 X40.0814 Y119.6395
G01 X40.1320 Y119.6420
G01 X40.1826 Y119.6395
G01 X40.2327 Y119.6321
G01 X40.2818 Y119.6198
G01 X40.3295 Y119.6027
G01 X40.3752 Y119.5811
G01 X40.4187 Y119.5550
G01 X40.4593 Y119.5249
G01 X40.4969 Y119.4909
G01 X40.5309 Y119.4533
G01 X40.5610 Y119.4127
G01 X40.5871 Y119.3692
G01 X40.6087 Y119.3235
G01 X40.6258 Y119.2758
G01 X40.6381 Y119.2267
G01 X40.6455 Y119.1766
G01 X40.6480 Y119.1260
G00 Z3.0000
G00 X43.8230 Y121.2850
G01 F100.00
G01 Z-0.2500
G01 F400.00
G01 X43.8205 Y121.2344
G01 X43.8131 Y121.1843
G01 X43.8008 Y121.1352
G01 X43.7837 Y121.0875
G01 X43.7621 Y121.0418
G01 X43.7360 Y120.9983
G01 X43.7059 Y120.9577
G01 X43.6719 Y120.9201
G01 X43.6343 Y120.8861
G01 X43.5937 Y120.8560
G01 X43.5502 Y120.8299
G01 X43.5045 Y120.8083
G01 X43.4568 Y120.7912
G01 X43.4077 Y120.7789
G01 X43.3576 Y120.7715
G01 X43.3070 Y120.7690
G01 X43.2564 Y120.7715
G01 X43.2063 Y120.7789
G01 X43.1572 Y120.7912
G01 X43.1095 Y120.8083
G01 X43.0638 Y120.8299
G01 X43.0203 Y120.8560
G01 X42.9797 Y120.8861
G01 X42.9421 Y120.9201
G01 X42.9081 Y120.9577
G01 X42.8780 Y120.9983
G01 X42.8519 Y121.0418
G01 X42.8303 Y121.0875
G01 X42.8132 Y121.1352
G01 X42.8009 Y121.1843
G01 X42.7935 Y121.2344
G01 X42.7910 Y121.2850
G01 X42.7935 Y121.3356
G01 X42.8009 Y121.3857
G01 X42.8132 Y121.4348
G01 X42.8303 Y121.4825
G01 X42.8519 Y121.5282
G01 X42.8780 Y121.5717
G01 X42.9081 Y121.6123
G01 X42.9421 Y121.6499
G01 X42.9797 Y121.6839
G01 X43.0203 Y121.7140
G01 X43.0638 Y121.7401
G01 X43.1095 Y121.7617
G01 X43.1572 Y121.7788
G01 X43.2063 Y121.7911
G01 X43.2564 Y121.7985
G01 X43.3070 Y121.8010
G01 X43.3576 Y121.7985
G01 X43.4077 Y121.7911
G01 X43.4568 Y121.7788
G01 X43.5045 Y121.7617
G01 X43.5502 Y121.7401
G01 X43.5937 Y121.7140
G01 X43.6343 Y121.6839
G01 X43.6719 Y121.6499
G01 X43.7059 Y121.6123
G01 X43.7360 Y121.5717
G01 X43.7621 Y121.5282
G01 X43.7837 Y121.4825
G01 X43.8008 Y121.4348
G01 X43.8131 Y121.3857
G01 X43.8205 Y121.3356
G01 X43.8230 Y121.2850
G00 X43.8230 Y121.2850
G01 F100.00
G01 Z-0.5000
G01 F400.00
G01 X43.8205 Y121.2344
G01 X43.8131 Y121.1843
G01 X43.8008 Y121.1352
G01 X43.7837 Y121.0875
G01 X43.7621 Y121.0418
G01 X43.7360 Y120.9983
G01 X43.7059 Y120.9577
G01 X43.6719 Y120.9201
G01 X43.6343 Y120.8861
G01 X43.5937 Y120.8560
G01 X43.5502 Y120.8299
G01 X43.5045 Y120.8083
G01 X43.4568 Y120.7912
G01 X43.4077 Y120.7789
G01 X43.3576 Y120.7715
G01 X43.3070 Y120.7690
G01 X43.2564 Y120.7715
G01 X43.2063 Y120.7789
G01 X43.1572 Y120.7912
G01 X43.1095 Y120.8083
G01 X43.0638 Y120.8299
G01 X43.0203 Y120.8560
G01 X42.9797 Y120.8861
G01 X42.9421 Y120.9201
G01 X42.9081 Y120.9577
G01 X42.8780 Y120.9983
G01 X42.8519 Y121.0418
G01 X42.8303 Y121.0875
G01 X42.8132 Y121.1352
G01 X42.8009 Y121.1843
G01 X42.7935 Y121.2344
G01 X42.7910 Y121.2850
G01 X42.7935 Y121.3356
G01 X42.8009 Y121.3857
G01 X42.8132 Y121.4348
G01 X42.8303 Y121.4825
G01 X42.8519 Y121.5282
G01 X42.8780 Y121.5717
G01 X42.9081 Y121.6123
G01 X42.9421 Y121.6499
G01 X42.9797 Y121.6839
G01 X43.0203 Y121.7140
G01 X43.0638 Y121.7401
G01 X43.1095 Y121.7617
G01 X43.1572 Y121.7788
G01 X43.2063 Y121.7911
G01 X43.2564 Y121.7985
G01 X43.3070 Y121.8010
G01 X43.3576 Y121.7985
G01 X43.4077 Y121.7911
G01 X43.4568 Y121.7788
G01 X43.5045 Y121.7617
G01 X43.5502 Y121.7401
G01 X43.5937 Y121.7140
G01 X43.6343 Y121.6839
G01 X43.6719 Y121.6499
G01 X43.7059 Y121.6123
G01 X43.7360 Y121.5717
G01 X43.7621 Y121.5282
G01 X43.7837 Y121.4825
G01 X43.8008 Y121.4348
G01 X43.8131 Y121.3857
G01 X43.8205 Y121.3356
G01 X43.8230 Y121.2850
G00 X43.8230 Y121.2850
G01 F100.00
G01 Z-0.7500
G01 F400.00
G01 X43.8205 Y121.2344
G01 X43.8131 Y121.1843
G01 X43.8008 Y121.1352
G01 X43.7837 Y121.0875
G01 X43.7621 Y121.0418
G01 X43.7360 Y120.9983
G01 X43.7059 Y120.9577
G01 X43.6719 Y120.9201
G01 X43.6343 Y120.8861
G01 X43.5937 Y120.8560
G01 X43.5502 Y120.8299
G01 X43.5045 Y120.8083
G01 X43.4568 Y120.7912
G01 X43.4077 Y120.7789
G01 X43.3576 Y120.7715
G01 X43.3070 Y120.7690
G01 X43.2564 Y120.7715
G01 X43.2063 Y120.7789
G01 X43.1572 Y120.7912
G01 X43.1095 Y120.8083
G01 X43.0638 Y120.8299
G01 X43.0203 Y120.8560
G01 X42.9797 Y120.8861
G01 X42.9421 Y120.9201
G01 X42.9081 Y120.9577
G01 X42.8780 Y120.9983
G01 X42.8519 Y121.0418
G01 X42.8303 Y121.0875
G01 X42.8132 Y121.1352
G01 X42.8009 Y121.1843
G01 X42.7935 Y121.2344
G01 X42.7910 Y121.2850
G01 X42.7935 Y121.3356
G01 X42.8009 Y121.3857
G01 X42.8132 Y121.4348
G01 X42.8303 Y121.4825
G01 X42.8519 Y121.5282
G01 X42.8780 Y121.5717
G01 X42.9081 Y121.6123
G01 X42.9421 Y121.6499
G01 X42.9797 Y121.6839
G01 X43.0203 Y121.7140
G01 X43.0638 Y121.7401
G01 X43.1095 Y121.7617
G01 X43.1572 Y121.7788
G01 X43.2063 Y121.7911
G01 X43.2564 Y121.7985
G01 X43.3070 Y121.8010
G01 X43.3576 Y121.7985
G01 X43.4077 Y121.7911
G01 X43.4568 Y121.7788
G01 X43.5045 Y121.7617
G01 X43.5502 Y121.7401
G01 X43.5937 Y121.7140
G01 X43.6343 Y121.6839
G01 X43.6719 Y121.6499
G01 X43.7059 Y121.6123
G01 X43.7360 Y121.5717
G01 X43.7621 Y121.5282
G01 X43.7837 Y121.4825
G01 X43.8008 Y121.4348
G01 X43.8131 Y121.3857
G01 X43.8205 Y121.3356
G01 X43.8230 Y121.2850
G00 X43.8230 Y121.2850
G01 F100.00
G01 Z-1.0000
G01 F400.00
G01 X43.8205 Y121.2344
G01 X43.8131 Y121.1843
G01 X43.8008 Y121.1352
G01 X43.7837 Y121.0875
G01 X43.7621 Y121.0418
G01 X43.7360 Y120.9983
G01 X43.7059 Y120.9577
G01 X43.6719 Y120.9201
G01 X43.6343 Y120.8861
G01 X43.5937 Y120.8560
G01 X43.5502 Y120.8299
G01 X43.5045 Y120.8083
G01 X43.4568 Y120.7912
G01 X43.4077 Y120.7789
G01 X43.3576 Y120.7715
G01 X43.3070 Y120.7690
G01 X43.2564 Y120.7715
G01 X43.2063 Y120.7789
G01 X43.1572 Y120.7912
G01 X43.1095 Y120.8083
G01 X43.0638 Y120.8299
G01 X43.0203 Y120.8560
G01 X42.9797 Y120.8861
G01 X42.9421 Y120.9201
G01 X42.9081 Y120.9577
G01 X42.8780 Y120.9983
G01 X42.8519 Y121.0418
G01 X42.8303 Y121.0875
G01 X42.8132 Y121.1352
G01 X42.8009 Y121.1843
G01 X42.7935 Y121.2344
G01 X42.7910 Y121.2850
G01 X42.7935 Y121.3356
G01 X42.8009 Y121.3857
G01 X42.8132 Y121.4348
G01 X42.8303 Y121.4825
G01 X42.8519 Y121.5282
G01 X42.8780 Y121.5717
G01 X42.9081 Y121.6123
G01 X42.9421 Y121.6499
G01 X42.9797 Y121.6839
G01 X43.0203 Y121.7140
G01 X43.0638 Y121.7401
G01 X43.1095 Y121.7617
G01 X43.1572 Y121.7788
G01 X43.2063 Y121.7911
G01 X43.2564 Y121.7985
G01 X43.3070 Y121.8010
G01 X43.3576 Y121.7985
G01 X43.4077 Y121.7911
G01 X43.4568 Y121.7788
G01 X43.5045 Y121.7617
G01 X43.5502 Y121.7401
G01 X43.5937 Y121.7140
G01 X43.6343 Y121.6839
G01 X43.6719 Y121.6499
G01 X43.7059 Y121.6123
G01 X43.7360 Y121.5717
G01 X43.7621 Y121.5282
G01 X43.7837 Y121.4825
G01 X43.8008 Y121.4348
G01 X43.8131 Y121.3857
G01 X43.8205 Y121.3356
G01 X43.8230 Y121.2850
G00 X43.8230 Y121.2850
G01 F100.00
G01 Z-1.2500
G01 F400.00
G01 X43.8205 Y121.2344
G01 X43.8131 Y121.1843
G01 X43.8008 Y121.1352
G01 X43.7837 Y121.0875
G01 X43.7621 Y121.0418
G01 X43.7360 Y120.9983
G01 X43.7059 Y120.9577
G01 X43.6719 Y120.9201
G01 X43.6343 Y120.8861
G01 X43.5937 Y120.8560
G01 X43.5502 Y120.8299
G01 X43.5045 Y120.8083
G01 X43.4568 Y120.7912
G01 X43.4077 Y120.7789
G01 X43.3576 Y120.7715
G01 X43.3070 Y120.7690
G01 X43.2564 Y120.7715
G01 X43.2063 Y120.7789
G01 X43.1572 Y120.7912
G01 X43.1095 Y120.8083
G01 X43.0638 Y120.8299
G01 X43.0203 Y120.8560
G01 X42.9797 Y120.8861
G01 X42.9421 Y120.9201
G01 X42.9081 Y120.9577
G01 X42.8780 Y120.9983
G01 X42.8519 Y121.0418
G01 X42.8303 Y121.0875
G01 X42.8132 Y121.1352
G01 X42.8009 Y121.1843
G01 X42.7935 Y121.2344
G01 X42.7910 Y121.2850
G01 X42.7935 Y121.3356
G01 X42.8009 Y121.3857
G01 X42.8132 Y121.4348
G01 X42.8303 Y121.4825
G01 X42.8519 Y121.5282
G01 X42.8780 Y121.5717
G01 X42.9081 Y121.6123
G01 X42.9421 Y121.6499
G01 X42.9797 Y121.6839
G01 X43.0203 Y121.7140
G01 X43.0638 Y121.7401
G01 X43.1095 Y121.7617
G01 X43.1572 Y121.7788
G01 X43.2063 Y121.7911
G01 X43.2564 Y121.7985
G01 X43.3070 Y121.8010
G01 X43.3576 Y121.7985
G01 X43.4077 Y121.7911
G01 X43.4568 Y121.7788
G01 X43.5045 Y121.7617
G01 X43.5502 Y121.7401
G01 X43.5937 Y121.7140
G01 X43.6343 Y121.6839
G01 X43.6719 Y121.6499
G01 X43.7059 Y121.6123
G01 X43.7360 Y121.5717
G01 X43.7621 Y121.5282
G01 X43.7837 Y121.4825
G01 X43.8008 Y121.4348
G01 X43.8131 Y121.3857
G01 X43.8205 Y121.3356
G01 X43.8230 Y121.2850
G00 X43.8230 Y121.2850
G01 F100.00
G01 Z-1.5000
G01 F400.00
G01 X43.8205 Y121.2344
G01 X43.8131 Y121.1843
G01 X43.8008 Y121.1352
G01 X43.7837 Y121.0875
G01 X43.7621 Y121.0418
G01 X43.7360 Y120.9983
G01 X43.7059 Y120.9577
G01 X43.6719 Y120.9201
G01 X43.6343 Y120.8861
G01 X43.5937 Y120.8560
G01 X43.5502 Y120.8299
G01 X43.5045 Y120.8083
G01 X43.4568 Y120.7912
G01 X43.4077 Y120.7789
G01 X43.3576 Y120.7715
G01 X43.3070 Y120.7690
G01 X43.2564 Y120.7715
G01 X43.2063 Y120.7789
G01 X43.1572 Y120.7912
G01 X43.1095 Y120.8083
G01 X43.0638 Y120.8299
G01 X43.0203 Y120.8560
G01 X42.9797 Y120.8861
G01 X42.9421 Y120.9201
G01 X42.9081 Y120.9577
G01 X42.8780 Y120.9983
G01 X42.8519 Y121.0418
G01 X42.8303 Y121.0875
G01 X42.8132 Y121.1352
G01 X42.8009 Y121.1843
G01 X42.7935 Y121.2344
G01 X42.7910 Y121.2850
G01 X42.7935 Y121.3356
G01 X42.8009 Y121.3857
G01 X42.8132 Y121.4348
G01 X42.8303 Y121.4825
G01 X42.8519 Y121.5282
G01 X42.8780 Y121.5717
G01 X42.9081 Y121.6123
G01 X42.9421 Y121.6499
G01 X42.9797 Y121.6839
G01 X43.0203 Y121.7140
G01 X43.0638 Y121.7401
G01 X43.1095 Y121.7617
G01 X43.1572 Y121.7788
G01 X43.2063 Y121.7911
G01 X43.2564 Y121.7985
G01 X43.3070 Y121.8010
G01 X43.3576 Y121.7985
G01 X43.4077 Y121.7911
G01 X43.4568 Y121.7788
G01 X43.5045 Y121.7617
G01 X43.5502 Y121.7401
G01 X43.5937 Y121.7140
G01 X43.6343 Y121.6839
G01 X43.6719 Y121.6499
G01 X43.7059 Y121.6123
G01 X43.7360 Y121.5717
G01 X43.7621 Y121.5282
G01 X43.7837 Y121.4825
G01 X43.8008 Y121.4348
G01 X43.8131 Y121.3857
G01 X43.8205 Y121.3356
G01 X43.8230 Y121.2850
G00 X43.8230 Y121.2850
G01 F100.00
G01 Z-1.6500
G01 F400.00
G01 X43.8205 Y121.2344
G01 X43.8131 Y121.1843
G01 X43.8008 Y121.1352
G01 X43.7837 Y121.0875
G01 X43.7621 Y121.0418
G01 X43.7360 Y120.9983
G01 X43.7059 Y120.9577
G01 X43.6719 Y120.9201
G01 X43.6343 Y120.8861
G01 X43.5937 Y120.8560
G01 X43.5502 Y120.8299
G01 X43.5045 Y120.8083
G01 X43.4568 Y120.7912
G01 X43.4077 Y120.7789
G01 X43.3576 Y120.7715
G01 X43.3070 Y120.7690
G01 X43.2564 Y120.7715
G01 X43.2063 Y120.7789
G01 X43.1572 Y120.7912
G01 X43.1095 Y120.8083
G01 X43.0638 Y120.8299
G01 X43.0203 Y120.8560
G01 X42.9797 Y120.8861
G01 X42.9421 Y120.9201
G01 X42.9081 Y120.9577
G01 X42.8780 Y120.9983
G01 X42.8519 Y121.0418
G01 X42.8303 Y121.0875
G01 X42.8132 Y121.1352
G01 X42.8009 Y121.1843
G01 X42.7935 Y121.2344
G01 X42.7910 Y121.2850
G01 X42.7935 Y121.3356
G01 X42.8009 Y121.3857
G01 X42.8132 Y121.4348
G01 X42.8303 Y121.4825
G01 X42.8519 Y121.5282
G01 X42.8780 Y121.5717
G01 X42.9081 Y121.6123
G01 X42.9421 Y121.6499
G01 X42.9797 Y121.6839
G01 X43.0203 Y121.7140
G01 X43.0638 Y121.7401
G01 X43.1095 Y121.7617
G01 X43.1572 Y121.7788
G01 X43.2063 Y121.7911
G01 X43.2564 Y121.7985
G01 X43.3070 Y121.8010
G01 X43.3576 Y121.7985
G01 X43.4077 Y121.7911
G01 X43.4568 Y121.7788
G01 X43.5045 Y121.7617
G01 X43.5502 Y121.7401
G01 X43.5937 Y121.7140
G01 X43.6343 Y121.6839
G01 X43.6719 Y121.6499
G01 X43.7059 Y121.6123
G01 X43.7360 Y121.5717
G01 X43.7621 Y121.5282
G01 X43.7837 Y121.4825
G01 X43.8008 Y121.4348
G01 X43.8131 Y121.3857
G01 X43.8205 Y121.3356
G01 X43.8230 Y121.2850
G00 Z3.0000
G00 X46.9980 Y119.1260
G01 F100.00
G01 Z-0.2500
G01 F400.00
G01 X46.9955 Y119.0754
G01 X46.9881 Y119.0253
G01 X46.9758 Y118.9762
G01 X46.9587 Y118.9285
G01 X46.9371 Y118.8828
G01 X46.9110 Y118.8393
G01 X46.8809 Y118.7987
G01 X46.8469 Y118.7611
G01 X46.8093 Y118.7271
G01 X46.7687 Y118.6970
G01 X46.7252 Y118.6709
G01 X46.6795 Y118.6493
G01 X46.6318 Y118.6322
G01 X46.5827 Y118.6199
G01 X46.5326 Y118.6125
G01 X46.4820 Y118.6100
G01 X46.4314 Y118.6125
G01 X46.3813 Y118.6199
G01 X46.3322 Y118.6322
G01 X46.2845 Y118.6493
G01 X46.2388 Y118.6709
G01 X46.1953 Y118.6970
G01 X46.1547 Y118.7271
G01 X46.1171 Y118.7611
G01 X46.0831 Y118.7987
G01 X46.0530 Y118.8393
G01 X46.0269 Y118.8828
G01 X46.0053 Y118.9285
G01 X45.9882 Y118.9762
G01 X45.9759 Y119.0253
G01 X45.9685 Y119.0754
G01 X45.9660 Y119.1260
G01 X45.9685 Y119.1766
G01 X45.9759 Y119.2267
G01 X45.9882 Y119.2758
G01 X46.0053 Y119.3235
G01 X46.0269 Y119.3692
G01 X46.0530 Y119.4127
G01 X46.0831 Y119.4533
G01 X46.1171 Y119.4909
G01 X46.1547 Y119.5249
G01 X46.1953 Y119.5550
G01 X46.2388 Y119.5811
G01 X46.2845 Y119.6027
G01 X46.3322 Y119.6198
G01 X46.3813 Y119.6321
G01 X46.4314 Y119.6395
G01 X46.4820 Y119.6420
G01 X46.5326 Y119.6395
G01 X46.5827 Y119.6321
G01 X46.6318 Y119.6198
G01 X46.6795 Y119.6027
G01 X46.7252 Y119.5811
G01 X46.7687 Y119.5550
G01 X46.8093 Y119.5249
G01 X46.8469 Y119.4909
G01 X46.8809 Y119.4533
G01 X46.9110 Y119.4127
G01 X46.9371 Y119.3692
G01 X46.9587 Y119.3235
G01 X46.9758 Y119.2758
G01 X46.9881 Y119.2267
G01 X46.9955 Y119.1766
G01 X46.9980 Y119.1260
G00 X46.9980 Y119.1260
G01 F100.00
G01 Z-0.5000
G01 F400.00
G01 X46.9955 Y119.0754
G01 X46.9881 Y119.0253
G01 X46.9758 Y118.9762
G01 X46.9587 Y118.9285
G01 X46.9371 Y118.8828
G01 X46.9110 Y118.8393
G01 X46.8809 Y118.7987
G01 X46.8469 Y118.7611
G01 X46.8093 Y118.7271
G01 X46.7687 Y118.6970
G01 X46.7252 Y118.6709
G01 X46.6795 Y118.6493
G01 X46.6318 Y118.6322
G01 X46.5827 Y118.6199
G01 X46.5326 Y118.6125
G01 X46.4820 Y118.6100
G01 X46.4314 Y118.6125
G01 X46.3813 Y118.6199
G01 X46.3322 Y118.6322
G01 X46.2845 Y118.6493
G01 X46.2388 Y118.6709
G01 X46.1953 Y118.6970
G01 X46.1547 Y118.7271
G01 X46.1171 Y118.7611
G01 X46.0831 Y118.7987
G01 X46.0530 Y118.8393
G01 X46.0269 Y118.8828
G01 X46.0053 Y118.9285
G01 X45.9882 Y118.9762
G01 X45.9759 Y119.0253
G01 X45.9685 Y119.0754
G01 X45.9660 Y119.1260
G01 X45.9685 Y119.1766
G01 X45.9759 Y119.2267
G01 X45.9882 Y119.2758
G01 X46.0053 Y119.3235
G01 X46.0269 Y119.3692
G01 X46.0530 Y119.4127
G01 X46.0831 Y119.4533
G01 X46.1171 Y119.4909
G01 X46.1547 Y119.5249
G01 X46.1953 Y119.5550
G01 X46.2388 Y119.5811
G01 X46.2845 Y119.6027
G01 X46.3322 Y119.6198
G01 X46.3813 Y119.6321
G01 X46.4314 Y119.6395
G01 X46.4820 Y119.6420
G01 X46.5326 Y119.6395
G01 X46.5827 Y119.6321
G01 X46.6318 Y119.6198
G01 X46.6795 Y119.6027
G01 X46.7252 Y119.5811
G01 X46.7687 Y119.5550
G01 X46.8093 Y119.5249
G01 X46.8469 Y119.4909
G01 X46.8809 Y119.4533
G01 X46.9110 Y119.4127
G01 X46.9371 Y119.3692
G01 X46.9587 Y119.3235
G01 X46.9758 Y119.2758
G01 X46.9881 Y119.2267
G01 X46.9955 Y119.1766
G01 X46.9980 Y119.1260
G00 X46.9980 Y119.1260
G01 F100.00
G01 Z-0.7500
G01 F400.00
G01 X46.9955 Y119.0754
G01 X46.9881 Y119.0253
G01 X46.9758 Y118.9762
G01 X46.9587 Y118.9285
G01 X46.9371 Y118.8828
G01 X46.9110 Y118.8393
G01 X46.8809 Y118.7987
G01 X46.8469 Y118.7611
G01 X46.8093 Y118.7271
G01 X46.7687 Y118.6970
G01 X46.7252 Y118.6709
G01 X46.6795 Y118.6493
G01 X46.6318 Y118.6322
G01 X46.5827 Y118.6199
G01 X46.5326 Y118.6125
G01 X46.4820 Y118.6100
G01 X46.4314 Y118.6125
G01 X46.3813 Y118.6199
G01 X46.3322 Y118.6322
G01 X46.2845 Y118.6493
G01 X46.2388 Y118.6709
G01 X46.1953 Y118.6970
G01 X46.1547 Y118.7271
G01 X46.1171 Y118.7611
G01 X46.0831 Y118.7987
G01 X46.0530 Y118.8393
G01 X46.0269 Y118.8828
G01 X46.0053 Y118.9285
G01 X45.9882 Y118.9762
G01 X45.9759 Y119.0253
G01 X45.9685 Y119.0754
G01 X45.9660 Y119.1260
G01 X45.9685 Y119.1766
G01 X45.9759 Y119.2267
G01 X45.9882 Y119.2758
G01 X46.0053 Y119.3235
G01 X46.0269 Y119.3692
G01 X46.0530 Y119.4127
G01 X46.0831 Y119.4533
G01 X46.1171 Y119.4909
G01 X46.1547 Y119.5249
G01 X46.1953 Y119.5550
G01 X46.2388 Y119.5811
G01 X46.2845 Y119.6027
G01 X46.3322 Y119.6198
G01 X46.3813 Y119.6321
G01 X46.4314 Y119.6395
G01 X46.4820 Y119.6420
G01 X46.5326 Y119.6395
G01 X46.5827 Y119.6321
G01 X46.6318 Y119.6198
G01 X46.6795 Y119.6027
G01 X46.7252 Y119.5811
G01 X46.7687 Y119.5550
G01 X46.8093 Y119.5249
G01 X46.8469 Y119.4909
G01 X46.8809 Y119.4533
G01 X46.9110 Y119.4127
G01 X46.9371 Y119.3692
G01 X46.9587 Y119.3235
G01 X46.9758 Y119.2758
G01 X46.9881 Y119.2267
G01 X46.9955 Y119.1766
G01 X46.9980 Y119.1260
G00 X46.9980 Y119.1260
G01 F100.00
G01 Z-1.0000
G01 F400.00
G01 X46.9955 Y119.0754
G01 X46.9881 Y119.0253
G01 X46.9758 Y118.9762
G01 X46.9587 Y118.9285
G01 X46.9371 Y118.8828
G01 X46.9110 Y118.8393
G01 X46.8809 Y118.7987
G01 X46.8469 Y118.7611
G01 X46.8093 Y118.7271
G01 X46.7687 Y118.6970
G01 X46.7252 Y118.6709
G01 X46.6795 Y118.6493
G01 X46.6318 Y118.6322
G01 X46.5827 Y118.6199
G01 X46.5326 Y118.6125
G01 X46.4820 Y118.6100
G01 X46.4314 Y118.6125
G01 X46.3813 Y118.6199
G01 X46.3322 Y118.6322
G01 X46.2845 Y118.6493
G01 X46.2388 Y118.6709
G01 X46.1953 Y118.6970
G01 X46.1547 Y118.7271
G01 X46.1171 Y118.7611
G01 X46.0831 Y118.7987
G01 X46.0530 Y118.8393
G01 X46.0269 Y118.8828
G01 X46.0053 Y118.9285
G01 X45.9882 Y118.9762
G01 X45.9759 Y119.0253
G01 X45.9685 Y119.0754
G01 X45.9660 Y119.1260
G01 X45.9685 Y119.1766
G01 X45.9759 Y119.2267
G01 X45.9882 Y119.2758
G01 X46.0053 Y119.3235
G01 X46.0269 Y119.3692
G01 X46.0530 Y119.4127
G01 X46.0831 Y119.4533
G01 X46.1171 Y119.4909
G01 X46.1547 Y119.5249
G01 X46.1953 Y119.5550
G01 X46.2388 Y119.5811
G01 X46.2845 Y119.6027
G01 X46.3322 Y119.6198
G01 X46.3813 Y119.6321
G01 X46.4314 Y119.6395
G01 X46.4820 Y119.6420
G01 X46.5326 Y119.6395
G01 X46.5827 Y119.6321
G01 X46.6318 Y119.6198
G01 X46.6795 Y119.6027
G01 X46.7252 Y119.5811
G01 X46.7687 Y119.5550
G01 X46.8093 Y119.5249
G01 X46.8469 Y119.4909
G01 X46.8809 Y119.4533
G01 X46.9110 Y119.4127
G01 X46.9371 Y119.3692
G01 X46.9587 Y119.3235
G01 X46.9758 Y119.2758
G01 X46.9881 Y119.2267
G01 X46.9955 Y119.1766
G01 X46.9980 Y119.1260
G00 X46.9980 Y119.1260
G01 F100.00
G01 Z-1.2500
G01 F400.00
G01 X46.9955 Y119.0754
G01 X46.9881 Y119.0253
G01 X46.9758 Y118.9762
G01 X46.9587 Y118.9285
G01 X46.9371 Y118.8828
G01 X46.9110 Y118.8393
G01 X46.8809 Y118.7987
G01 X46.8469 Y118.7611
G01 X46.8093 Y118.7271
G01 X46.7687 Y118.6970
G01 X46.7252 Y118.6709
G01 X46.6795 Y118.6493
G01 X46.6318 Y118.6322
G01 X46.5827 Y118.6199
G01 X46.5326 Y118.6125
G01 X46.4820 Y118.6100
G01 X46.4314 Y118.6125
G01 X46.3813 Y118.6199
G01 X46.3322 Y118.6322
G01 X46.2845 Y118.6493
G01 X46.2388 Y118.6709
G01 X46.1953 Y118.6970
G01 X46.1547 Y118.7271
G01 X46.1171 Y118.7611
G01 X46.0831 Y118.7987
G01 X46.0530 Y118.8393
G01 X46.0269 Y118.8828
G01 X46.0053 Y118.9285
G01 X45.9882 Y118.9762
G01 X45.9759 Y119.0253
G01 X45.9685 Y119.0754
G01 X45.9660 Y119.1260
G01 X45.9685 Y119.1766
G01 X45.9759 Y119.2267
G01 X45.9882 Y119.2758
G01 X46.0053 Y119.3235
G01 X46.0269 Y119.3692
G01 X46.0530 Y119.4127
G01 X46.0831 Y119.4533
G01 X46.1171 Y119.4909
G01 X46.1547 Y119.5249
G01 X46.1953 Y119.5550
G01 X46.2388 Y119.5811
G01 X46.2845 Y119.6027
G01 X46.3322 Y119.6198
G01 X46.3813 Y119.6321
G01 X46.4314 Y119.6395
G01 X46.4820 Y119.6420
G01 X46.5326 Y119.6395
G01 X46.5827 Y119.6321
G01 X46.6318 Y119.6198
G01 X46.6795 Y119.6027
G01 X46.7252 Y119.5811
G01 X46.7687 Y119.5550
G01 X46.8093 Y119.5249
G01 X46.8469 Y119.4909
G01 X46.8809 Y119.4533
G01 X46.9110 Y119.4127
G01 X46.9371 Y119.3692
G01 X46.9587 Y119.3235
G01 X46.9758 Y119.2758
G01 X46.9881 Y119.2267
G01 X46.9955 Y119.1766
G01 X46.9980 Y119.1260
G00 X46.9980 Y119.1260
G01 F100.00
G01 Z-1.5000
G01 F400.00
G01 X46.9955 Y119.0754
G01 X46.9881 Y119.0253
G01 X46.9758 Y118.9762
G01 X46.9587 Y118.9285
G01 X46.9371 Y118.8828
G01 X46.9110 Y118.8393
G01 X46.8809 Y118.7987
G01 X46.8469 Y118.7611
G01 X46.8093 Y118.7271
G01 X46.7687 Y118.6970
G01 X46.7252 Y118.6709
G01 X46.6795 Y118.6493
G01 X46.6318 Y118.6322
G01 X46.5827 Y118.6199
G01 X46.5326 Y118.6125
G01 X46.4820 Y118.6100
G01 X46.4314 Y118.6125
G01 X46.3813 Y118.6199
G01 X46.3322 Y118.6322
G01 X46.2845 Y118.6493
G01 X46.2388 Y118.6709
G01 X46.1953 Y118.6970
G01 X46.1547 Y118.7271
G01 X46.1171 Y118.7611
G01 X46.0831 Y118.7987
G01 X46.0530 Y118.8393
G01 X46.0269 Y118.8828
G01 X46.0053 Y118.9285
G01 X45.9882 Y118.9762
G01 X45.9759 Y119.0253
G01 X45.9685 Y119.0754
G01 X45.9660 Y119.1260
G01 X45.9685 Y119.1766
G01 X45.9759 Y119.2267
G01 X45.9882 Y119.2758
G01 X46.0053 Y119.3235
G01 X46.0269 Y119.3692
G01 X46.0530 Y119.4127
G01 X46.0831 Y119.4533
G01 X46.1171 Y119.4909
G01 X46.1547 Y119.5249
G01 X46.1953 Y119.5550
G01 X46.2388 Y119.5811
G01 X46.2845 Y119.6027
G01 X46.3322 Y119.6198
G01 X46.3813 Y119.6321
G01 X46.4314 Y119.6395
G01 X46.4820 Y119.6420
G01 X46.5326 Y119.6395
G01 X46.5827 Y119.6321
G01 X46.6318 Y119.6198
G01 X46.6795 Y119.6027
G01 X46.7252 Y119.5811
G01 X46.7687 Y119.5550
G01 X46.8093 Y119.5249
G01 X46.8469 Y119.4909
G01 X46.8809 Y119.4533
G01 X46.9110 Y119.4127
G01 X46.9371 Y119.3692
G01 X46.9587 Y119.3235
G01 X46.9758 Y119.2758
G01 X46.9881 Y119.2267
G01 X46.9955 Y119.1766
G01 X46.9980 Y119.1260
G00 X46.9980 Y119.1260
G01 F100.00
G01 Z-1.6500
G01 F400.00
G01 X46.9955 Y119.0754
G01 X46.9881 Y119.0253
G01 X46.9758 Y118.9762
G01 X46.9587 Y118.9285
G01 X46.9371 Y118.8828
G01 X46.9110 Y118.8393
G01 X46.8809 Y118.7987
G01 X46.8469 Y118.7611
G01 X46.8093 Y118.7271
G01 X46.7687 Y118.6970
G01 X46.7252 Y118.6709
G01 X46.6795 Y118.6493
G01 X46.6318 Y118.6322
G01 X46.5827 Y118.6199
G01 X46.5326 Y118.6125
G01 X46.4820 Y118.6100
G01 X46.4314 Y118.6125
G01 X46.3813 Y118.6199
G01 X46.3322 Y118.6322
G01 X46.2845 Y118.6493
G01 X46.2388 Y118.6709
G01 X46.1953 Y118.6970
G01 X46.1547 Y118.7271
G01 X46.1171 Y118.7611
G01 X46.0831 Y118.7987
G01 X46.0530 Y118.8393
G01 X46.0269 Y118.8828
G01 X46.0053 Y118.9285
G01 X45.9882 Y118.9762
G01 X45.9759 Y119.0253
G01 X45.9685 Y119.0754
G01 X45.9660 Y119.1260
G01 X45.9685 Y119.1766
G01 X45.9759 Y119.2267
G01 X45.9882 Y119.2758
G01 X46.0053 Y119.3235
G01 X46.0269 Y119.3692
G01 X46.0530 Y119.4127
G01 X46.0831 Y119.4533
G01 X46.1171 Y119.4909
G01 X46.1547 Y119.5249
G01 X46.1953 Y119.5550
G01 X46.2388 Y119.5811
G01 X46.2845 Y119.6027
G01 X46.3322 Y119.6198
G01 X46.3813 Y119.6321
G01 X46.4314 Y119.6395
G01 X46.4820 Y119.6420
G01 X46.5326 Y119.6395
G01 X46.5827 Y119.6321
G01 X46.6318 Y119.6198
G01 X46.6795 Y119.6027
G01 X46.7252 Y119.5811
G01 X46.7687 Y119.5550
G01 X46.8093 Y119.5249
G01 X46.8469 Y119.4909
G01 X46.8809 Y119.4533
G01 X46.9110 Y119.4127
G01 X46.9371 Y119.3692
G01 X46.9587 Y119.3235
G01 X46.9758 Y119.2758
G01 X46.9881 Y119.2267
G01 X46.9955 Y119.1766
G01 X46.9980 Y119.1260
G00 Z3.0000
G00 X56.5230 Y128.2700
G01 F100.00
G01 Z-0.2500
G01 F400.00
G01 X56.5199 Y128.2070
G01 X56.5106 Y128.1446
G01 X56.4953 Y128.0833
G01 X56.4741 Y128.0239
G01 X56.4471 Y127.9669
G01 X56.4146 Y127.9128
G01 X56.3770 Y127.8621
G01 X56.3347 Y127.8153
G01 X56.2879 Y127.7730
G01 X56.2372 Y127.7354
G01 X56.1831 Y127.7029
G01 X56.1261 Y127.6759
G01 X56.0667 Y127.6547
G01 X56.0054 Y127.6394
G01 X55.9430 Y127.6301
G01 X55.8800 Y127.6270
G01 X55.8170 Y127.6301
G01 X55.7546 Y127.6394
G01 X55.6933 Y127.6547
G01 X55.6339 Y127.6759
G01 X55.5769 Y127.7029
G01 X55.5228 Y127.7354
G01 X55.4721 Y127.7730
G01 X55.4253 Y127.8153
G01 X55.3830 Y127.8621
G01 X55.3454 Y127.9128
G01 X55.3129 Y127.9669
G01 X55.2859 Y128.0239
G01 X55.2647 Y128.0833
G01 X55.2494 Y128.1446
G01 X55.2401 Y128.2070
G01 X55.2370 Y128.2700
G01 X55.2401 Y128.3330
G01 X55.2494 Y128.3954
G01 X55.2647 Y128.4567
G01 X55.2859 Y128.5161
G01 X55.3129 Y128.5731
G01 X55.3454 Y128.6272
G01 X55.3830 Y128.6779
G01 X55.4253 Y128.7247
G01 X55.4721 Y128.7670
G01 X55.5228 Y128.8046
G01 X55.5769 Y128.8371
G01 X55.6339 Y128.8641
G01 X55.6933 Y128.8853
G01 X55.7546 Y128.9006
G01 X55.8170 Y128.9099
G01 X55.8800 Y128.9130
G01 X55.9430 Y128.9099
G01 X56.0054 Y128.9006
G01 X56.0667 Y128.8853
G01 X56.1261 Y128.8641
G01 X56.1831 Y128.8371
G01 X56.2372 Y128.8046
G01 X56.2879 Y128.7670
G01 X56.3347 Y128.7247
G01 X56.3770 Y128.6779
G01 X56.4146 Y128.6272
G01 X56.4471 Y128.5731
G01 X56.4741 Y128.5161
G01 X56.4953 Y128.4567
G01 X56.5106 Y128.3954
G01 X56.5199 Y128.3330
G01 X56.5230 Y128.2700
G00 X56.5230 Y128.2700
G01 F100.00
G01 Z-0.5000
G01 F400.00
G01 X56.5199 Y128.2070
G01 X56.5106 Y128.1446
G01 X56.4953 Y128.0833
G01 X56.4741 Y128.0239
G01 X56.4471 Y127.9669
G01 X56.4146 Y127.9128
G01 X56.3770 Y127.8621
G01 X56.3347 Y127.8153
G01 X56.2879 Y127.7730
G01 X56.2372 Y127.7354
G01 X56.1831 Y127.7029
G01 X56.1261 Y127.6759
G01 X56.0667 Y127.6547
G01 X56.0054 Y127.6394
G01 X55.9430 Y127.6301
G01 X55.8800 Y127.6270
G01 X55.8170 Y127.6301
G01 X55.7546 Y127.6394
G01 X55.6933 Y127.6547
G01 X55.6339 Y127.6759
G01 X55.5769 Y127.7029
G01 X55.5228 Y127.7354
G01 X55.4721 Y127.7730
G01 X55.4253 Y127.8153
G01 X55.3830 Y127.8621
G01 X55.3454 Y127.9128
G01 X55.3129 Y127.9669
G01 X55.2859 Y128.0239
G01 X55.2647 Y128.0833
G01 X55.2494 Y128.1446
G01 X55.2401 Y128.2070
G01 X55.2370 Y128.2700
G01 X55.2401 Y128.3330
G01 X55.2494 Y128.3954
G01 X55.2647 Y128.4567
G01 X55.2859 Y128.5161
G01 X55.3129 Y128.5731
G01 X55.3454 Y128.6272
G01 X55.3830 Y128.6779
G01 X55.4253 Y128.7247
G01 X55.4721 Y128.7670
G01 X55.5228 Y128.8046
G01 X55.5769 Y128.8371
G01 X55.6339 Y128.8641
G01 X55.6933 Y128.8853
G01 X55.7546 Y128.9006
G01 X55.8170 Y128.9099
G01 X55.8800 Y128.9130
G01 X55.9430 Y128.9099
G01 X56.0054 Y128.9006
G01 X56.0667 Y128.8853
G01 X56.1261 Y128.8641
G01 X56.1831 Y128.8371
G01 X56.2372 Y128.8046
G01 X56.2879 Y128.7670
G01 X56.3347 Y128.7247
G01 X56.3770 Y128.6779
G01 X56.4146 Y128.6272
G01 X56.4471 Y128.5731
G01 X56.4741 Y128.5161
G01 X56.4953 Y128.4567
G01 X56.5106 Y128.3954
G01 X56.5199 Y128.3330
G01 X56.5230 Y128.2700
G00 X56.5230 Y128.2700
G01 F100.00
G01 Z-0.7500
G01 F400.00
G01 X56.5199 Y128.2070
G01 X56.5106 Y128.1446
G01 X56.4953 Y128.0833
G01 X56.4741 Y128.0239
G01 X56.4471 Y127.9669
G01 X56.4146 Y127.9128
G01 X56.3770 Y127.8621
G01 X56.3347 Y127.8153
G01 X56.2879 Y127.7730
G01 X56.2372 Y127.7354
G01 X56.1831 Y127.7029
G01 X56.1261 Y127.6759
G01 X56.0667 Y127.6547
G01 X56.0054 Y127.6394
G01 X55.9430 Y127.6301
G01 X55.8800 Y127.6270
G01 X55.8170 Y127.6301
G01 X55.7546 Y127.6394
G01 X55.6933 Y127.6547
G01 X55.6339 Y127.6759
G01 X55.5769 Y127.7029
G01 X55.5228 Y127.7354
G01 X55.4721 Y127.7730
G01 X55.4253 Y127.8153
G01 X55.3830 Y127.8621
G01 X55.3454 Y127.9128
G01 X55.3129 Y127.9669
G01 X55.2859 Y128.0239
G01 X55.2647 Y128.0833
G01 X55.2494 Y128.1446
G01 X55.2401 Y128.2070
G01 X55.2370 Y128.2700
G01 X55.2401 Y128.3330
G01 X55.2494 Y128.3954
G01 X55.2647 Y128.4567
G01 X55.2859 Y128.5161
G01 X55.3129 Y128.5731
G01 X55.3454 Y128.6272
G01 X55.3830 Y128.6779
G01 X55.4253 Y128.7247
G01 X55.4721 Y128.7670
G01 X55.5228 Y128.8046
G01 X55.5769 Y128.8371
G01 X55.6339 Y128.8641
G01 X55.6933 Y128.8853
G01 X55.7546 Y128.9006
G01 X55.8170 Y128.9099
G01 X55.8800 Y128.9130
G01 X55.9430 Y128.9099
G01 X56.0054 Y128.9006
G01 X56.0667 Y128.8853
G01 X56.1261 Y128.8641
G01 X56.1831 Y128.8371
G01 X56.2372 Y128.8046
G01 X56.2879 Y128.7670
G01 X56.3347 Y128.7247
G01 X56.3770 Y128.6779
G01 X56.4146 Y128.6272
G01 X56.4471 Y128.5731
G01 X56.4741 Y128.5161
G01 X56.4953 Y128.4567
G01 X56.5106 Y128.3954
G01 X56.5199 Y128.3330
G01 X56.5230 Y128.2700
G00 X56.5230 Y128.2700
G01 F100.00
G01 Z-1.0000
G01 F400.00
G01 X56.5199 Y128.2070
G01 X56.5106 Y128.1446
G01 X56.4953 Y128.0833
G01 X56.4741 Y128.0239
G01 X56.4471 Y127.9669
G01 X56.4146 Y127.9128
G01 X56.3770 Y127.8621
G01 X56.3347 Y127.8153
G01 X56.2879 Y127.7730
G01 X56.2372 Y127.7354
G01 X56.1831 Y127.7029
G01 X56.1261 Y127.6759
G01 X56.0667 Y127.6547
G01 X56.0054 Y127.6394
G01 X55.9430 Y127.6301
G01 X55.8800 Y127.6270
G01 X55.8170 Y127.6301
G01 X55.7546 Y127.6394
G01 X55.6933 Y127.6547
G01 X55.6339 Y127.6759
G01 X55.5769 Y127.7029
G01 X55.5228 Y127.7354
G01 X55.4721 Y127.7730
G01 X55.4253 Y127.8153
G01 X55.3830 Y127.8621
G01 X55.3454 Y127.9128
G01 X55.3129 Y127.9669
G01 X55.2859 Y128.0239
G01 X55.2647 Y128.0833
G01 X55.2494 Y128.1446
G01 X55.2401 Y128.2070
G01 X55.2370 Y128.2700
G01 X55.2401 Y128.3330
G01 X55.2494 Y128.3954
G01 X55.2647 Y128.4567
G01 X55.2859 Y128.5161
G01 X55.3129 Y128.5731
G01 X55.3454 Y128.6272
G01 X55.3830 Y128.6779
G01 X55.4253 Y128.7247
G01 X55.4721 Y128.7670
G01 X55.5228 Y128.8046
G01 X55.5769 Y128.8371
G01 X55.6339 Y128.8641
G01 X55.6933 Y128.8853
G01 X55.7546 Y128.9006
G01 X55.8170 Y128.9099
G01 X55.8800 Y128.9130
G01 X55.9430 Y128.9099
G01 X56.0054 Y128.9006
G01 X56.0667 Y128.8853
G01 X56.1261 Y128.8641
G01 X56.1831 Y128.8371
G01 X56.2372 Y128.8046
G01 X56.2879 Y128.7670
G01 X56.3347 Y128.7247
G01 X56.3770 Y128.6779
G01 X56.4146 Y128.6272
G01 X56.4471 Y128.5731
G01 X56.4741 Y128.5161
G01 X56.4953 Y128.4567
G01 X56.5106 Y128.3954
G01 X56.5199 Y128.3330
G01 X56.5230 Y128.2700
G00 X56.5230 Y128.2700
G01 F100.00
G01 Z-1.2500
G01 F400.00
G01 X56.5199 Y128.2070
G01 X56.5106 Y128.1446
G01 X56.4953 Y128.0833
G01 X56.4741 Y128.0239
G01 X56.4471 Y127.9669
G01 X56.4146 Y127.9128
G01 X56.3770 Y127.8621
G01 X56.3347 Y127.8153
G01 X56.2879 Y127.7730
G01 X56.2372 Y127.7354
G01 X56.1831 Y127.7029
G01 X56.1261 Y127.6759
G01 X56.0667 Y127.6547
G01 X56.0054 Y127.6394
G01 X55.9430 Y127.6301
G01 X55.8800 Y127.6270
G01 X55.8170 Y127.6301
G01 X55.7546 Y127.6394
G01 X55.6933 Y127.6547
G01 X55.6339 Y127.6759
G01 X55.5769 Y127.7029
G01 X55.5228 Y127.7354
G01 X55.4721 Y127.7730
G01 X55.4253 Y127.8153
G01 X55.3830 Y127.8621
G01 X55.3454 Y127.9128
G01 X55.3129 Y127.9669
G01 X55.2859 Y128.0239
G01 X55.2647 Y128.0833
G01 X55.2494 Y128.1446
G01 X55.2401 Y128.2070
G01 X55.2370 Y128.2700
G01 X55.2401 Y128.3330
G01 X55.2494 Y128.3954
G01 X55.2647 Y128.4567
G01 X55.2859 Y128.5161
G01 X55.3129 Y128.5731
G01 X55.3454 Y128.6272
G01 X55.3830 Y128.6779
G01 X55.4253 Y128.7247
G01 X55.4721 Y128.7670
G01 X55.5228 Y128.8046
G01 X55.5769 Y128.8371
G01 X55.6339 Y128.8641
G01 X55.6933 Y128.8853
G01 X55.7546 Y128.9006
G01 X55.8170 Y128.9099
G01 X55.8800 Y128.9130
G01 X55.9430 Y128.9099
G01 X56.0054 Y128.9006
G01 X56.0667 Y128.8853
G01 X56.1261 Y128.8641
G01 X56.1831 Y128.8371
G01 X56.2372 Y128.8046
G01 X56.2879 Y128.7670
G01 X56.3347 Y128.7247
G01 X56.3770 Y128.6779
G01 X56.4146 Y128.6272
G01 X56.4471 Y128.5731
G01 X56.4741 Y128.5161
G01 X56.4953 Y128.4567
G01 X56.5106 Y128.3954
G01 X56.5199 Y128.3330
G01 X56.5230 Y128.2700
G00 X56.5230 Y128.2700
G01 F100.00
G01 Z-1.5000
G01 F400.00
G01 X56.5199 Y128.2070
G01 X56.5106 Y128.1446
G01 X56.4953 Y128.0833
G01 X56.4741 Y128.0239
G01 X56.4471 Y127.9669
G01 X56.4146 Y127.9128
G01 X56.3770 Y127.8621
G01 X56.3347 Y127.8153
G01 X56.2879 Y127.7730
G01 X56.2372 Y127.7354
G01 X56.1831 Y127.7029
G01 X56.1261 Y127.6759
G01 X56.0667 Y127.6547
G01 X56.0054 Y127.6394
G01 X55.9430 Y127.6301
G01 X55.8800 Y127.6270
G01 X55.8170 Y127.6301
G01 X55.7546 Y127.6394
G01 X55.6933 Y127.6547
G01 X55.6339 Y127.6759
G01 X55.5769 Y127.7029
G01 X55.5228 Y127.7354
G01 X55.4721 Y127.7730
G01 X55.4253 Y127.8153
G01 X55.3830 Y127.8621
G01 X55.3454 Y127.9128
G01 X55.3129 Y127.9669
G01 X55.2859 Y128.0239
G01 X55.2647 Y128.0833
G01 X55.2494 Y128.1446
G01 X55.2401 Y128.2070
G01 X55.2370 Y128.2700
G01 X55.2401 Y128.3330
G01 X55.2494 Y128.3954
G01 X55.2647 Y128.4567
G01 X55.2859 Y128.5161
G01 X55.3129 Y128.5731
G01 X55.3454 Y128.6272
G01 X55.3830 Y128.6779
G01 X55.4253 Y128.7247
G01 X55.4721 Y128.7670
G01 X55.5228 Y128.8046
G01 X55.5769 Y128.8371
G01 X55.6339 Y128.8641
G01 X55.6933 Y128.8853
G01 X55.7546 Y128.9006
G01 X55.8170 Y128.9099
G01 X55.8800 Y128.9130
G01 X55.9430 Y128.9099
G01 X56.0054 Y128.9006
G01 X56.0667 Y128.8853
G01 X56.1261 Y128.8641
G01 X56.1831 Y128.8371
G01 X56.2372 Y128.8046
G01 X56.2879 Y128.7670
G01 X56.3347 Y128.7247
G01 X56.3770 Y128.6779
G01 X56.4146 Y128.6272
G01 X56.4471 Y128.5731
G01 X56.4741 Y128.5161
G01 X56.4953 Y128.4567
G01 X56.5106 Y128.3954
G01 X56.5199 Y128.3330
G01 X56.5230 Y128.2700
G00 X56.5230 Y128.2700
G01 F100.00
G01 Z-1.6500
G01 F400.00
G01 X56.5199 Y128.2070
G01 X56.5106 Y128.1446
G01 X56.4953 Y128.0833
G01 X56.4741 Y128.0239
G01 X56.4471 Y127.9669
G01 X56.4146 Y127.9128
G01 X56.3770 Y127.8621
G01 X56.3347 Y127.8153
G01 X56.2879 Y127.7730
G01 X56.2372 Y127.7354
G01 X56.1831 Y127.7029
G01 X56.1261 Y127.6759
G01 X56.0667 Y127.6547
G01 X56.0054 Y127.6394
G01 X55.9430 Y127.6301
G01 X55.8800 Y127.6270
G01 X55.8170 Y127.6301
G01 X55.7546 Y127.6394
G01 X55.6933 Y127.6547
G01 X55.6339 Y127.6759
G01 X55.5769 Y127.7029
G01 X55.5228 Y127.7354
G01 X55.4721 Y127.7730
G01 X55.4253 Y127.8153
G01 X55.3830 Y127.8621
G01 X55.3454 Y127.9128
G01 X55.3129 Y127.9669
G01 X55.2859 Y128.0239
G01 X55.2647 Y128.0833
G01 X55.2494 Y128.1446
G01 X55.2401 Y128.2070
G01 X55.2370 Y128.2700
G01 X55.2401 Y128.3330
G01 X55.2494 Y128.3954
G01 X55.2647 Y128.4567
G01 X55.2859 Y128.5161
G01 X55.3129 Y128.5731
G01 X55.3454 Y128.6272
G01 X55.3830 Y128.6779
G01 X55.4253 Y128.7247
G01 X55.4721 Y128.7670
G01 X55.5228 Y128.8046
G01 X55.5769 Y128.8371
G01 X55.6339 Y128.8641
G01 X55.6933 Y128.8853
G01 X55.7546 Y128.9006
G01 X55.8170 Y128.9099
G01 X55.8800 Y128.9130
G01 X55.9430 Y128.9099
G01 X56.0054 Y128.9006
G01 X56.0667 Y128.8853
G01 X56.1261 Y128.8641
G01 X56.1831 Y128.8371
G01 X56.2372 Y128.8046
G01 X56.2879 Y128.7670
G01 X56.3347 Y128.7247
G01 X56.3770 Y128.6779
G01 X56.4146 Y128.6272
G01 X56.4471 Y128.5731
G01 X56.4741 Y128.5161
G01 X56.4953 Y128.4567
G01 X56.5106 Y128.3954
G01 X56.5199 Y128.3330
G01 X56.5230 Y128.2700
G00 Z3.0000
G00 X34.9330 Y142.2400
G01 F100.00
G01 Z-0.2500
G01 F400.00
G01 X34.9299 Y142.1770
G01 X34.9206 Y142.1146
G01 X34.9053 Y142.0533
G01 X34.8841 Y141.9939
G01 X34.8571 Y141.9369
G01 X34.8246 Y141.8828
G01 X34.7870 Y141.8321
G01 X34.7447 Y141.7853
G01 X34.6979 Y141.7430
G01 X34.6472 Y141.7054
G01 X34.5931 Y141.6729
G01 X34.5361 Y141.6459
G01 X34.4767 Y141.6247
G01 X34.4154 Y141.6094
G01 X34.3530 Y141.6001
G01 X34.2900 Y141.5970
G01 X34.2270 Y141.6001
G01 X34.1646 Y141.6094
G01 X34.1033 Y141.6247
G01 X34.0439 Y141.6459
G01 X33.9869 Y141.6729
G01 X33.9328 Y141.7054
G01 X33.8821 Y141.7430
G01 X33.8353 Y141.7853
G01 X33.7930 Y141.8321
G01 X33.7554 Y141.8828
G01 X33.7229 Y141.9369
G01 X33.6959 Y141.9939
G01 X33.6747 Y142.0533
G01 X33.6594 Y142.1146
G01 X33.6501 Y142.1770
G01 X33.6470 Y142.2400
G01 X33.6501 Y142.3030
G01 X33.6594 Y142.3654
G01 X33.6747 Y142.4267
G01 X33.6959 Y142.4861
G01 X33.7229 Y142.5431
G01 X33.7554 Y142.5972
G01 X33.7930 Y142.6479
G01 X33.8353 Y142.6947
G01 X33.8821 Y142.7370
G01 X33.9328 Y142.7746
G01 X33.9869 Y142.8071
G01 X34.0439 Y142.8341
G01 X34.1033 Y142.8553
G01 X34.1646 Y142.8706
G01 X34.2270 Y142.8799
G01 X34.2900 Y142.8830
G01 X34.3530 Y142.8799
G01 X34.4154 Y142.8706
G01 X34.4767 Y142.8553
G01 X34.5361 Y142.8341
G01 X34.5931 Y142.8071
G01 X34.6472 Y142.7746
G01 X34.6979 Y142.7370
G01 X34.7447 Y142.6947
G01 X34.7870 Y142.6479
G01 X34.8246 Y142.5972
G01 X34.8571 Y142.5431
G01 X34.8841 Y142.4861
G01 X34.9053 Y142.4267
G01 X34.9206 Y142.3654
G01 X34.9299 Y142.3030
G01 X34.9330 Y142.2400
G00 X34.9330 Y142.2400
G01 F100.00
G01 Z-0.5000
G01 F400.00
G01 X34.9299 Y142.1770
G01 X34.9206 Y142.1146
G01 X34.9053 Y142.0533
G01 X34.8841 Y141.9939
G01 X34.8571 Y141.9369
G01 X34.8246 Y141.8828
G01 X34.7870 Y141.8321
G01 X34.7447 Y141.7853
G01 X34.6979 Y141.7430
G01 X34.6472 Y141.7054
G01 X34.5931 Y141.6729
G01 X34.5361 Y141.6459
G01 X34.4767 Y141.6247
G01 X34.4154 Y141.6094
G01 X34.3530 Y141.6001
G01 X34.2900 Y141.5970
G01 X34.2270 Y141.6001
G01 X34.1646 Y141.6094
G01 X34.1033 Y141.6247
G01 X34.0439 Y141.6459
G01 X33.9869 Y141.6729
G01 X33.9328 Y141.7054
G01 X33.8821 Y141.7430
G01 X33.8353 Y141.7853
G01 X33.7930 Y141.8321
G01 X33.7554 Y141.8828
G01 X33.7229 Y141.9369
G01 X33.6959 Y141.9939
G01 X33.6747 Y142.0533
G01 X33.6594 Y142.1146
G01 X33.6501 Y142.1770
G01 X33.6470 Y142.2400
G01 X33.6501 Y142.3030
G01 X33.6594 Y142.3654
G01 X33.6747 Y142.4267
G01 X33.6959 Y142.4861
G01 X33.7229 Y142.5431
G01 X33.7554 Y142.5972
G01 X33.7930 Y142.6479
G01 X33.8353 Y142.6947
G01 X33.8821 Y142.7370
G01 X33.9328 Y142.7746
G01 X33.9869 Y142.8071
G01 X34.0439 Y142.8341
G01 X34.1033 Y142.8553
G01 X34.1646 Y142.8706
G01 X34.2270 Y142.8799
G01 X34.2900 Y142.8830
G01 X34.3530 Y142.8799
G01 X34.4154 Y142.8706
G01 X34.4767 Y142.8553
G01 X34.5361 Y142.8341
G01 X34.5931 Y142.8071
G01 X34.6472 Y142.7746
G01 X34.6979 Y142.7370
G01 X34.7447 Y142.6947
G01 X34.7870 Y142.6479
G01 X34.8246 Y142.5972
G01 X34.8571 Y142.5431
