(G-CODE GENERATED BY FLATCAM v8.994 - www.flatcam.org - Version Date: 2020/11/7)

(Name: copper_top.gbr_iso_combined_cnc)
(Type: G-code from Geometry)
(Units: MM)

(Created on Friday, 25 March 2022 at 15:20)

(This preprocessor is the default preprocessor used by FlatCAM.)
(It is made to work with MACH3 compatible motion controllers.)

(TOOL DIAMETER: 0.508 mm)
(Feedrate_XY: 400.0 mm/min)
(Feedrate_Z: 100.0 mm/min)
(Feedrate rapids 400.0 mm/min)

(Z_Cut: -0.4 mm)
(Z_Move: 5.0 mm)
(Z Start: None mm)
(Z End: 30.0 mm)
(X,Y End: None mm)
(Steps per circle: 64)
(Preprocessor Geometry: default)

(X range:    1.1690 ...  116.9438  mm)
(Y range:    1.1690 ...  163.9310  mm)

(Spindle Speed: 29000.0 RPM)
G21
G90
G94

G01 F400.00

M5
G00 Z15.0000
G00 X0.0000 Y0.0000
T2
M6    
(MSG, Change to Tool Dia = 0.5080)
M0
G00 Z15.0000

M03 S29000.0
G01 F400.00
G00 X9.6714 Y13.0502
G01 F100.00
G01 Z-0.4000
G01 F400.00
G01 X9.7264 Y13.0516
G01 X9.7546 Y13.0532
G01 X9.8070 Y13.0572
G01 X9.9114 Y13.0686
G01 X9.9627 Y13.0758
G01 X9.9915 Y13.0805
G01 X10.0202 Y13.0859
G01 X10.0447 Y13.0908
G01 X10.0968 Y13.1005
G01 X10.1240 Y13.1065
G01 X10.1750 Y13.1186
G01 X10.2796 Y13.1472
G01 X10.3273 Y13.1620
G01 X10.3554 Y13.1712
G01 X10.3832 Y13.1812
G01 X10.4057 Y13.1897
G01 X10.4576 Y13.2082
G01 X10.4866 Y13.2197
G01 X10.5293 Y13.2374
G01 X10.6282 Y13.2822
G01 X10.6538 Y13.2947
G01 X10.7003 Y13.3185
G01 X10.7455 Y13.3438
G01 X10.7878 Y13.3668
G01 X10.8084 Y13.3787
G01 X10.8360 Y13.3955
G01 X10.8616 Y13.4113
G01 X10.8867 Y13.4279
G01 X10.9071 Y13.4417
G01 X10.9521 Y13.4713
G01 X10.9760 Y13.4881
G01 X11.0157 Y13.5170
G01 X11.1013 Y13.5839
G01 X11.1237 Y13.6026
G01 X11.1629 Y13.6363
G01 X11.2421 Y13.7092
G01 X11.2625 Y13.7291
G01 X11.2968 Y13.7636
G01 X11.3534 Y13.8244
G01 X11.3722 Y13.8448
G01 X11.3904 Y13.8657
G01 X11.4227 Y13.9039
G01 X11.4907 Y13.9899
G01 X11.5196 Y14.0291
G01 X11.5371 Y14.0537
G01 X11.5966 Y14.1429
G01 X11.6233 Y14.1857
G01 X11.6386 Y14.2114
G01 X11.6645 Y14.2582
G01 X11.6902 Y14.3036
G01 X11.7034 Y14.3288
G01 X11.7268 Y14.3756
G01 X11.7726 Y14.4755
G01 X11.7914 Y14.5201
G01 X11.8022 Y14.5471
G01 X11.8399 Y14.6501
G01 X11.8494 Y14.6787
G01 X11.8634 Y14.7233
G01 X11.8852 Y14.8011
G01 X11.8930 Y14.8294
G01 X11.9001 Y14.8579
G01 X11.9113 Y14.9065
G01 X11.9320 Y15.0131
G01 X11.9416 Y15.0742
G01 X11.9448 Y15.0976
G01 X11.9498 Y15.1447
G01 X11.9560 Y15.1973
G01 X11.9600 Y15.2474
G01 X11.9619 Y15.2773
G01 X11.9655 Y15.3848
G01 X11.9657 Y15.4150
G01 X11.9650 Y15.4651
G01 X11.9601 Y15.5714
G01 X11.9558 Y15.6257
G01 X11.9530 Y15.6537
G01 X11.9451 Y15.7225
G01 X12.0340 Y16.4544
G01 X12.2954 Y17.1437
G01 X12.7142 Y17.7504
G01 X13.2661 Y18.2394
G01 X13.9189 Y18.5820
G01 X14.6347 Y18.7584
G01 X15.3719 Y18.7584
G01 X16.0877 Y18.5820
G01 X16.7405 Y18.2394
G01 X17.2924 Y17.7504
G01 X17.7112 Y17.1437
G01 X17.9726 Y16.4544
G01 X18.0615 Y15.7225
G01 X18.0558 Y15.6737
G01 X18.0518 Y15.6272
G01 X18.0466 Y15.5732
G01 X18.0447 Y15.5438
G01 X18.0424 Y15.4927
G01 X18.0411 Y15.3856
G01 X18.0416 Y15.3551
G01 X18.0432 Y15.3080
G01 X18.0505 Y15.1987
G01 X18.0532 Y15.1709
G01 X18.0590 Y15.1197
G01 X18.0748 Y15.0120
G01 X18.0799 Y14.9831
G01 X18.0896 Y14.9336
G01 X18.1016 Y14.8825
G01 X18.1119 Y14.8363
G01 X18.1177 Y14.8131
G01 X18.1341 Y14.7536
G01 X18.1667 Y14.6501
G01 X18.1763 Y14.6226
G01 X18.1937 Y14.5749
G01 X18.2235 Y14.5011
G01 X18.2344 Y14.4742
G01 X18.2553 Y14.4274
G01 X18.2672 Y14.4018
G01 X18.3155 Y14.3053
G01 X18.3302 Y14.2780
G01 X18.3531 Y14.2369
G01 X18.4105 Y14.1420
G01 X18.4434 Y14.0916
G01 X18.4571 Y14.0716
G01 X18.4851 Y14.0332
G01 X18.5156 Y13.9903
G01 X18.5333 Y13.9670
G01 X18.5651 Y13.9269
G01 X18.6357 Y13.8435
G01 X18.6689 Y13.8067
G01 X18.6889 Y13.7853
G01 X18.7640 Y13.7097
G01 X18.7846 Y13.6900
G01 X18.8228 Y13.6549
G01 X18.9044 Y13.5847
G01 X18.9261 Y13.5671
G01 X18.9681 Y13.5343
G01 X19.0537 Y13.4717
G01 X19.0790 Y13.4544
G01 X19.1192 Y13.4278
G01 X19.2142 Y13.3694
G01 X19.2410 Y13.3540
G01 X19.2871 Y13.3287
G01 X19.3781 Y13.2824
G01 X19.4214 Y13.2621
G01 X19.4484 Y13.2499
G01 X19.5513 Y13.2073
G01 X19.5799 Y13.1965
G01 X19.6229 Y13.1810
G01 X19.7271 Y13.1472
G01 X19.7762 Y13.1331
G01 X19.8030 Y13.1259
G01 X19.9101 Y13.1004
G01 X19.9383 Y13.0946
G01 X19.9855 Y13.0856
G01 X20.0941 Y13.0687
G01 X20.1245 Y13.0649
G01 X20.1725 Y13.0598
G01 X20.2791 Y13.0517
G01 X20.3351 Y13.0494
G01 X20.4031 Y13.0484
G01 X42.4317 Y13.0484
G01 X42.4761 Y13.0493
G01 X42.5745 Y13.0533
G01 X42.6000 Y13.0547
G01 X43.3633 Y13.0542
G01 X43.8760 Y12.9371
G01 X43.9013 Y12.9317
G01 X43.9387 Y12.9228
G01 X44.1461 Y12.8755
G01 X44.8463 Y12.5383
G01 X45.4538 Y12.0538
G01 X45.9383 Y11.4463
G01 X46.2755 Y10.7461
G01 X46.3228 Y10.5387
G01 X46.3409 Y10.4651
G01 X46.3486 Y10.4363
G01 X46.3583 Y10.4042
G01 X46.3672 Y10.3723
G01 X46.3760 Y10.3443
G01 X46.3966 Y10.2831
G01 X46.4060 Y10.2567
G01 X46.4179 Y10.2260
G01 X46.4296 Y10.1947
G01 X46.4402 Y10.1683
G01 X46.4651 Y10.1098
G01 X46.4765 Y10.0843
G01 X46.4908 Y10.0548
G01 X46.5054 Y10.0232
G01 X46.5186 Y9.9967
G01 X46.5330 Y9.9698
G01 X46.5469 Y9.9426
G01 X46.5612 Y9.9165
G01 X46.5783 Y9.8874
G01 X46.5948 Y9.8581
G01 X46.6102 Y9.8326
G01 X46.6262 Y9.8075
G01 X46.6418 Y9.7822
G01 X46.6581 Y9.7573
G01 X46.6785 Y9.7280
G01 X46.6976 Y9.6998
G01 X46.7141 Y9.6768
G01 X46.7319 Y9.6534
G01 X46.7501 Y9.6284
G01 X46.7684 Y9.6049
G01 X46.8123 Y9.5508
G01 X46.8299 Y9.5300
G01 X46.8803 Y9.4727
G01 X46.9475 Y9.4020
G01 X54.2092 Y2.1402
G01 X54.2618 Y2.0893
G01 X54.3369 Y2.0217
G01 X54.3798 Y1.9856
G01 X54.4028 Y1.9669
G01 X54.4838 Y1.9049
G01 X54.5301 Y1.8718
G01 X54.5552 Y1.8546
G01 X54.5962 Y1.8284
G01 X54.6370 Y1.8016
G01 X54.6630 Y1.7857
G01 X54.7135 Y1.7563
G01 X54.8024 Y1.7083
G01 X54.8534 Y1.6829
G01 X54.8795 Y1.6706
G01 X54.9445 Y1.6418
G01 X54.9722 Y1.6296
G01 X55.0002 Y1.6182
G01 X55.0532 Y1.5976
G01 X55.1011 Y1.5812
G01 X55.1452 Y1.5655
G01 X55.2074 Y1.5461
G01 X55.2326 Y1.5388
G01 X55.3269 Y1.5139
G01 X55.3867 Y1.5004
G01 X55.4139 Y1.4948
G01 X55.5106 Y1.4774
G01 X55.5702 Y1.4687
G01 X55.5994 Y1.4651
G01 X55.6490 Y1.4605
G01 X55.6980 Y1.4554
G01 X55.7265 Y1.4534
G01 X55.7730 Y1.4508
G01 X55.7969 Y1.4500
G01 X55.8795 Y1.4484
G01 X99.0605 Y1.4484
G01 X99.1064 Y1.4489
G01 X99.1342 Y1.4496
G01 X99.2342 Y1.4548
G01 X99.2905 Y1.4597
G01 X99.3194 Y1.4627
G01 X99.4210 Y1.4760
G01 X99.4510 Y1.4809
G01 X99.5061 Y1.4909
G01 X99.6041 Y1.5118
G01 X99.6331 Y1.5189
G01 X99.6888 Y1.5335
G01 X99.7358 Y1.5478
G01 X99.7837 Y1.5618
G01 X99.8126 Y1.5713
G01 X99.8681 Y1.5908
G01 X99.9135 Y1.6086
G01 X99.9335 Y1.6161
G01 X99.9600 Y1.6264
G01 X99.9862 Y1.6374
G01 X100.0405 Y1.6613
G01 X100.1308 Y1.7048
G01 X100.1826 Y1.7319
G01 X100.2083 Y1.7460
G01 X100.2944 Y1.7963
G01 X100.3434 Y1.8271
G01 X100.3682 Y1.8434
G01 X100.4511 Y1.9011
G01 X100.4952 Y1.9340
G01 X100.5197 Y1.9530
G01 X100.5972 Y2.0166
G01 X100.6531 Y2.0659
G01 X100.7128 Y2.1226
G01 X100.7308 Y2.1402
G01 X105.1794 Y6.5888
G01 X105.2097 Y6.6203
G01 X105.2758 Y6.6912
G01 X105.2934 Y6.7112
G01 X105.3195 Y6.7420
G01 X105.3922 Y6.8333
G01 X105.4148 Y6.8635
G01 X105.4316 Y6.8867
G01 X105.4477 Y6.9103
G01 X105.5001 Y6.9882
G01 X105.5209 Y7.0213
G01 X105.5350 Y7.0445
G01 X105.5828 Y7.1289
G01 X105.5964 Y7.1534
G01 X105.6094 Y7.1783
G01 X105.6262 Y7.2117
G01 X105.6767 Y7.3205
G01 X105.6871 Y7.3447
G01 X105.7023 Y7.3821
G01 X105.7445 Y7.4959
G01 X105.7577 Y7.5356
G01 X105.7649 Y7.5586
G01 X105.7716 Y7.5818
G01 X105.7971 Y7.6726
G01 X105.8065 Y7.7098
G01 X105.8129 Y7.7373
G01 X105.8258 Y7.7983
G01 X106.0179 Y8.7641
G01 X106.3411 Y9.5446
G01 X106.3508 Y9.5693
G01 X106.3909 Y9.6807
G01 X106.3992 Y9.7062
G01 X106.4123 Y9.7489
G01 X106.4360 Y9.8358
G01 X106.4423 Y9.8595
G01 X106.4481 Y9.8834
G01 X106.4584 Y9.9294
G01 X106.4802 Y10.0447
G01 X106.4846 Y10.0730
G01 X106.4906 Y10.1164
G01 X106.5026 Y10.2284
G01 X106.5060 Y10.2736
G01 X106.5075 Y10.3003
G01 X106.5107 Y10.4181
G01 X106.5107 Y10.4452
G01 X106.5097 Y10.4902
G01 X106.5054 Y10.5760
G01 X106.5039 Y10.6035
G01 X106.5017 Y10.6310
G01 X106.4971 Y10.6772
G01 X106.4822 Y10.7898
G01 X106.4778 Y10.8172
G01 X106.4697 Y10.8620
G01 X106.4460 Y10.9729
G01 X106.4351 Y11.0169
G01 X106.4280 Y11.0435
G01 X106.3953 Y11.1534
G01 X106.3803 Y11.1980
G01 X106.3713 Y11.2235
G01 X106.3615 Y11.2488
G01 X106.3303 Y11.3291
G01 X106.3209 Y11.3517
G01 X106.3016 Y11.3955
G01 X106.2513 Y11.5000
G01 X106.2386 Y11.5247
G01 X106.2169 Y11.5648
G01 X106.1590 Y11.6640
G01 X106.1339 Y11.7038
G01 X106.1200 Y11.7250
G01 X106.1055 Y11.7460
G01 X106.0549 Y11.8186
G01 X106.0274 Y11.8555
G01 X106.0110 Y11.8768
G01 X105.9385 Y11.9651
G01 X105.9077 Y12.0003
G01 X105.8898 Y12.0199
G01 X105.8111 Y12.1017
G01 X105.7794 Y12.1326
G01 X105.7590 Y12.1519
G01 X105.7381 Y12.1706
G01 X105.6720 Y12.2290
G01 X105.6512 Y12.2464
G01 X105.6149 Y12.2757
G01 X105.5238 Y12.3443
G01 X105.5011 Y12.3605
G01 X105.4631 Y12.3863
G01 X105.3677 Y12.4470
G01 X105.3452 Y12.4604
G01 X105.3048 Y12.4835
G01 X105.2023 Y12.5379
G01 X105.1784 Y12.5496
G01 X105.1374 Y12.5689
G01 X105.0315 Y12.6147
G01 X105.0067 Y12.6245
G01 X104.9638 Y12.6407
G01 X104.8550 Y12.6777
G01 X104.8298 Y12.6855
G01 X104.7859 Y12.6982
G01 X104.6758 Y12.7262
G01 X104.6320 Y12.7359
G01 X104.6044 Y12.7415
G01 X104.4920 Y12.7607
G01 X104.4477 Y12.7669
G01 X104.4203 Y12.7702
G01 X104.3052 Y12.7806
G01 X104.2613 Y12.7832
G01 X104.2333 Y12.7844
G01 X104.1157 Y12.7856
G01 X104.0697 Y12.7845
G01 X104.0436 Y12.7835
G01 X103.9301 Y12.7757
G01 X103.8836 Y12.7709
G01 X103.8584 Y12.7679
G01 X103.7440 Y12.7509
G01 X103.6988 Y12.7427
G01 X103.6638 Y12.7355
G01 X103.6069 Y12.7228
G01 X103.4590 Y12.6866
G01 X102.7219 Y12.6866
G01 X102.0061 Y12.8630
G01 X101.3533 Y13.2056
G01 X100.8014 Y13.6946
G01 X100.3826 Y14.3013
G01 X100.1212 Y14.9906
G01 X100.0323 Y15.7225
G01 X100.1212 Y16.4544
G01 X100.3826 Y17.1437
G01 X100.8014 Y17.7504
G01 X101.3533 Y18.2394
G01 X102.0061 Y18.5820
G01 X102.7219 Y18.7584
G01 X103.4591 Y18.7584
G01 X104.1749 Y18.5820
G01 X104.8277 Y18.2394
G01 X105.3796 Y17.7504
G01 X105.7984 Y17.1437
G01 X106.0598 Y16.4544
G01 X106.1487 Y15.7225
G01 X106.0568 Y14.9653
G01 X106.0544 Y14.9441
G01 X106.0508 Y14.9030
G01 X106.0458 Y14.8530
G01 X106.0438 Y14.8228
G01 X106.0411 Y14.7647
G01 X106.0396 Y14.6658
G01 X106.0399 Y14.6381
G01 X106.0419 Y14.5749
G01 X106.0454 Y14.5266
G01 X106.0483 Y14.4781
G01 X106.0539 Y14.4205
G01 X106.0574 Y14.3903
G01 X106.0618 Y14.3602
G01 X106.0649 Y14.3405
G01 X106.0718 Y14.2914
G01 X106.0769 Y14.2621
G01 X106.0877 Y14.2060
G01 X106.1036 Y14.1361
G01 X106.1100 Y14.1082
G01 X106.1171 Y14.0805
G01 X106.1326 Y14.0241
G01 X106.1629 Y13.9270
G01 X106.1730 Y13.8980
G01 X106.1924 Y13.8447
G01 X106.2110 Y13.7992
G01 X106.2288 Y13.7543
G01 X106.2400 Y13.7285
G01 X106.2652 Y13.6732
G01 X106.3093 Y13.5844
G01 X106.3227 Y13.5592
G01 X106.3522 Y13.5062
G01 X106.4026 Y13.4224
G01 X106.4363 Y13.3703
G01 X106.4524 Y13.3465
G01 X106.4807 Y13.3073
G01 X106.5091 Y13.2672
G01 X106.5446 Y13.2208
G01 X106.5632 Y13.1975
G01 X106.5953 Y13.1597
G01 X106.6270 Y13.1216
G01 X106.6666 Y13.0777
G01 X106.6873 Y13.0556
G01 X106.7225 Y13.0204
G01 X106.7566 Y12.9856
G01 X106.7989 Y12.9455
G01 X106.8211 Y12.9252
G01 X106.8587 Y12.8931
G01 X106.8945 Y12.8618
G01 X106.9163 Y12.8440
G01 X106.9661 Y12.8049
G01 X107.0450 Y12.7470
G01 X107.0948 Y12.7130
G01 X107.1182 Y12.6976
G01 X107.1420 Y12.6829
G01 X107.2028 Y12.6453
G01 X107.2541 Y12.6160
G01 X107.2798 Y12.6019
G01 X107.3237 Y12.5797
G01 X107.3671 Y12.5571
G01 X107.3930 Y12.5447
G01 X107.4487 Y12.5193
G01 X107.5391 Y12.4816
G01 X107.5947 Y12.4606
G01 X107.6223 Y12.4507
G01 X107.7165 Y12.4201
G01 X107.7742 Y12.4034
G01 X107.8020 Y12.3959
G01 X107.8300 Y12.3892
G01 X107.8986 Y12.3727
G01 X107.9549 Y12.3612
G01 X107.9842 Y12.3557
G01 X108.0333 Y12.3482
G01 X108.0806 Y12.3404
G01 X108.1420 Y12.3328
G01 X108.1708 Y12.3298
G01 X108.1997 Y12.3275
G01 X108.2696 Y12.3222
G01 X108.2970 Y12.3209
G01 X108.3581 Y12.3189
G01 X108.4077 Y12.3193
G01 X108.4553 Y12.3191
G01 X108.4845 Y12.3200
G01 X108.5458 Y12.3230
G01 X108.5928 Y12.3270
G01 X108.6426 Y12.3308
G01 X108.7026 Y12.3377
G01 X108.7325 Y12.3418
G01 X108.7803 Y12.3498
G01 X108.8289 Y12.3574
G01 X108.8593 Y12.3633
G01 X108.9150 Y12.3750
G01 X109.0133 Y12.3991
G01 X109.0681 Y12.4145
G01 X109.0967 Y12.4231
G01 X109.1430 Y12.4387
G01 X109.1903 Y12.4540
G01 X109.2189 Y12.4644
G01 X109.2723 Y12.4848
G01 X109.3056 Y12.4983
G01 X110.0679 Y12.8141
G01 X111.0337 Y13.0062
G01 X111.0746 Y13.0151
G01 X111.1691 Y13.0373
G01 X111.2077 Y13.0477
G01 X111.2329 Y13.0549
G01 X111.3501 Y13.0923
G01 X111.3754 Y13.1013
G01 X111.4126 Y13.1152
G01 X111.5235 Y13.1605
G01 X111.5481 Y13.1714
G01 X111.5849 Y13.1886
G01 X111.6933 Y13.2434
G01 X111.7177 Y13.2567
G01 X111.7511 Y13.2757
G01 X111.8537 Y13.3382
G01 X111.8754 Y13.3523
G01 X111.9092 Y13.3752
G01 X112.0058 Y13.4451
G01 X112.0380 Y13.4700
G01 X112.0589 Y13.4868
G01 X112.1510 Y13.5654
G01 X112.1694 Y13.5820
G01 X112.1970 Y13.6078
G01 X112.2432 Y13.6526
G01 X115.9726 Y17.3820
G01 X116.0229 Y17.4340
G01 X116.0911 Y17.5097
G01 X116.1272 Y17.5526
G01 X116.1459 Y17.5756
G01 X116.2079 Y17.6566
G01 X116.2410 Y17.7029
G01 X116.2582 Y17.7280
G01 X116.2844 Y17.7690
G01 X116.3112 Y17.8098
G01 X116.3271 Y17.8358
G01 X116.3565 Y17.8863
G01 X116.4045 Y17.9752
G01 X116.4299 Y18.0262
G01 X116.4422 Y18.0523
G01 X116.4832 Y18.1450
G01 X116.5041 Y18.1969
G01 X116.5152 Y18.2260
G01 X116.5316 Y18.2739
G01 X116.5473 Y18.3180
G01 X116.5557 Y18.3441
G01 X116.5740 Y18.4054
G01 X116.5989 Y18.4997
G01 X116.6124 Y18.5595
G01 X116.6180 Y18.5867
G01 X116.6265 Y18.6350
G01 X116.6304 Y18.6557
G01 X116.6354 Y18.6834
G01 X116.6396 Y18.7112
G01 X116.6477 Y18.7722
G01 X116.6523 Y18.8218
G01 X116.6574 Y18.8708
G01 X116.6620 Y18.9458
G01 X116.6641 Y19.0280
G01 X116.6644 Y19.0523
G01 X116.6644 Y144.7777
G01 X116.6639 Y144.8231
G01 X116.6632 Y144.8512
G01 X116.6581 Y144.9497
G01 X116.6560 Y144.9767
G01 X116.6501 Y145.0367
G01 X116.6368 Y145.1382
G01 X116.6319 Y145.1682
G01 X116.6219 Y145.2233
G01 X116.6010 Y145.3213
G01 X116.5939 Y145.3503
G01 X116.5793 Y145.4060
G01 X116.5650 Y145.4530
G01 X116.5510 Y145.5009
G01 X116.5415 Y145.5298
G01 X116.5220 Y145.5853
G01 X116.4864 Y145.6772
G01 X116.4639 Y145.7302
G01 X116.4515 Y145.7577
G01 X116.4080 Y145.8480
G01 X116.3809 Y145.8998
G01 X116.3668 Y145.9255
G01 X116.3165 Y146.0116
G01 X116.2857 Y146.0606
G01 X116.2694 Y146.0854
G01 X116.2117 Y146.1683
G01 X116.1788 Y146.2124
G01 X116.1598 Y146.2369
G01 X116.0962 Y146.3144
G01 X116.0469 Y146.3703
G01 X115.9902 Y146.4300
G01 X115.9726 Y146.4480
G01 X109.3929 Y153.0276
G01 X109.3366 Y153.0820
G01 X109.3153 Y153.1017
G01 X109.2910 Y153.1229
G01 X109.2664 Y153.1452
G01 X109.2436 Y153.1646
G01 X109.2194 Y153.1841
G01 X109.1965 Y153.2032
G01 X109.1739 Y153.2210
G01 X109.1468 Y153.2412
G01 X109.1198 Y153.2619
G01 X109.0962 Y153.2790
G01 X109.0436 Y153.3156
G01 X109.0195 Y153.3315
G01 X108.9916 Y153.3490
G01 X108.9645 Y153.3666
G01 X108.9403 Y153.3814
G01 X108.8853 Y153.4135
G01 X108.8609 Y153.4271
G01 X108.8309 Y153.4427
G01 X108.8002 Y153.4593
G01 X108.7743 Y153.4724
G01 X108.7473 Y153.4851
G01 X108.7191 Y153.4990
G01 X108.6913 Y153.5117
G01 X108.6616 Y153.5243
G01 X108.6320 Y153.5374
G01 X108.6039 Y153.5489
G01 X108.5736 Y153.5604
G01 X108.5454 Y153.5715
G01 X108.5187 Y153.5812
G01 X108.4869 Y153.5918
G01 X108.4554 Y153.6029
G01 X108.4282 Y153.6116
G01 X108.3633 Y153.6310
G01 X108.3312 Y153.6397
G01 X108.2656 Y153.6562
G01 X107.9667 Y153.7246
G01 X107.2665 Y154.0617
G01 X106.6590 Y154.5462
G01 X106.1745 Y155.1538
G01 X105.8373 Y155.8538
G01 X105.7797 Y156.1063
G01 X105.7663 Y156.1618
G01 X105.7590 Y156.1898
G01 X105.7469 Y156.2310
G01 X105.7353 Y156.2726
G01 X105.7266 Y156.3004
G01 X105.7128 Y156.3422
G01 X105.7031 Y156.3703
G01 X105.6874 Y156.4110
G01 X105.6729 Y156.4506
G01 X105.6463 Y156.5150
G01 X105.6343 Y156.5425
G01 X105.6151 Y156.5829
G01 X105.5968 Y156.6226
G01 X105.5838 Y156.6485
G01 X105.5640 Y156.6866
G01 X105.5505 Y156.7117
G01 X105.5293 Y156.7484
G01 X105.5082 Y156.7862
G01 X105.4929 Y156.8115
G01 X105.4694 Y156.8492
G01 X105.4544 Y156.8725
G01 X105.4302 Y156.9076
G01 X105.4059 Y156.9438
G01 X105.3646 Y157.0007
G01 X105.3464 Y157.0245
G01 X105.3181 Y157.0593
G01 X105.2909 Y157.0936
G01 X105.2722 Y157.1157
G01 X105.2265 Y157.1676
G01 X105.1656 Y157.2323
G01 X105.1148 Y157.2827
G01 X105.0935 Y157.3029
G01 X105.0614 Y157.3316
G01 X105.0299 Y157.3605
G01 X104.9760 Y157.4061
G01 X104.9524 Y157.4253
G01 X104.9171 Y157.4521
G01 X104.8840 Y157.4779
G01 X104.8257 Y157.5198
G01 X104.8011 Y157.5368
G01 X104.7649 Y157.5599
G01 X104.7301 Y157.5829
G01 X104.7058 Y157.5980
G01 X104.6667 Y157.6213
G01 X104.6420 Y157.6355
G01 X104.6033 Y157.6562
G01 X104.5666 Y157.6764
G01 X104.5429 Y157.6885
G01 X104.5003 Y157.7096
G01 X104.4751 Y157.7215
G01 X104.4369 Y157.7382
G01 X104.3971 Y157.7563
G01 X104.3694 Y157.7677
G01 X104.3501 Y157.7752
G01 X104.3307 Y157.7832
G01 X104.3018 Y157.7942
G01 X104.2611 Y157.8081
G01 X104.2230 Y157.8219
G01 X104.1961 Y157.8307
G01 X104.1500 Y157.8449
G01 X104.1235 Y157.8526
G01 X104.0840 Y157.8628
G01 X104.0416 Y157.8744
G01 X104.0116 Y157.8815
G01 X103.9432 Y157.8964
G01 X103.9009 Y157.9038
G01 X103.8582 Y157.9119
G01 X103.8282 Y157.9166
G01 X103.8075 Y157.9193
G01 X103.7871 Y157.9224
G01 X103.7570 Y157.9262
G01 X103.7135 Y157.9303
G01 X103.6712 Y157.9348
G01 X103.6423 Y157.9370
G01 X103.5833 Y157.9405
G01 X103.5011 Y157.9426
G01 X103.4768 Y157.9429
G01 X102.7219 Y157.9429
G01 X102.0061 Y158.1193
G01 X101.3533 Y158.4619
G01 X100.8014 Y158.9509
G01 X100.3826 Y159.5576
G01 X100.1212 Y160.2469
G01 X100.0323 Y160.9789
G01 X100.0378 Y161.0264
G01 X100.0418 Y161.0728
G01 X100.0470 Y161.1268
G01 X100.0489 Y161.1562
G01 X100.0511 Y161.2053
G01 X100.0525 Y161.3137
G01 X100.0514 Y161.3662
G01 X100.0503 Y161.3948
G01 X100.0466 Y161.4469
G01 X100.0438 Y161.4940
G01 X100.0417 Y161.5176
G01 X100.0348 Y161.5796
G01 X100.0187 Y161.6886
G01 X100.0134 Y161.7180
G01 X100.0045 Y161.7637
G01 X99.9799 Y161.8712
G01 X99.9667 Y161.9207
G01 X99.9594 Y161.9465
G01 X99.9346 Y162.0256
G01 X99.9261 Y162.0522
G01 X99.9169 Y162.0786
G01 X99.9002 Y162.1244
G01 X99.8598 Y162.2242
G01 X99.8493 Y162.2482
G01 X99.8265 Y162.2982
G01 X99.7773 Y162.3963
G01 X99.7630 Y162.4228
G01 X99.7405 Y162.4631
G01 X99.6843 Y162.5562
G01 X99.6689 Y162.5801
G01 X99.6407 Y162.6223
G01 X99.5773 Y162.7107
G01 X99.5602 Y162.7331
G01 X99.5287 Y162.7730
G01 X99.4577 Y162.8569
G01 X99.4169 Y162.9018
G01 X99.4007 Y162.9188
G01 X99.3668 Y162.9526
G01 X99.3284 Y162.9915
G01 X99.3064 Y163.0124
G01 X99.2723 Y163.0438
G01 X99.1881 Y163.1163
G01 X99.1651 Y163.1349
G01 X99.1270 Y163.1646
G01 X99.0401 Y163.2281
G01 X99.0165 Y163.2444
G01 X98.9731 Y163.2731
G01 X98.8805 Y163.3300
G01 X98.8391 Y163.3536
G01 X98.8130 Y163.3679
G01 X98.7866 Y163.3815
G01 X98.7156 Y163.4176
G01 X98.6900 Y163.4297
G01 X98.6441 Y163.4506
G01 X98.5447 Y163.4918
G01 X98.4961 Y163.5100
G01 X98.4694 Y163.5195
G01 X98.3659 Y163.5530
G01 X98.3188 Y163.5665
G01 X98.2911 Y163.5740
G01 X98.2115 Y163.5930
G01 X98.1835 Y163.5996
G01 X98.1553 Y163.6054
G01 X98.1081 Y163.6144
G01 X97.9995 Y163.6313
G01 X97.9691 Y163.6351
G01 X97.9214 Y163.6402
G01 X97.8685 Y163.6440
G01 X97.8435 Y163.6462
G01 X97.8145 Y163.6483
G01 X97.7854 Y163.6497
G01 X97.7340 Y163.6511
G01 X97.6906 Y163.6516
G01 X73.6600 Y163.6516
G01 X73.6034 Y163.6508
G01 X73.5154 Y163.6467
G01 X73.4909 Y163.6455
G01 X73.4665 Y163.6436
G01 X73.4178 Y163.6391
G01 X73.3019 Y163.6243
G01 X73.2738 Y163.6198
G01 X73.2287 Y163.6118
G01 X73.1192 Y163.5888
G01 X73.0919 Y163.5823
G01 X73.0474 Y163.5707
G01 X72.9393 Y163.5390
G01 X72.9135 Y163.5306
G01 X72.8678 Y163.5148
G01 X72.7644 Y163.4752
G01 X72.7219 Y163.4574
G01 X72.6957 Y163.4458
G01 X72.5923 Y163.3964
G01 X72.5689 Y163.3845
G01 X72.5273 Y163.3622
G01 X72.4293 Y163.3056
G01 X72.3892 Y163.2807
G01 X72.3666 Y163.2660
G01 X72.2733 Y163.2017
G01 X72.2360 Y163.1742
G01 X72.2132 Y163.1566
G01 X72.1263 Y163.0858
G01 X72.0903 Y163.0546
G01 X72.0704 Y163.0366
G01 X71.9888 Y162.9587
G01 X71.9573 Y162.9266
G01 X71.9375 Y162.9058
G01 X71.8618 Y162.8210
G01 X71.8321 Y162.7857
G01 X71.8142 Y162.7635
G01 X71.7459 Y162.6735
G01 X71.7187 Y162.6352
G01 X71.7033 Y162.6127
G01 X71.6550 Y162.5375
G01 X71.6420 Y162.5170
G01 X71.6187 Y162.4780
G01 X71.6047 Y162.4536
G01 X71.5637 Y162.3771
G01 X71.5504 Y162.3521
G01 X71.5378 Y162.3268
G01 X71.5183 Y162.2856
G01 X71.4731 Y162.1822
G01 X71.4634 Y162.1583
G01 X71.4460 Y162.1126
G01 X71.4090 Y162.0053
G01 X71.4007 Y161.9787
G01 X71.3878 Y161.9347
G01 X71.3595 Y161.8250
G01 X71.3538 Y161.8004
G01 X71.3441 Y161.7540
G01 X71.3244 Y161.6419
G01 X71.3181 Y161.5977
G01 X71.3146 Y161.5696
G01 X71.3038 Y161.4548
G01 X71.3009 Y161.4095
G01 X71.2995 Y161.3721
G01 X71.2979 Y161.2895
G01 X71.2979 Y73.3684
G01 X59.9816 Y62.0521
G01 X3.7790 Y62.0519
G01 X3.7539 Y62.0513
G01 X3.7289 Y62.0502
G01 X3.6414 Y62.0460
G01 X3.6170 Y62.0441
G01 X3.5683 Y62.0396
G01 X3.4524 Y62.0248
G01 X3.4243 Y62.0203
G01 X3.3792 Y62.0123
G01 X3.3263 Y62.0010
G01 X3.2972 Y61.9952
G01 X3.2697 Y61.9893
G01 X3.2424 Y61.9828
G01 X3.1979 Y61.9712
G01 X3.0898 Y61.9395
G01 X3.0439 Y61.9243
G01 X3.0183 Y61.9153
G01 X2.9930 Y61.9057
G01 X2.9657 Y61.8949
G01 X2.9149 Y61.8757
G01 X2.8919 Y61.8662
G01 X2.8462 Y61.8463
G01 X2.7428 Y61.7969
G01 X2.7194 Y61.7850
G01 X2.6778 Y61.7627
G01 X2.6023 Y61.7192
G01 X2.5798 Y61.7061
G01 X2.5576 Y61.6925
G01 X2.5171 Y61.6665
G01 X2.4238 Y61.6022
G01 X2.3865 Y61.5747
G01 X2.3637 Y61.5571
G01 X2.2768 Y61.4863
G01 X2.2408 Y61.4551
G01 X2.2209 Y61.4371
G01 X2.1393 Y61.3592
G01 X2.1078 Y61.3271
G01 X2.0887 Y61.3071
G01 X2.0702 Y61.2866
G01 X2.0116 Y61.2208
G01 X1.9826 Y61.1862
G01 X1.9654 Y61.1648
G01 X1.8958 Y61.0731
G01 X1.8692 Y61.0357
G01 X1.8538 Y61.0132
G01 X1.8390 Y60.9903
G01 X1.7925 Y60.9175
G01 X1.7800 Y60.8968
G01 X1.7552 Y60.8541
G01 X1.7009 Y60.7526
G01 X1.6883 Y60.7273
G01 X1.6688 Y60.6861
G01 X1.6236 Y60.5827
G01 X1.6062 Y60.5391
G01 X1.5969 Y60.5143
G01 X1.5882 Y60.4893
G01 X1.5591 Y60.4046
G01 X1.5512 Y60.3792
G01 X1.5383 Y60.3352
G01 X1.5100 Y60.2255
G01 X1.4998 Y60.1802
G01 X1.4946 Y60.1545
G01 X1.4899 Y60.1286
G01 X1.4749 Y60.0424
G01 X1.4715 Y60.0192
G01 X1.4650 Y59.9700
G01 X1.4543 Y59.8554
G01 X1.4514 Y59.8100
G01 X1.4500 Y59.7726
G01 X1.4484 Y59.6900
G01 X1.4484 Y15.4105
G01 X1.4492 Y15.3539
G01 X1.4545 Y15.2414
G01 X1.4564 Y15.2170
G01 X1.4609 Y15.1683
G01 X1.4757 Y15.0524
G01 X1.4802 Y15.0243
G01 X1.4882 Y14.9792
G01 X1.5112 Y14.8697
G01 X1.5177 Y14.8424
G01 X1.5293 Y14.7979
G01 X1.5610 Y14.6898
G01 X1.5694 Y14.6640
G01 X1.5852 Y14.6183
G01 X1.6248 Y14.5149
G01 X1.6343 Y14.4919
G01 X1.6542 Y14.4462
G01 X1.7036 Y14.3428
G01 X1.7155 Y14.3194
G01 X1.7378 Y14.2778
G01 X1.7944 Y14.1798
G01 X1.8193 Y14.1397
G01 X1.8340 Y14.1171
G01 X1.8492 Y14.0949
G01 X1.8983 Y14.0238
G01 X1.9258 Y13.9865
G01 X1.9434 Y13.9637
G01 X2.0142 Y13.8768
G01 X2.0454 Y13.8408
G01 X2.0634 Y13.8209
G01 X2.1413 Y13.7393
G01 X2.1734 Y13.7078
G01 X2.1934 Y13.6887
G01 X2.2618 Y13.6275
G01 X2.2797 Y13.6116
G01 X2.3143 Y13.5826
G01 X2.3365 Y13.5647
G01 X2.4265 Y13.4964
G01 X2.4648 Y13.4692
G01 X2.4873 Y13.4538
G01 X2.5625 Y13.4055
G01 X2.5830 Y13.3925
G01 X2.6220 Y13.3692
G01 X2.6464 Y13.3552
G01 X2.7229 Y13.3142
G01 X2.7479 Y13.3009
G01 X2.7732 Y13.2883
G01 X2.8144 Y13.2688
G01 X2.9178 Y13.2236
G01 X2.9417 Y13.2139
G01 X2.9862 Y13.1969
G01 X3.0112 Y13.1882
G01 X3.0959 Y13.1591
G01 X3.1213 Y13.1512
G01 X3.1653 Y13.1383
G01 X3.2750 Y13.1100
G01 X3.3203 Y13.0998
G01 X3.3460 Y13.0946
G01 X3.3719 Y13.0899
G01 X3.4581 Y13.0749
G01 X3.5023 Y13.0686
G01 X3.5304 Y13.0651
G01 X3.6452 Y13.0543
G01 X3.6693 Y13.0526
G01 X3.7279 Y13.0500
G01 X3.8105 Y13.0484
G01 X9.6035 Y13.0484
G01 X9.6242 Y13.0486
G01 X9.6714 Y13.0502
G00 Z5.0000
G00 X12.2342 Y15.6496
G01 F100.00
G01 Z-0.4000
G01 F400.00
G01 X12.2265 Y15.7222
G01 X12.3072 Y16.3871
G01 X12.5446 Y17.0129
G01 X12.9249 Y17.5638
G01 X13.4260 Y18.0077
G01 X14.0187 Y18.3188
G01 X14.6686 Y18.4790
G01 X15.3380 Y18.4790
G01 X15.9879 Y18.3188
G01 X16.5806 Y18.0077
G01 X17.0817 Y17.5638
G01 X17.4620 Y17.0129
G01 X17.6994 Y16.3871
G01 X17.7801 Y15.7223
G01 X17.7778 Y15.7019
G01 X17.7681 Y15.5963
G01 X17.7645 Y15.5344
G01 X17.7631 Y15.4988
G01 X17.7617 Y15.3882
G01 X17.7629 Y15.3267
G01 X17.7643 Y15.2908
G01 X17.7666 Y15.2549
G01 X17.7721 Y15.1758
G01 X17.7754 Y15.1411
G01 X17.7821 Y15.0823
G01 X17.7988 Y14.9683
G01 X17.8050 Y14.9336
G01 X17.8168 Y14.8732
G01 X17.8417 Y14.7648
G01 X17.8509 Y14.7291
G01 X17.8675 Y14.6701
G01 X17.8905 Y14.5971
G01 X17.9012 Y14.5632
G01 X17.9218 Y14.5044
G01 X17.9337 Y14.4727
G01 X17.9767 Y14.3664
G01 X18.0019 Y14.3096
G01 X18.0162 Y14.2790
G01 X18.0661 Y14.1792
G01 X18.0829 Y14.1477
G01 X18.1133 Y14.0935
G01 X18.1714 Y13.9974
G01 X18.2044 Y13.9464
G01 X18.2250 Y13.9160
G01 X18.2911 Y13.8239
G01 X18.3135 Y13.7946
G01 X18.3500 Y13.7486
G01 X18.4239 Y13.6612
G01 X18.4638 Y13.6170
G01 X18.4883 Y13.5909
G01 X18.5685 Y13.5101
G01 X18.5944 Y13.4854
G01 X18.6383 Y13.4452
G01 X18.7253 Y13.3703
G01 X18.7524 Y13.3483
G01 X18.8006 Y13.3107
G01 X18.8910 Y13.2446
G01 X18.9211 Y13.2238
G01 X18.9715 Y13.1906
G01 X19.0682 Y13.1311
G01 X19.0979 Y13.1139
G01 X19.1526 Y13.0838
G01 X19.2527 Y13.0327
G01 X19.3069 Y13.0072
G01 X19.3389 Y12.9928
G01 X19.4458 Y12.9486
G01 X19.4784 Y12.9361
G01 X19.5356 Y12.9155
G01 X19.6442 Y12.8804
G01 X19.7023 Y12.8637
G01 X19.7349 Y12.8549
G01 X19.8473 Y12.8282
G01 X19.8798 Y12.8214
G01 X19.9404 Y12.8099
G01 X20.0546 Y12.7921
G01 X20.0917 Y12.7874
G01 X20.1501 Y12.7812
G01 X20.2623 Y12.7728
G01 X20.3257 Y12.7702
G01 X20.4031 Y12.7690
G01 X42.4317 Y12.7690
G01 X42.4596 Y12.7693
G01 X42.4874 Y12.7701
G01 X42.6086 Y12.7753
G01 X43.3318 Y12.7748
G01 X43.8138 Y12.6647
G01 X43.8484 Y12.6571
G01 X43.8766 Y12.6504
G01 X44.0533 Y12.6101
G01 X44.6967 Y12.3002
G01 X45.2550 Y11.8550
G01 X45.7002 Y11.2967
G01 X46.0101 Y10.6533
G01 X46.0504 Y10.4766
G01 X46.0701 Y10.3963
G01 X46.0798 Y10.3601
G01 X46.0995 Y10.2925
G01 X46.1105 Y10.2573
G01 X46.1323 Y10.1923
G01 X46.1442 Y10.1592
G01 X46.1690 Y10.0937
G01 X46.1824 Y10.0606
G01 X46.2088 Y9.9986
G01 X46.2231 Y9.9667
G01 X46.2537 Y9.9019
G01 X46.2703 Y9.8686
G01 X46.2855 Y9.8402
G01 X46.3000 Y9.8118
G01 X46.3180 Y9.7790
G01 X46.3536 Y9.7170
G01 X46.3729 Y9.6851
G01 X46.3897 Y9.6588
G01 X46.4059 Y9.6325
G01 X46.4264 Y9.6011
G01 X46.4686 Y9.5398
G01 X46.4893 Y9.5109
G01 X46.5078 Y9.4865
G01 X46.5270 Y9.4603
G01 X46.5499 Y9.4307
G01 X46.5967 Y9.3731
G01 X46.6188 Y9.3469
G01 X46.6380 Y9.3253
G01 X46.6542 Y9.3064
G01 X46.6738 Y9.2844
G01 X46.6939 Y9.2629
G01 X46.7294 Y9.2256
G01 X46.7578 Y9.1964
G01 X54.0116 Y1.9426
G01 X54.0464 Y1.9086
G01 X54.0719 Y1.8843
G01 X54.1531 Y1.8114
G01 X54.2007 Y1.7711
G01 X54.2295 Y1.7477
G01 X54.3173 Y1.6806
G01 X54.3688 Y1.6437
G01 X54.4003 Y1.6220
G01 X54.4882 Y1.5651
G01 X54.5208 Y1.5452
G01 X54.5772 Y1.5123
G01 X54.6734 Y1.4605
G01 X54.7302 Y1.4322
G01 X54.7629 Y1.4167
G01 X54.8632 Y1.3723
G01 X54.9207 Y1.3491
G01 X54.9573 Y1.3352
G01 X55.0562 Y1.3006
G01 X55.0890 Y1.2901
G01 X55.1265 Y1.2787
G01 X55.1581 Y1.2695
G01 X55.2595 Y1.2428
G01 X55.2953 Y1.2344
G01 X55.3608 Y1.2205
G01 X55.4649 Y1.2018
G01 X55.5317 Y1.1920
G01 X55.5684 Y1.1874
G01 X55.6746 Y1.1770
G01 X55.7104 Y1.1745
G01 X55.7607 Y1.1716
G01 X55.8489 Y1.1693
G01 X55.8795 Y1.1690
G01 X99.0605 Y1.1690
G01 X99.1100 Y1.1695
G01 X99.1449 Y1.1704
G01 X99.2529 Y1.1761
G01 X99.3154 Y1.1814
G01 X99.3518 Y1.1851
G01 X99.4619 Y1.1996
G01 X99.4995 Y1.2057
G01 X99.5608 Y1.2169
G01 X99.6665 Y1.2395
G01 X99.7030 Y1.2484
G01 X99.7651 Y1.2647
G01 X99.8673 Y1.2952
G01 X99.9036 Y1.3071
G01 X99.9656 Y1.3290
G01 X100.0645 Y1.3673
G01 X100.1236 Y1.3923
G01 X100.1582 Y1.4079
G01 X100.2556 Y1.4549
G01 X100.2868 Y1.4710
G01 X100.3458 Y1.5028
G01 X100.4066 Y1.5383
G01 X100.4387 Y1.5570
G01 X100.4934 Y1.5914
G01 X100.5246 Y1.6118
G01 X100.6142 Y1.6742
G01 X100.6630 Y1.7107
G01 X100.6938 Y1.7345
G01 X100.7774 Y1.8032
G01 X100.8049 Y1.8270
G01 X100.8415 Y1.8597
G01 X100.9058 Y1.9206
G01 X100.9284 Y1.9426
G01 X105.3770 Y6.3912
G01 X105.3962 Y6.4108
G01 X105.4605 Y6.4794
G01 X105.4832 Y6.5040
G01 X105.5157 Y6.5412
G01 X105.5355 Y6.5647
G01 X105.6132 Y6.6623
G01 X105.6392 Y6.6970
G01 X105.6602 Y6.7261
G01 X105.7341 Y6.8356
G01 X105.7582 Y6.8737
G01 X105.7758 Y6.9029
G01 X105.7927 Y6.9325
G01 X105.8423 Y7.0207
G01 X105.8586 Y7.0519
G01 X105.8778 Y7.0903
G01 X105.9321 Y7.2073
G01 X105.9452 Y7.2376
G01 X105.9627 Y7.2808
G01 X106.0081 Y7.4034
G01 X106.0234 Y7.4493
G01 X106.0325 Y7.4783
G01 X106.0409 Y7.5074
G01 X106.0671 Y7.6005
G01 X106.0779 Y7.6433
G01 X106.0858 Y7.6778
G01 X106.0998 Y7.7438
G01 X106.2866 Y8.6826
G01 X106.5998 Y9.4392
G01 X106.6120 Y9.4702
G01 X106.6554 Y9.5907
G01 X106.6658 Y9.6228
G01 X106.6807 Y9.6714
G01 X106.7131 Y9.7905
G01 X106.7250 Y9.8404
G01 X106.7321 Y9.8731
G01 X106.7556 Y9.9978
G01 X106.7612 Y10.0333
G01 X106.7679 Y10.0827
G01 X106.7808 Y10.2028
G01 X106.7847 Y10.2543
G01 X106.7867 Y10.2879
G01 X106.7894 Y10.3812
G01 X106.7901 Y10.4153
G01 X106.7901 Y10.4493
G01 X106.7889 Y10.5006
G01 X106.7874 Y10.5314
G01 X106.7827 Y10.6224
G01 X106.7799 Y10.6569
G01 X106.7746 Y10.7098
G01 X106.7586 Y10.8307
G01 X106.7531 Y10.8651
G01 X106.7438 Y10.9162
G01 X106.7183 Y11.0354
G01 X106.7059 Y11.0856
G01 X106.6970 Y11.1191
G01 X106.6872 Y11.1523
G01 X106.6618 Y11.2373
G01 X106.6447 Y11.2884
G01 X106.6333 Y11.3205
G01 X106.5893 Y11.4339
G01 X106.5694 Y11.4810
G01 X106.5554 Y11.5124
G01 X106.5011 Y11.6252
G01 X106.4755 Y11.6742
G01 X106.4603 Y11.7019
G01 X106.4148 Y11.7801
G01 X106.3979 Y11.8088
G01 X106.3803 Y11.8371
G01 X106.3518 Y11.8810
G01 X106.2818 Y11.9817
G01 X106.2628 Y12.0075
G01 X106.2298 Y12.0505
G01 X106.1519 Y12.1455
G01 X106.1166 Y12.1858
G01 X106.0942 Y12.2105
G01 X106.0096 Y12.2983
G01 X105.9735 Y12.3336
G01 X105.9479 Y12.3578
G01 X105.8796 Y12.4185
G01 X105.8540 Y12.4410
G01 X105.8279 Y12.4629
G01 X105.7863 Y12.4963
G01 X105.6884 Y12.5701
G01 X105.6598 Y12.5904
G01 X105.6164 Y12.6199
G01 X105.5140 Y12.6850
G01 X105.4681 Y12.7122
G01 X105.4396 Y12.7283
G01 X105.3289 Y12.7869
G01 X105.2990 Y12.8017
G01 X105.2521 Y12.8237
G01 X105.1381 Y12.8729
G01 X105.0879 Y12.8927
G01 X105.0579 Y12.9038
G01 X104.9407 Y12.9436
G01 X104.8895 Y12.9592
G01 X104.8589 Y12.9679
G01 X104.8281 Y12.9758
G01 X104.7406 Y12.9980
G01 X104.6907 Y13.0091
G01 X104.6561 Y13.0160
G01 X104.6212 Y13.0221
G01 X104.5351 Y13.0367
G01 X104.5049 Y13.0411
G01 X104.4503 Y13.0480
G01 X104.4158 Y13.0513
G01 X104.3262 Y13.0592
G01 X104.2764 Y13.0622
G01 X104.2411 Y13.0637
G01 X104.1140 Y13.0650
G01 X104.0615 Y13.0638
G01 X104.0288 Y13.0625
G01 X103.9067 Y13.0541
G01 X103.8535 Y13.0487
G01 X103.8218 Y13.0449
G01 X103.6986 Y13.0266
G01 X103.6469 Y13.0172
G01 X103.6029 Y13.0082
G01 X103.5165 Y12.9885
G01 X103.4251 Y12.9660
G01 X102.7558 Y12.9660
G01 X102.1059 Y13.1262
G01 X101.5132 Y13.4373
G01 X101.0121 Y13.8812
G01 X100.6318 Y14.4321
G01 X100.3944 Y15.0579
G01 X100.3138 Y15.7225
G01 X100.3944 Y16.3871
G01 X100.6318 Y17.0129
G01 X101.0121 Y17.5638
G01 X101.5132 Y18.0077
G01 X102.1059 Y18.3188
G01 X102.7558 Y18.4790
G01 X103.4252 Y18.4790
G01 X104.0751 Y18.3188
G01 X104.6678 Y18.0077
G01 X105.1689 Y17.5638
G01 X105.5492 Y17.0129
G01 X105.7866 Y16.3871
G01 X105.8672 Y15.7225
G01 X105.7794 Y14.9990
G01 X105.7764 Y14.9723
G01 X105.7727 Y14.9295
G01 X105.7673 Y14.8755
G01 X105.7648 Y14.8375
G01 X105.7618 Y14.7727
G01 X105.7607 Y14.7008
G01 X105.7602 Y14.6661
G01 X105.7615 Y14.5963
G01 X105.7629 Y14.5602
G01 X105.7697 Y14.4561
G01 X105.7760 Y14.3920
G01 X105.7804 Y14.3540
G01 X105.7960 Y14.2472
G01 X105.8072 Y14.1843
G01 X105.8144 Y14.1480
G01 X105.8384 Y14.0424
G01 X105.8473 Y14.0076
G01 X105.8647 Y13.9447
G01 X105.8976 Y13.8395
G01 X105.9102 Y13.8031
G01 X105.9319 Y13.7439
G01 X105.9710 Y13.6467
G01 X105.9850 Y13.6142
G01 X106.0133 Y13.5523
G01 X106.0609 Y13.4565
G01 X106.0777 Y13.4249
G01 X106.1108 Y13.3655
G01 X106.1650 Y13.2753
G01 X106.2028 Y13.2168
G01 X106.2230 Y13.1869
G01 X106.2841 Y13.1016
G01 X106.3236 Y13.0499
G01 X106.3469 Y13.0205
G01 X106.4158 Y12.9388
G01 X106.4600 Y12.8897
G01 X106.4859 Y12.8619
G01 X106.5606 Y12.7864
G01 X106.6077 Y12.7417
G01 X106.6356 Y12.7163
G01 X106.7145 Y12.6481
G01 X106.7418 Y12.6257
G01 X106.7980 Y12.5817
G01 X106.8829 Y12.5194
G01 X106.9386 Y12.4813
G01 X106.9680 Y12.4620
G01 X106.9979 Y12.4435
G01 X107.0594 Y12.4056
G01 X107.1165 Y12.3728
G01 X107.1488 Y12.3551
G01 X107.2429 Y12.3068
G01 X107.2754 Y12.2912
G01 X107.3065 Y12.2769
G01 X107.3379 Y12.2628
G01 X107.4353 Y12.2222
G01 X107.4694 Y12.2091
G01 X107.5320 Y12.1863
G01 X107.6336 Y12.1533
G01 X107.6981 Y12.1345
G01 X107.7330 Y12.1252
G01 X107.7681 Y12.1167
G01 X107.8373 Y12.1001
G01 X107.8999 Y12.0872
G01 X107.9367 Y12.0804
G01 X108.0404 Y12.0639
G01 X108.1093 Y12.0553
G01 X108.1455 Y12.0515
G01 X108.1818 Y12.0487
G01 X108.2521 Y12.0434
G01 X108.2865 Y12.0417
G01 X108.3158 Y12.0405
G01 X108.3550 Y12.0395
G01 X108.4595 Y12.0398
G01 X108.4962 Y12.0408
G01 X108.5650 Y12.0442
G01 X108.6690 Y12.0526
G01 X108.7362 Y12.0603
G01 X108.7737 Y12.0654
G01 X108.8775 Y12.0823
G01 X108.9157 Y12.0896
G01 X108.9775 Y12.1027
G01 X109.0839 Y12.1288
G01 X109.1449 Y12.1459
G01 X109.1807 Y12.1566
G01 X109.2816 Y12.1900
G01 X109.3176 Y12.2030
G01 X109.3769 Y12.2258
G01 X109.4126 Y12.2401
G01 X110.1494 Y12.5454
G01 X111.0882 Y12.7322
G01 X111.1139 Y12.7375
G01 X111.1396 Y12.7434
G01 X111.2371 Y12.7663
G01 X111.2817 Y12.7782
G01 X111.3132 Y12.7873
G01 X111.4398 Y12.8277
G01 X111.4716 Y12.8389
G01 X111.5145 Y12.8550
G01 X111.6336 Y12.9037
G01 X111.6645 Y12.9174
G01 X111.7071 Y12.9373
G01 X111.8238 Y12.9964
G01 X111.8544 Y13.0131
G01 X111.8928 Y13.0349
G01 X112.0031 Y13.1021
G01 X112.0304 Y13.1199
G01 X112.0695 Y13.1463
G01 X112.1731 Y13.2213
G01 X112.2104 Y13.2501
G01 X112.2366 Y13.2712
G01 X112.3357 Y13.3558
G01 X112.3589 Y13.3767
G01 X112.3906 Y13.4063
G01 X112.4408 Y13.4550
G01 X116.1702 Y17.1844
G01 X116.2033 Y17.2183
G01 X116.2280 Y17.2442
G01 X116.3014 Y17.3259
G01 X116.3417 Y17.3735
G01 X116.3651 Y17.4023
G01 X116.4322 Y17.4901
G01 X116.4691 Y17.5416
G01 X116.4908 Y17.5731
G01 X116.5477 Y17.6610
G01 X116.5825 Y17.7188
G01 X116.6005 Y17.7500
G01 X116.6176 Y17.7817
G01 X116.6523 Y17.8462
G01 X116.6678 Y17.8770
G01 X116.6961 Y17.9357
G01 X116.7405 Y18.0360
G01 X116.7637 Y18.0935
G01 X116.7776 Y18.1301
G01 X116.8122 Y18.2290
G01 X116.8227 Y18.2618
G01 X116.8341 Y18.2993
G01 X116.8433 Y18.3309
G01 X116.8700 Y18.4323
G01 X116.8853 Y18.4995
G01 X116.8923 Y18.5336
G01 X116.9110 Y18.6377
G01 X116.9208 Y18.7045
G01 X116.9254 Y18.7412
G01 X116.9290 Y18.7779
G01 X116.9358 Y18.8474
G01 X116.9383 Y18.8832
G01 X116.9412 Y18.9335
G01 X116.9422 Y18.9634
G01 X116.9438 Y19.0523
G01 X116.9438 Y144.7777
G01 X116.9433 Y144.8265
G01 X116.9424 Y144.8618
G01 X116.9369 Y144.9679
G01 X116.9342 Y145.0018
G01 X116.9276 Y145.0691
G01 X116.9132 Y145.1791
G01 X116.9071 Y145.2167
G01 X116.8959 Y145.2780
G01 X116.8733 Y145.3837
G01 X116.8644 Y145.4202
G01 X116.8481 Y145.4823
G01 X116.8176 Y145.5845
G01 X116.8057 Y145.6208
G01 X116.7838 Y145.6828
G01 X116.7455 Y145.7817
G01 X116.7205 Y145.8408
G01 X116.7049 Y145.8754
G01 X116.6579 Y145.9728
G01 X116.6277 Y146.0307
G01 X116.6100 Y146.0630
G01 X116.5558 Y146.1559
G01 X116.5214 Y146.2106
G01 X116.5010 Y146.2418
G01 X116.4386 Y146.3314
G01 X116.4021 Y146.3802
G01 X116.3783 Y146.4110
G01 X116.3096 Y146.4946
G01 X116.2858 Y146.5221
G01 X116.2531 Y146.5587
G01 X116.1922 Y146.6230
G01 X116.1702 Y146.6456
G01 X109.5905 Y153.2252
G01 X109.5289 Y153.2848
G01 X109.5021 Y153.3095
G01 X109.4505 Y153.3553
G01 X109.4218 Y153.3797
G01 X109.3965 Y153.4002
G01 X109.3725 Y153.4202
G01 X109.3441 Y153.4426
G01 X109.2867 Y153.4860
G01 X109.2571 Y153.5074
G01 X109.2013 Y153.5462
G01 X109.1711 Y153.5662
G01 X109.1131 Y153.6032
G01 X109.0827 Y153.6217
G01 X109.0245 Y153.6557
G01 X108.9939 Y153.6728
G01 X108.9294 Y153.7071
G01 X108.8968 Y153.7235
G01 X108.8685 Y153.7369
G01 X108.8389 Y153.7514
G01 X108.8040 Y153.7674
G01 X108.7728 Y153.7806
G01 X108.7416 Y153.7944
G01 X108.7063 Y153.8089
G01 X108.6446 Y153.8327
G01 X108.6110 Y153.8450
G01 X108.5440 Y153.8679
G01 X108.5099 Y153.8788
G01 X108.4404 Y153.8995
G01 X108.4001 Y153.9104
G01 X108.3502 Y153.9231
G01 X108.3103 Y153.9327
G01 X108.0595 Y153.9899
G01 X107.4161 Y154.2998
G01 X106.8578 Y154.7450
G01 X106.4126 Y155.3034
G01 X106.1027 Y155.9467
G01 X106.0521 Y156.1685
G01 X106.0376 Y156.2286
G01 X106.0284 Y156.2637
G01 X106.0031 Y156.3524
G01 X105.9922 Y156.3873
G01 X105.9849 Y156.4086
G01 X105.9780 Y156.4304
G01 X105.9657 Y156.4657
G01 X105.9334 Y156.5516
G01 X105.9201 Y156.5846
G01 X105.9120 Y156.6033
G01 X105.9039 Y156.6234
G01 X105.8887 Y156.6580
G01 X105.8484 Y156.7441
G01 X105.8321 Y156.7766
G01 X105.8118 Y156.8158
G01 X105.7948 Y156.8473
G01 X105.7495 Y156.9270
G01 X105.7304 Y156.9588
G01 X105.7060 Y156.9978
G01 X105.6872 Y157.0270
G01 X105.6353 Y157.1034
G01 X105.6144 Y157.1325
G01 X105.6020 Y157.1490
G01 X105.5892 Y157.1668
G01 X105.5664 Y157.1968
G01 X105.5066 Y157.2712
G01 X105.4832 Y157.2989
G01 X105.4696 Y157.3141
G01 X105.4565 Y157.3296
G01 X105.4323 Y157.3566
G01 X105.3666 Y157.4263
G01 X105.3421 Y157.4511
G01 X105.3099 Y157.4827
G01 X105.2832 Y157.5080
G01 X105.2151 Y157.5696
G01 X105.1875 Y157.5934
G01 X105.1715 Y157.6065
G01 X105.1550 Y157.6207
G01 X105.1254 Y157.6447
G01 X105.0520 Y157.7011
G01 X105.0235 Y157.7221
G01 X104.9869 Y157.7480
G01 X104.9560 Y157.7693
G01 X104.9173 Y157.7941
G01 X104.8802 Y157.8186
G01 X104.8496 Y157.8375
G01 X104.8091 Y157.8617
G01 X104.7780 Y157.8795
G01 X104.6973 Y157.9233
G01 X104.6676 Y157.9386
G01 X104.6229 Y157.9607
G01 X104.5912 Y157.9756
G01 X104.5078 Y158.0128
G01 X104.4731 Y158.0272
G01 X104.4534 Y158.0348
G01 X104.4336 Y158.0429
G01 X104.3973 Y158.0567
G01 X104.3538 Y158.0718
G01 X104.3134 Y158.0862
G01 X104.2796 Y158.0973
G01 X104.2312 Y158.1122
G01 X104.1979 Y158.1219
G01 X104.1560 Y158.1328
G01 X104.1104 Y158.1452
G01 X104.0728 Y158.1542
G01 X104.0524 Y158.1584
G01 X104.0330 Y158.1630
G01 X103.9965 Y158.1706
G01 X103.9053 Y158.1873
G01 X103.8677 Y158.1932
G01 X103.8467 Y158.1959
G01 X103.8258 Y158.1991
G01 X103.7881 Y158.2039
G01 X103.6962 Y158.2131
G01 X103.6598 Y158.2159
G01 X103.6256 Y158.2180
G01 X103.5956 Y158.2197
G01 X103.5657 Y158.2207
G01 X103.4768 Y158.2223
G01 X102.7558 Y158.2223
G01 X102.1059 Y158.3825
G01 X101.5132 Y158.6936
G01 X101.0121 Y159.1375
G01 X100.6318 Y159.6884
G01 X100.3944 Y160.3142
G01 X100.3137 Y160.9793
G01 X100.3158 Y160.9983
G01 X100.3255 Y161.1037
G01 X100.3277 Y161.1387
G01 X100.3305 Y161.1994
G01 X100.3319 Y161.3136
G01 X100.3307 Y161.3733
G01 X100.3293 Y161.4093
G01 X100.3243 Y161.4855
G01 X100.3218 Y161.5222
G01 X100.3183 Y161.5589
G01 X100.3113 Y161.6196
G01 X100.2948 Y161.7317
G01 X100.2836 Y161.7928
G01 X100.2772 Y161.8246
G01 X100.2514 Y161.9374
G01 X100.2356 Y161.9969
G01 X100.2268 Y162.0277
G01 X100.2018 Y162.1074
G01 X100.1917 Y162.1390
G01 X100.1809 Y162.1703
G01 X100.1602 Y162.2266
G01 X100.1175 Y162.3321
G01 X100.1047 Y162.3617
G01 X100.0785 Y162.4189
G01 X100.0267 Y162.5223
G01 X100.0107 Y162.5523
G01 X99.9803 Y162.6065
G01 X99.9222 Y162.7026
G01 X99.9040 Y162.7311
G01 X99.8695 Y162.7827
G01 X99.8028 Y162.8757
G01 X99.7826 Y162.9022
G01 X99.7441 Y162.9509
G01 X99.6708 Y163.0377
G01 X99.6481 Y163.0631
G01 X99.6054 Y163.1091
G01 X99.5252 Y163.1899
G01 X99.4993 Y163.2146
G01 X99.4554 Y163.2548
G01 X99.3684 Y163.3297
G01 X99.3413 Y163.3517
G01 X99.2931 Y163.3893
G01 X99.2017 Y163.4560
G01 X99.1725 Y163.4762
G01 X99.1221 Y163.5094
G01 X99.0254 Y163.5689
G01 X98.9722 Y163.5993
G01 X98.9418 Y163.6159
G01 X98.9109 Y163.6317
G01 X98.8400 Y163.6678
G01 X98.8093 Y163.6824
G01 X98.7537 Y163.7076
G01 X98.6486 Y163.7512
G01 X98.5900 Y163.7732
G01 X98.5581 Y163.7845
G01 X98.4495 Y163.8196
G01 X98.3927 Y163.8360
G01 X98.3591 Y163.8450
G01 X98.3252 Y163.8531
G01 X98.2463 Y163.8718
G01 X98.2138 Y163.8786
G01 X98.1532 Y163.8901
G01 X98.0393 Y163.9079
G01 X98.0024 Y163.9125
G01 X97.9437 Y163.9187
G01 X97.8677 Y163.9245
G01 X97.8313 Y163.9272
G01 X97.7948 Y163.9289
G01 X97.7371 Y163.9305
G01 X97.6906 Y163.9310
G01 X73.6600 Y163.9310
G01 X73.5944 Y163.9301
G01 X73.4734 Y163.9243
G01 X73.4216 Y163.9202
G01 X73.3870 Y163.9168
G01 X73.2617 Y163.9008
G01 X73.2264 Y163.8952
G01 X73.1751 Y163.8860
G01 X73.0575 Y163.8613
G01 X73.0232 Y163.8531
G01 X72.9725 Y163.8399
G01 X72.8563 Y163.8058
G01 X72.8038 Y163.7885
G01 X72.7718 Y163.7772
G01 X72.7400 Y163.7651
G01 X72.6609 Y163.7347
G01 X72.6124 Y163.7144
G01 X72.5796 Y163.7000
G01 X72.4681 Y163.6467
G01 X72.4387 Y163.6317
G01 X72.3913 Y163.6063
G01 X72.2858 Y163.5454
G01 X72.2400 Y163.5169
G01 X72.2117 Y163.4985
G01 X72.1113 Y163.4293
G01 X72.0688 Y163.3980
G01 X72.0401 Y163.3760
G01 X71.9468 Y163.2999
G01 X71.9057 Y163.2643
G01 X71.8806 Y163.2417
G01 X71.7929 Y163.1579
G01 X71.7571 Y163.1216
G01 X71.7323 Y163.0954
G01 X71.6508 Y163.0041
G01 X71.6170 Y162.9639
G01 X71.5945 Y162.9360
G01 X71.5210 Y162.8393
G01 X71.4899 Y162.7956
G01 X71.4706 Y162.7673
G01 X71.4210 Y162.6900
G01 X71.4046 Y162.6644
G01 X71.3781 Y162.6200
G01 X71.3605 Y162.5894
G01 X71.3186 Y162.5113
G01 X71.3019 Y162.4799
G01 X71.2861 Y162.4480
G01 X71.2639 Y162.4012
G01 X71.2515 Y162.3732
G01 X71.2153 Y162.2900
G01 X71.2032 Y162.2600
G01 X71.1832 Y162.2077
G01 X71.1435 Y162.0922
G01 X71.1330 Y162.0587
G01 X71.1184 Y162.0087
G01 X71.1106 Y161.9789
G01 X71.0879 Y161.8907
G01 X71.0808 Y161.8598
G01 X71.0697 Y161.8068
G01 X71.0485 Y161.6860
G01 X71.0442 Y161.6569
G01 X71.0369 Y161.6007
G01 X71.0252 Y161.4767
G01 X71.0220 Y161.4253
G01 X71.0201 Y161.3784
G01 X71.0185 Y161.2895
G01 X71.0185 Y73.4841
G01 X59.8659 Y62.3315
G01 X3.8105 Y62.3315
G01 X3.7449 Y62.3306
G01 X3.6239 Y62.3248
G01 X3.5721 Y62.3207
G01 X3.5375 Y62.3173
G01 X3.4476 Y62.3060
G01 X3.4122 Y62.3013
G01 X3.3769 Y62.2957
G01 X3.3256 Y62.2865
G01 X3.2080 Y62.2618
G01 X3.1737 Y62.2536
G01 X3.1230 Y62.2404
G01 X3.0395 Y62.2160
G01 X3.0068 Y62.2063
G01 X2.9744 Y62.1958
G01 X2.9223 Y62.1777
G01 X2.8114 Y62.1352
G01 X2.7629 Y62.1149
G01 X2.7301 Y62.1005
G01 X2.6186 Y62.0472
G01 X2.5892 Y62.0322
G01 X2.5418 Y62.0068
G01 X2.4363 Y61.9459
G01 X2.3905 Y61.9174
G01 X2.3622 Y61.8990
G01 X2.3343 Y61.8800
G01 X2.2618 Y61.8298
G01 X2.2193 Y61.7985
G01 X2.1906 Y61.7765
G01 X2.0973 Y61.7004
G01 X2.0562 Y61.6648
G01 X2.0311 Y61.6422
G01 X2.0066 Y61.6190
G01 X1.9434 Y61.5584
G01 X1.9224 Y61.5373
G01 X1.8837 Y61.4969
G01 X1.8004 Y61.4037
G01 X1.7675 Y61.3644
G01 X1.7458 Y61.3376
G01 X1.7249 Y61.3103
G01 X1.6707 Y61.2387
G01 X1.6404 Y61.1961
G01 X1.6211 Y61.1678
G01 X1.5551 Y61.0649
G01 X1.5286 Y61.0205
G01 X1.5110 Y60.9899
G01 X1.4691 Y60.9118
G01 X1.4524 Y60.8804
G01 X1.4366 Y60.8485
G01 X1.4144 Y60.8017
G01 X1.3658 Y60.6905
G01 X1.3460 Y60.6408
G01 X1.3343 Y60.6097
G01 X1.3233 Y60.5783
G01 X1.2935 Y60.4911
G01 X1.2835 Y60.4592
G01 X1.2689 Y60.4092
G01 X1.2384 Y60.2912
G01 X1.2268 Y60.2396
G01 X1.2202 Y60.2073
G01 X1.2143 Y60.1748
G01 X1.1990 Y60.0865
G01 X1.1947 Y60.0574
G01 X1.1874 Y60.0010
G01 X1.1757 Y59.8774
G01 X1.1725 Y59.8258
G01 X1.1706 Y59.7789
G01 X1.1690 Y59.6900
G01 X1.1690 Y15.4105
G01 X1.1699 Y15.3449
G01 X1.1757 Y15.2239
G01 X1.1798 Y15.1721
G01 X1.1832 Y15.1375
G01 X1.1992 Y15.0122
G01 X1.2048 Y14.9769
G01 X1.2140 Y14.9256
G01 X1.2387 Y14.8080
G01 X1.2469 Y14.7737
G01 X1.2601 Y14.7230
G01 X1.2942 Y14.6068
G01 X1.3115 Y14.5543
G01 X1.3228 Y14.5223
G01 X1.3349 Y14.4905
G01 X1.3653 Y14.4114
G01 X1.3856 Y14.3629
G01 X1.4000 Y14.3301
G01 X1.4533 Y14.2186
G01 X1.4683 Y14.1892
G01 X1.4937 Y14.1418
G01 X1.5546 Y14.0363
G01 X1.5831 Y13.9905
G01 X1.6015 Y13.9622
G01 X1.6527 Y13.8876
G01 X1.6707 Y13.8618
G01 X1.7020 Y13.8193
G01 X1.7240 Y13.7906
G01 X1.7468 Y13.7625
G01 X1.8001 Y13.6973
G01 X1.8217 Y13.6721
G01 X1.8583 Y13.6311
G01 X1.9421 Y13.5434
G01 X1.9784 Y13.5076
G01 X2.0036 Y13.4837
G01 X2.0968 Y13.4004
G01 X2.1361 Y13.3675
G01 X2.1640 Y13.3450
G01 X2.1924 Y13.3232
G01 X2.2607 Y13.2715
G01 X2.3044 Y13.2404
G01 X2.3327 Y13.2211
G01 X2.4356 Y13.1551
G01 X2.4800 Y13.1286
G01 X2.5106 Y13.1110
G01 X2.6201 Y13.0524
G01 X2.6711 Y13.0274
G01 X2.6988 Y13.0144
G01 X2.8100 Y12.9658
G01 X2.8597 Y12.9460
G01 X2.8908 Y12.9343
G01 X2.9777 Y12.9042
G01 X3.0094 Y12.8935
G01 X3.0413 Y12.8835
G01 X3.0913 Y12.8689
G01 X3.2093 Y12.8384
G01 X3.2609 Y12.8268
G01 X3.2932 Y12.8202
G01 X3.3257 Y12.8143
G01 X3.4140 Y12.7990
G01 X3.4641 Y12.7918
G01 X3.4993 Y12.7874
G01 X3.6233 Y12.7757
G01 X3.6535 Y12.7737
G01 X3.6747 Y12.7725
G01 X3.7216 Y12.7706
G01 X3.8105 Y12.7690
G01 X9.6035 Y12.7690
G01 X9.6295 Y12.7692
G01 X9.7389 Y12.7725
G01 X9.8012 Y12.7764
G01 X9.8342 Y12.7792
G01 X9.9442 Y12.7911
G01 X10.0033 Y12.7994
G01 X10.0394 Y12.8052
G01 X10.1527 Y12.8267
G01 X10.1867 Y12.8342
G01 X10.2453 Y12.8482
G01 X10.3556 Y12.8784
G01 X10.4123 Y12.8958
G01 X10.4469 Y12.9072
G01 X10.5549 Y12.9463
G01 X10.5894 Y12.9599
G01 X10.6440 Y12.9826
G01 X10.7150 Y13.0147
G01 X10.7473 Y13.0295
G01 X10.8032 Y13.0572
G01 X10.8329 Y13.0726
G01 X10.9316 Y13.1271
G01 X10.9636 Y13.1460
G01 X11.0153 Y13.1780
G01 X11.1083 Y13.2396
G01 X11.1584 Y13.2751
G01 X11.1860 Y13.2956
G01 X11.2771 Y13.3668
G01 X11.3055 Y13.3904
G01 X11.3499 Y13.4288
G01 X11.4330 Y13.5052
G01 X11.4572 Y13.5287
G01 X11.4996 Y13.5715
G01 X11.5566 Y13.6326
G01 X11.5798 Y13.6579
G01 X11.6199 Y13.7042
G01 X11.6400 Y13.7283
G01 X11.7111 Y13.8182
G01 X11.7466 Y13.8662
G01 X11.7678 Y13.8960
G01 X11.8302 Y13.9895
G01 X11.8629 Y14.0419
G01 X11.8812 Y14.0728
G01 X11.9358 Y14.1704
G01 X11.9522 Y14.2017
G01 X11.9793 Y14.2558
G01 X12.0275 Y14.3611
G01 X12.0399 Y14.3901
G01 X12.0633 Y14.4479
G01 X12.0909 Y14.5229
G01 X12.1031 Y14.5564
G01 X12.1226 Y14.6158
G01 X12.1322 Y14.6468
G01 X12.1627 Y14.7563
G01 X12.1772 Y14.8157
G01 X12.1851 Y14.8509
G01 X12.2064 Y14.9604
G01 X12.2163 Y15.0218
G01 X12.2213 Y15.0574
G01 X12.2338 Y15.1679
G01 X12.2388 Y15.2293
G01 X12.2410 Y15.2652
G01 X12.2448 Y15.3784
G01 X12.2451 Y15.4150
G01 X12.2442 Y15.4759
G01 X12.2407 Y15.5537
G01 X12.2390 Y15.5882
G01 X12.2342 Y15.6496
G00 Z5.0000
G00 X42.5518 Y13.8914
G01 F100.00
G01 Z-0.4000
G01 F400.00
G01 X42.5658 Y13.8929
G01 X43.4434 Y13.8929
G01 X43.4630 Y13.8912
G01 X44.0626 Y13.7543
G01 X44.0989 Y13.7466
G01 X44.1252 Y13.7400
G01 X44.4247 Y13.6716
G01 X45.2950 Y13.2525
G01 X46.0503 Y12.6503
G01 X46.6525 Y11.8950
G01 X47.0716 Y11.0247
G01 X47.1400 Y10.7252
G01 X47.1476 Y10.6965
G01 X47.1551 Y10.6647
G01 X47.1633 Y10.6383
G01 X47.1725 Y10.6053
G01 X47.1814 Y10.5802
G01 X47.1916 Y10.5491
G01 X47.2017 Y10.5236
G01 X47.2135 Y10.4916
G01 X47.2243 Y10.4674
G01 X47.2368 Y10.4372
G01 X47.2489 Y10.4127
G01 X47.2635 Y10.3811
G01 X47.2760 Y10.3583
G01 X47.2909 Y10.3290
G01 X47.3051 Y10.3053
G01 X47.3220 Y10.2752
G01 X47.3362 Y10.2535
G01 X47.3533 Y10.2257
G01 X47.3695 Y10.2027
G01 X47.3887 Y10.1743
G01 X47.4044 Y10.1540
G01 X47.4239 Y10.1273
G01 X47.4419 Y10.1057
G01 X47.4590 Y10.0840
G01 X47.4802 Y10.0603
G01 X47.5000 Y10.0370
G01 X47.5481 Y9.9867
G01 X54.8019 Y2.7329
G01 X54.8159 Y2.7197
G01 X54.8269 Y2.7085
G01 X54.8885 Y2.6529
G01 X54.9051 Y2.6394
G01 X54.9172 Y2.6289
G01 X54.9886 Y2.5742
G01 X55.0012 Y2.5657
G01 X55.0200 Y2.5521
G01 X55.0519 Y2.5320
G01 X55.0775 Y2.5149
G01 X55.0895 Y2.5073
G01 X55.1033 Y2.4996
G01 X55.1222 Y2.4880
G01 X55.1561 Y2.4702
G01 X55.1895 Y2.4518
G01 X55.2092 Y2.4424
G01 X55.2293 Y2.4323
G01 X55.2644 Y2.4172
G01 X55.2928 Y2.4042
G01 X55.3058 Y2.3987
G01 X55.3200 Y2.3935
G01 X55.3408 Y2.3849
G01 X55.3771 Y2.3727
G01 X55.4122 Y2.3600
G01 X55.4559 Y2.3467
G01 X55.4923 Y2.3375
G01 X55.5290 Y2.3274
G01 X55.5731 Y2.3177
G01 X55.6105 Y2.3114
G01 X55.6477 Y2.3043
G01 X55.6925 Y2.2981
G01 X55.7304 Y2.2948
G01 X55.7748 Y2.2902
G01 X55.7902 Y2.2897
G01 X55.8100 Y2.2881
G01 X55.8795 Y2.2866
G01 X99.0605 Y2.2866
G01 X99.0796 Y2.2871
G01 X99.1020 Y2.2872
G01 X99.1400 Y2.2895
G01 X99.1782 Y2.2912
G01 X99.2002 Y2.2935
G01 X99.2223 Y2.2952
G01 X99.2601 Y2.3006
G01 X99.2984 Y2.3052
G01 X99.3209 Y2.3094
G01 X99.3423 Y2.3129
G01 X99.3792 Y2.3212
G01 X99.4101 Y2.3274
G01 X99.4236 Y2.3305
G01 X99.4385 Y2.3347
G01 X99.4602 Y2.3399
G01 X99.4964 Y2.3512
G01 X99.5262 Y2.3596
G01 X99.5397 Y2.3638
G01 X99.5549 Y2.3694
G01 X99.5757 Y2.3764
G01 X99.6107 Y2.3903
G01 X99.6403 Y2.4014
G01 X99.6812 Y2.4186
G01 X99.6939 Y2.4246
G01 X99.7220 Y2.4386
G01 X99.7562 Y2.4547
G01 X99.7756 Y2.4652
G01 X99.7898 Y2.4724
G01 X99.8017 Y2.4791
G01 X99.8285 Y2.4952
G01 X99.8616 Y2.5141
G01 X99.8802 Y2.5263
G01 X99.8935 Y2.5344
G01 X99.9050 Y2.5421
G01 X99.9304 Y2.5603
G01 X99.9620 Y2.5818
G01 X99.9794 Y2.5954
G01 X99.9975 Y2.6086
G01 X100.0268 Y2.6332
G01 X100.0564 Y2.6570
G01 X100.0727 Y2.6719
G01 X100.0876 Y2.6847
G01 X100.1381 Y2.7329
G01 X104.5867 Y7.1815
G01 X104.6540 Y7.2533
G01 X104.6713 Y7.2734
G01 X104.7299 Y7.3470
G01 X104.7494 Y7.3739
G01 X104.7720 Y7.4079
G01 X104.7950 Y7.4416
G01 X104.8084 Y7.4627
G01 X104.8157 Y7.4750
G01 X104.8354 Y7.5106
G01 X104.8556 Y7.5459
G01 X104.8709 Y7.5754
G01 X104.9109 Y7.6613
G01 X104.9231 Y7.6912
G01 X104.9371 Y7.7296
G01 X104.9515 Y7.7678
G01 X104.9561 Y7.7811
G01 X104.9636 Y7.8051
G01 X104.9873 Y7.8889
G01 X104.9940 Y7.9165
G01 X105.0037 Y7.9618
G01 X105.2119 Y9.0086
G01 X105.5566 Y9.8406
G01 X105.5670 Y9.8663
G01 X105.5970 Y9.9498
G01 X105.6066 Y9.9801
G01 X105.6287 Y10.0611
G01 X105.6359 Y10.0912
G01 X105.6386 Y10.1043
G01 X105.6453 Y10.1416
G01 X105.6537 Y10.1845
G01 X105.6584 Y10.2165
G01 X105.6680 Y10.3057
G01 X105.6697 Y10.3305
G01 X105.6724 Y10.4202
G01 X105.6725 Y10.4345
G01 X105.6722 Y10.4580
G01 X105.6696 Y10.5026
G01 X105.6676 Y10.5476
G01 X105.6647 Y10.5788
G01 X105.6585 Y10.6229
G01 X105.6539 Y10.6606
G01 X105.6518 Y10.6749
G01 X105.6463 Y10.7049
G01 X105.6380 Y10.7422
G01 X105.6289 Y10.7861
G01 X105.6212 Y10.8163
G01 X105.6080 Y10.8594
G01 X105.5956 Y10.9023
G01 X105.5877 Y10.9256
G01 X105.5531 Y11.0151
G01 X105.5431 Y11.0386
G01 X105.4999 Y11.1285
G01 X105.4871 Y11.1525
G01 X105.4642 Y11.1912
G01 X105.4418 Y11.2301
G01 X105.4249 Y11.2566
G01 X105.3991 Y11.2931
G01 X105.3776 Y11.3247
G01 X105.3587 Y11.3501
G01 X105.3506 Y11.3604
G01 X105.3262 Y11.3896
G01 X105.2990 Y11.4233
G01 X105.2764 Y11.4487
G01 X105.2458 Y11.4801
G01 X105.2156 Y11.5118
G01 X105.1969 Y11.5300
G01 X105.1266 Y11.5926
G01 X105.1043 Y11.6109
G01 X105.0265 Y11.6696
G01 X105.0039 Y11.6851
G01 X104.9230 Y11.7363
G01 X104.9010 Y11.7490
G01 X104.8615 Y11.7697
G01 X104.8278 Y11.7878
G01 X104.7937 Y11.8044
G01 X104.7525 Y11.8220
G01 X104.7176 Y11.8374
G01 X104.7043 Y11.8428
G01 X104.6825 Y11.8511
G01 X104.6395 Y11.8655
G01 X104.6036 Y11.8780
G01 X104.5673 Y11.8890
G01 X104.5239 Y11.8998
G01 X104.4810 Y11.9109
G01 X104.4558 Y11.9164
G01 X104.3614 Y11.9327
G01 X104.3293 Y11.9369
G01 X104.2857 Y11.9406
G01 X104.2410 Y11.9449
G01 X104.2176 Y11.9462
G01 X104.2031 Y11.9466
G01 X104.1648 Y11.9467
G01 X104.1202 Y11.9474
G01 X104.0822 Y11.9460
G01 X104.0443 Y11.9431
G01 X103.9998 Y11.9404
G01 X103.9750 Y11.9377
G01 X103.8809 Y11.9240
G01 X103.8464 Y11.9174
G01 X103.7840 Y11.9034
G01 X103.5609 Y11.8484
G01 X102.6201 Y11.8484
G01 X101.7066 Y12.0735
G01 X100.8737 Y12.5108
G01 X100.1694 Y13.1347
G01 X99.6350 Y13.9089
G01 X99.3013 Y14.7885
G01 X99.1880 Y15.7225
G01 X99.3013 Y16.6565
G01 X99.6350 Y17.5361
G01 X100.1694 Y18.3103
G01 X100.8737 Y18.9342
G01 X101.7066 Y19.3715
G01 X102.6201 Y19.5966
G01 X103.5609 Y19.5966
G01 X104.4744 Y19.3715
G01 X105.3073 Y18.9342
G01 X106.0116 Y18.3103
G01 X106.5460 Y17.5361
G01 X106.8797 Y16.6565
G01 X106.9930 Y15.7225
G01 X106.8889 Y14.8643
G01 X106.8853 Y14.8236
G01 X106.8813 Y14.7858
G01 X106.8804 Y14.7627
G01 X106.8789 Y14.7405
G01 X106.8787 Y14.7026
G01 X106.8778 Y14.6650
G01 X106.8790 Y14.6190
G01 X106.8818 Y14.5816
G01 X106.8839 Y14.5440
G01 X106.8864 Y14.5220
G01 X106.8885 Y14.4990
G01 X106.8944 Y14.4615
G01 X106.8985 Y14.4308
G01 X106.9007 Y14.4171
G01 X106.9039 Y14.4019
G01 X106.9077 Y14.3797
G01 X106.9165 Y14.3427
G01 X106.9246 Y14.3057
G01 X106.9307 Y14.2839
G01 X106.9363 Y14.2623
G01 X106.9479 Y14.2263
G01 X106.9568 Y14.1963
G01 X106.9613 Y14.1827
G01 X106.9670 Y14.1680
G01 X106.9742 Y14.1471
G01 X106.9887 Y14.1122
G01 X107.0023 Y14.0772
G01 X107.0209 Y14.0358
G01 X107.0380 Y14.0022
G01 X107.0577 Y13.9622
G01 X107.0657 Y13.9483
G01 X107.0764 Y13.9281
G01 X107.0962 Y13.8960
G01 X107.1187 Y13.8582
G01 X107.1279 Y13.8447
G01 X107.1404 Y13.8252
G01 X107.1626 Y13.7949
G01 X107.1842 Y13.7640
G01 X107.1982 Y13.7464
G01 X107.2076 Y13.7337
G01 X107.2164 Y13.7229
G01 X107.2366 Y13.6996
G01 X107.2607 Y13.6703
G01 X107.2761 Y13.6538
G01 X107.2913 Y13.6367
G01 X107.3183 Y13.6101
G01 X107.3445 Y13.5831
G01 X107.3610 Y13.5679
G01 X107.3776 Y13.5520
G01 X107.4064 Y13.5277
G01 X107.4345 Y13.5029
G01 X107.4530 Y13.4885
G01 X107.4657 Y13.4780
G01 X107.5009 Y13.4524
G01 X107.5313 Y13.4297
G01 X107.5501 Y13.4173
G01 X107.5633 Y13.4080
G01 X107.6388 Y13.3614
G01 X107.6528 Y13.3539
G01 X107.6726 Y13.3423
G01 X107.7063 Y13.3255
G01 X107.7458 Y13.3050
G01 X107.7609 Y13.2984
G01 X107.7812 Y13.2887
G01 X107.8159 Y13.2747
G01 X107.8508 Y13.2597
G01 X107.8721 Y13.2521
G01 X107.8869 Y13.2462
G01 X107.8998 Y13.2418
G01 X107.9296 Y13.2325
G01 X107.9652 Y13.2205
G01 X108.0089 Y13.2082
G01 X108.0458 Y13.1997
G01 X108.0826 Y13.1905
G01 X108.1045 Y13.1864
G01 X108.1267 Y13.1817
G01 X108.1641 Y13.1762
G01 X108.2011 Y13.1699
G01 X108.2237 Y13.1675
G01 X108.2399 Y13.1652
G01 X108.2533 Y13.1640
G01 X108.2846 Y13.1620
G01 X108.3221 Y13.1588
G01 X108.3439 Y13.1582
G01 X108.3601 Y13.1572
G01 X108.3746 Y13.1570
G01 X108.4053 Y13.1576
G01 X108.4426 Y13.1572
G01 X108.4884 Y13.1592
G01 X108.5255 Y13.1626
G01 X108.5633 Y13.1652
G01 X108.5860 Y13.1683
G01 X108.6088 Y13.1708
G01 X108.6458 Y13.1773
G01 X108.6832 Y13.1829
G01 X108.7059 Y13.1878
G01 X108.7274 Y13.1919
G01 X108.7642 Y13.2013
G01 X108.8013 Y13.2101
G01 X108.8226 Y13.2165
G01 X108.8445 Y13.2225
G01 X108.8802 Y13.2347
G01 X108.9149 Y13.2457
G01 X108.9522 Y13.2596
G01 X108.9848 Y13.2726
G01 X109.8234 Y13.6201
G01 X110.8702 Y13.8283
G01 X110.9597 Y13.8490
G01 X110.9923 Y13.8578
G01 X111.0817 Y13.8864
G01 X111.1121 Y13.8978
G01 X111.1977 Y13.9329
G01 X111.2172 Y13.9418
G01 X111.2597 Y13.9636
G01 X111.2961 Y13.9817
G01 X111.3252 Y13.9977
G01 X111.4064 Y14.0471
G01 X111.4274 Y14.0611
G01 X111.5049 Y14.1172
G01 X111.5262 Y14.1339
G01 X111.5979 Y14.1952
G01 X111.6159 Y14.2119
G01 X111.6505 Y14.2453
G01 X115.3799 Y17.9747
G01 X115.3949 Y17.9905
G01 X115.4040 Y17.9994
G01 X115.4599 Y18.0613
G01 X115.4734 Y18.0779
G01 X115.4883 Y18.0953
G01 X115.5115 Y18.1262
G01 X115.5348 Y18.1562
G01 X115.5471 Y18.1740
G01 X115.5567 Y18.1869
G01 X115.5645 Y18.1987
G01 X115.5808 Y18.2247
G01 X115.6018 Y18.2562
G01 X115.6132 Y18.2761
G01 X115.6248 Y18.2950
G01 X115.6426 Y18.3289
G01 X115.6610 Y18.3623
G01 X115.6704 Y18.3820
G01 X115.6776 Y18.3960
G01 X115.6956 Y18.4372
G01 X115.7115 Y18.4721
G01 X115.7193 Y18.4928
G01 X115.7279 Y18.5136
G01 X115.7401 Y18.5499
G01 X115.7528 Y18.5850
G01 X115.7661 Y18.6287
G01 X115.7753 Y18.6651
G01 X115.7854 Y18.7018
G01 X115.7951 Y18.7459
G01 X115.8014 Y18.7833
G01 X115.8085 Y18.8205
G01 X115.8147 Y18.8653
G01 X115.8180 Y18.9032
G01 X115.8226 Y18.9476
G01 X115.8231 Y18.9630
G01 X115.8247 Y18.9828
G01 X115.8262 Y19.0523
G01 X115.8262 Y144.7777
G01 X115.8256 Y144.8194
G01 X115.8233 Y144.8572
G01 X115.8217 Y144.8950
G01 X115.8176 Y144.9396
G01 X115.8122 Y144.9773
G01 X115.8076 Y145.0156
G01 X115.8034 Y145.0381
G01 X115.7999 Y145.0595
G01 X115.7916 Y145.0964
G01 X115.7840 Y145.1340
G01 X115.7781 Y145.1557
G01 X115.7729 Y145.1774
G01 X115.7616 Y145.2136
G01 X115.7512 Y145.2502
G01 X115.7364 Y145.2929
G01 X115.7225 Y145.3279
G01 X115.7091 Y145.3636
G01 X115.7001 Y145.3837
G01 X115.6913 Y145.4048
G01 X115.6742 Y145.4392
G01 X115.6581 Y145.4734
G01 X115.6476 Y145.4928
G01 X115.6371 Y145.5130
G01 X115.6176 Y145.5457
G01 X115.5987 Y145.5788
G01 X115.5865 Y145.5974
G01 X115.5746 Y145.6165
G01 X115.5525 Y145.6476
G01 X115.5310 Y145.6792
G01 X115.5174 Y145.6966
G01 X115.5042 Y145.7147
G01 X115.4796 Y145.7440
G01 X115.4558 Y145.7736
G01 X115.4243 Y145.8089
G01 X115.3799 Y145.8553
G01 X108.8002 Y152.4349
G01 X108.7788 Y152.4550
G01 X108.7599 Y152.4738
G01 X108.7342 Y152.4961
G01 X108.7140 Y152.5147
G01 X108.6882 Y152.5355
G01 X108.6685 Y152.5522
G01 X108.6409 Y152.5727
G01 X108.6191 Y152.5897
G01 X108.5916 Y152.6084
G01 X108.5703 Y152.6237
G01 X108.5414 Y152.6418
G01 X108.5185 Y152.6569
G01 X108.4899 Y152.6732
G01 X108.4618 Y152.6900
G01 X108.4372 Y152.7026
G01 X108.4068 Y152.7191
G01 X108.3833 Y152.7299
G01 X108.3534 Y152.7446
G01 X108.3282 Y152.7550
G01 X108.2968 Y152.7690
G01 X108.2719 Y152.7781
G01 X108.2417 Y152.7901
G01 X108.2155 Y152.7987
G01 X108.1832 Y152.8100
G01 X108.1579 Y152.8171
G01 X108.1289 Y152.8262
G01 X108.0617 Y152.8431
G01 X107.6881 Y152.9284
G01 X106.8178 Y153.3475
G01 X106.0625 Y153.9497
G01 X105.4603 Y154.7050
G01 X105.0412 Y155.5752
G01 X104.9625 Y155.9199
G01 X104.9566 Y155.9426
G01 X104.9507 Y155.9681
G01 X104.9409 Y156.0005
G01 X104.9320 Y156.0332
G01 X104.9234 Y156.0585
G01 X104.9152 Y156.0841
G01 X104.9029 Y156.1158
G01 X104.8914 Y156.1475
G01 X104.8811 Y156.1713
G01 X104.8710 Y156.1962
G01 X104.8561 Y156.2270
G01 X104.8420 Y156.2580
G01 X104.8295 Y156.2814
G01 X104.8176 Y156.3050
G01 X104.8005 Y156.3341
G01 X104.7806 Y156.3697
G01 X104.7696 Y156.3866
G01 X104.7559 Y156.4090
G01 X104.7367 Y156.4367
G01 X104.7179 Y156.4651
G01 X104.7022 Y156.4859
G01 X104.6865 Y156.5077
G01 X104.6647 Y156.5341
G01 X104.6437 Y156.5609
G01 X104.6262 Y156.5805
G01 X104.6137 Y156.5955
G01 X104.5855 Y156.6252
G01 X104.5624 Y156.6503
G01 X104.5435 Y156.6684
G01 X104.5244 Y156.6875
G01 X104.4990 Y156.7099
G01 X104.4692 Y156.7373
G01 X104.4540 Y156.7495
G01 X104.4335 Y156.7670
G01 X104.4061 Y156.7875
G01 X104.3798 Y156.8083
G01 X104.3582 Y156.8233
G01 X104.3363 Y156.8392
G01 X104.3077 Y156.8572
G01 X104.2798 Y156.8759
G01 X104.2567 Y156.8894
G01 X104.2396 Y156.9001
G01 X104.2038 Y156.9192
G01 X104.1744 Y156.9356
G01 X104.1507 Y156.9471
G01 X104.1325 Y156.9564
G01 X104.0958 Y156.9725
G01 X104.0712 Y156.9839
G01 X104.0584 Y156.9894
G01 X104.0400 Y156.9962
G01 X104.0152 Y157.0065
G01 X103.9831 Y157.0173
G01 X103.9519 Y157.0287
G01 X103.9003 Y157.0446
G01 X103.8681 Y157.0528
G01 X103.8352 Y157.0620
G01 X103.8090 Y157.0675
G01 X103.7902 Y157.0721
G01 X103.7500 Y157.0792
G01 X103.7167 Y157.0858
G01 X103.6902 Y157.0892
G01 X103.6638 Y157.0932
G01 X103.6299 Y157.0962
G01 X103.5964 Y157.1000
G01 X103.5702 Y157.1013
G01 X103.5519 Y157.1028
G01 X103.5408 Y157.1033
G01 X103.4768 Y157.1047
G01 X102.6201 Y157.1047
G01 X101.7066 Y157.3298
G01 X100.8737 Y157.7671
G01 X100.1694 Y158.3910
G01 X99.6350 Y159.1652
G01 X99.3013 Y160.0448
G01 X99.1880 Y160.9788
G01 X99.2039 Y161.1108
G01 X99.2071 Y161.1499
G01 X99.2113 Y161.1907
G01 X99.2133 Y161.2296
G01 X99.2135 Y161.2708
G01 X99.2143 Y161.3114
G01 X99.2135 Y161.3443
G01 X99.2128 Y161.3576
G01 X99.2102 Y161.3913
G01 X99.2080 Y161.4305
G01 X99.2055 Y161.4520
G01 X99.2045 Y161.4640
G01 X99.1904 Y161.5593
G01 X99.1878 Y161.5716
G01 X99.1845 Y161.5902
G01 X99.1645 Y161.6768
G01 X99.1559 Y161.7079
G01 X99.1290 Y161.7927
G01 X99.1244 Y161.8046
G01 X99.1181 Y161.8228
G01 X99.0850 Y161.9042
G01 X99.0683 Y161.9405
G01 X99.0526 Y161.9710
G01 X99.0344 Y162.0081
G01 X99.0250 Y162.0247
G01 X99.0194 Y162.0355
G01 X99.0122 Y162.0479
G01 X98.9943 Y162.0768
G01 X98.9735 Y162.1119
G01 X98.9520 Y162.1446
G01 X98.9002 Y162.2164
G01 X98.8802 Y162.2419
G01 X98.8535 Y162.2730
G01 X98.8317 Y162.2993
G01 X98.7999 Y162.3344
G01 X98.7718 Y162.3621
G01 X98.7481 Y162.3865
G01 X98.7380 Y162.3964
G01 X98.7286 Y162.4048
G01 X98.7150 Y162.4177
G01 X98.6836 Y162.4443
G01 X98.6577 Y162.4671
G01 X98.6274 Y162.4914
G01 X98.6165 Y162.4997
G01 X98.5888 Y162.5194
G01 X98.5560 Y162.5439
G01 X98.5232 Y162.5658
G01 X98.4474 Y162.6122
G01 X98.4365 Y162.6180
G01 X98.4197 Y162.6277
G01 X98.3829 Y162.6461
G01 X98.3525 Y162.6620
G01 X98.3112 Y162.6813
G01 X98.2734 Y162.6966
G01 X98.2420 Y162.7100
G01 X98.2294 Y162.7150
G01 X98.1926 Y162.7282
G01 X98.1596 Y162.7385
G01 X98.1208 Y162.7514
G01 X98.1024 Y162.7564
G01 X98.0900 Y162.7601
G01 X98.0033 Y162.7810
G01 X97.9655 Y162.7884
G01 X97.9249 Y162.7944
G01 X97.8842 Y162.8011
G01 X97.8456 Y162.8055
G01 X97.8049 Y162.8082
G01 X97.7598 Y162.8119
G01 X97.7253 Y162.8130
G01 X97.6906 Y162.8134
G01 X73.6600 Y162.8134
G01 X73.6310 Y162.8131
G01 X73.5870 Y162.8107
G01 X73.5429 Y162.8089
G01 X73.5105 Y162.8061
G01 X73.4665 Y162.8002
G01 X73.4224 Y162.7948
G01 X73.3962 Y162.7904
G01 X73.3041 Y162.7713
G01 X73.2784 Y162.7649
G01 X73.1887 Y162.7387
G01 X73.1609 Y162.7294
G01 X73.1154 Y162.7118
G01 X73.0740 Y162.6962
G01 X73.0482 Y162.6853
G01 X73.0043 Y162.6641
G01 X72.9645 Y162.6454
G01 X72.9415 Y162.6334
G01 X72.8601 Y162.5866
G01 X72.8357 Y162.5713
G01 X72.7584 Y162.5181
G01 X72.7362 Y162.5015
G01 X72.6987 Y162.4707
G01 X72.6644 Y162.4432
G01 X72.6450 Y162.4262
G01 X72.5762 Y162.3607
G01 X72.5579 Y162.3419
G01 X72.4947 Y162.2715
G01 X72.4778 Y162.2511
G01 X72.4202 Y162.1756
G01 X72.4019 Y162.1494
G01 X72.3779 Y162.1115
G01 X72.3539 Y162.0744
G01 X72.3375 Y162.0467
G01 X72.3169 Y162.0075
G01 X72.2957 Y161.9685
G01 X72.2817 Y161.9395
G01 X72.2641 Y161.8987
G01 X72.2461 Y161.8580
G01 X72.2344 Y161.8280
G01 X72.2202 Y161.7859
G01 X72.2055 Y161.7441
G01 X72.1963 Y161.7136
G01 X72.1740 Y161.6272
G01 X72.1687 Y161.6032
G01 X72.1661 Y161.5897
G01 X72.1510 Y161.5020
G01 X72.1475 Y161.4754
G01 X72.1437 Y161.4322
G01 X72.1393 Y161.3884
G01 X72.1376 Y161.3587
G01 X72.1361 Y161.2895
G01 X72.1361 Y73.0212
G01 X60.3288 Y61.2139
G01 X3.7878 Y61.2137
G01 X3.6934 Y61.2094
G01 X3.6676 Y61.2072
G01 X3.5662 Y61.1942
G01 X3.5406 Y61.1898
G01 X3.4480 Y61.1702
G01 X3.4229 Y61.1638
G01 X3.3337 Y61.1375
G01 X3.3060 Y61.1280
G01 X3.2181 Y61.0940
G01 X3.1936 Y61.0835
G01 X3.1091 Y61.0429
G01 X3.0863 Y61.0308
G01 X3.0058 Y60.9842
G01 X2.9814 Y60.9687
G01 X2.9458 Y60.9438
G01 X2.9089 Y60.9186
G01 X2.8821 Y60.8985
G01 X2.8492 Y60.8712
G01 X2.8149 Y60.8437
G01 X2.7905 Y60.8222
G01 X2.7585 Y60.7913
G01 X2.7310 Y60.7653
G01 X2.7085 Y60.7426
G01 X2.6996 Y60.7330
G01 X2.6745 Y60.7044
G01 X2.6450 Y60.6717
G01 X2.6203 Y60.6415
G01 X2.5975 Y60.6110
G01 X2.5705 Y60.5758
G01 X2.5524 Y60.5499
G01 X2.5284 Y60.5120
G01 X2.5044 Y60.4749
G01 X2.4880 Y60.4472
G01 X2.4674 Y60.4080
G01 X2.4462 Y60.3690
G01 X2.4322 Y60.3400
G01 X2.4146 Y60.2992
G01 X2.3966 Y60.2585
G01 X2.3850 Y60.2288
G01 X2.3558 Y60.1442
G01 X2.3468 Y60.1141
G01 X2.3245 Y60.0277
G01 X2.3178 Y59.9969
G01 X2.3024 Y59.9089
G01 X2.2979 Y59.8759
G01 X2.2895 Y59.7828
G01 X2.2880 Y59.7540
G01 X2.2866 Y59.6900
G01 X2.2866 Y15.4105
G01 X2.2869 Y15.3815
G01 X2.2916 Y15.2872
G01 X2.2939 Y15.2610
G01 X2.3063 Y15.1662
G01 X2.3107 Y15.1406
G01 X2.3200 Y15.0980
G01 X2.3273 Y15.0612
G01 X2.3351 Y15.0289
G01 X2.3613 Y14.9392
G01 X2.3725 Y14.9060
G01 X2.3882 Y14.8659
G01 X2.4038 Y14.8245
G01 X2.4147 Y14.7987
G01 X2.4194 Y14.7886
G01 X2.4359 Y14.7548
G01 X2.4546 Y14.7150
G01 X2.4666 Y14.6920
G01 X2.5134 Y14.6106
G01 X2.5318 Y14.5814
G01 X2.5567 Y14.5458
G01 X2.5819 Y14.5089
G01 X2.6020 Y14.4821
G01 X2.6293 Y14.4492
G01 X2.6526 Y14.4201
G01 X2.6612 Y14.4099
G01 X2.6830 Y14.3856
G01 X2.7092 Y14.3585
G01 X2.7393 Y14.3267
G01 X2.7579 Y14.3085
G01 X2.8288 Y14.2450
G01 X2.8541 Y14.2241
G01 X2.8895 Y14.1976
G01 X2.9244 Y14.1707
G01 X2.9447 Y14.1564
G01 X3.0201 Y14.1078
G01 X3.0533 Y14.0880
G01 X3.1378 Y14.0430
G01 X3.1605 Y14.0322
G01 X3.2013 Y14.0146
G01 X3.2358 Y13.9993
G01 X3.2653 Y13.9874
G01 X3.3563 Y13.9558
G01 X3.3928 Y13.9451
G01 X3.4297 Y13.9359
G01 X3.4728 Y13.9245
G01 X3.4968 Y13.9192
G01 X3.5916 Y13.9024
G01 X3.6246 Y13.8980
G01 X3.6678 Y13.8942
G01 X3.7116 Y13.8898
G01 X3.7360 Y13.8884
G01 X3.8105 Y13.8866
G01 X9.6083 Y13.8866
G01 X9.6954 Y13.8893
G01 X9.7281 Y13.8917
G01 X9.7685 Y13.8965
G01 X9.8025 Y13.8998
G01 X9.8478 Y13.9063
G01 X9.8880 Y13.9143
G01 X9.9280 Y13.9215
G01 X9.9663 Y13.9304
G01 X10.0514 Y13.9539
G01 X10.0826 Y13.9638
G01 X10.1210 Y13.9781
G01 X10.1529 Y13.9892
G01 X10.1665 Y13.9944
G01 X10.1781 Y13.9994
G01 X10.1955 Y14.0063
G01 X10.2328 Y14.0235
G01 X10.2642 Y14.0374
G01 X10.2997 Y14.0549
G01 X10.3405 Y14.0777
G01 X10.3754 Y14.0965
G01 X10.4102 Y14.1176
G01 X10.4442 Y14.1405
G01 X10.4785 Y14.1628
G01 X10.4942 Y14.1744
G01 X10.5046 Y14.1815
G01 X10.5154 Y14.1897
G01 X10.5421 Y14.2111
G01 X10.5746 Y14.2360
G01 X10.6047 Y14.2616
G01 X10.6696 Y14.3216
G01 X10.6783 Y14.3307
G01 X10.6922 Y14.3442
G01 X10.7201 Y14.3746
G01 X10.7439 Y14.3998
G01 X10.7695 Y14.4294
G01 X10.8244 Y14.4985
G01 X10.8474 Y14.5301
G01 X10.8698 Y14.5642
G01 X10.8889 Y14.5922
G01 X10.8963 Y14.6037
G01 X10.9027 Y14.6147
G01 X10.9133 Y14.6315
G01 X10.9328 Y14.6673
G01 X10.9497 Y14.6966
G01 X10.9560 Y14.7082
G01 X10.9708 Y14.7375
G01 X10.9877 Y14.7751
G01 X11.0051 Y14.8123
G01 X11.0199 Y14.8481
G01 X11.0336 Y14.8866
G01 X11.0481 Y14.9252
G01 X11.0599 Y14.9619
G01 X11.0706 Y15.0015
G01 X11.0802 Y15.0346
G01 X11.0910 Y15.0793
G01 X11.0984 Y15.1194
G01 X11.1067 Y15.1597
G01 X11.1128 Y15.1998
G01 X11.1168 Y15.2389
G01 X11.1218 Y15.2793
G01 X11.1247 Y15.3185
G01 X11.1257 Y15.3592
G01 X11.1275 Y15.4002
G01 X11.1272 Y15.4395
G01 X11.1249 Y15.4802
G01 X11.1234 Y15.5221
G01 X11.1206 Y15.5544
G01 X11.1163 Y15.5942
G01 X11.1008 Y15.7225
G01 X11.2141 Y16.6565
G01 X11.5478 Y17.5361
G01 X12.0822 Y18.3103
G01 X12.7865 Y18.9342
G01 X13.6194 Y19.3715
G01 X14.5329 Y19.5966
G01 X15.4737 Y19.5966
G01 X16.3872 Y19.3715
G01 X17.2201 Y18.9342
G01 X17.9244 Y18.3103
G01 X18.4588 Y17.5361
G01 X18.7925 Y16.6565
G01 X18.9058 Y15.7225
G01 X18.8897 Y15.5892
G01 X18.8865 Y15.5501
G01 X18.8823 Y15.5093
G01 X18.8803 Y15.4700
G01 X18.8802 Y15.4292
G01 X18.8793 Y15.3884
G01 X18.8803 Y15.3498
G01 X18.8835 Y15.3083
G01 X18.8859 Y15.2678
G01 X18.8901 Y15.2288
G01 X18.8963 Y15.1886
G01 X18.9020 Y15.1477
G01 X18.9092 Y15.1092
G01 X18.9187 Y15.0698
G01 X18.9271 Y15.0313
G01 X18.9377 Y14.9921
G01 X18.9504 Y14.9530
G01 X18.9623 Y14.9139
G01 X18.9756 Y14.8770
G01 X18.9912 Y14.8393
G01 X19.0063 Y14.8011
G01 X19.0224 Y14.7654
G01 X19.0409 Y14.7292
G01 X19.0590 Y14.6922
G01 X19.0686 Y14.6753
G01 X19.0742 Y14.6645
G01 X19.0814 Y14.6521
G01 X19.0993 Y14.6232
G01 X19.1204 Y14.5876
G01 X19.1426 Y14.5540
G01 X19.1659 Y14.5223
G01 X19.1893 Y14.4891
G01 X19.2096 Y14.4629
G01 X19.2665 Y14.3954
G01 X19.2795 Y14.3815
G01 X19.2882 Y14.3715
G01 X19.2977 Y14.3617
G01 X19.3219 Y14.3379
G01 X19.3502 Y14.3088
G01 X19.3744 Y14.2862
G01 X19.4460 Y14.2246
G01 X19.4720 Y14.2041
G01 X19.5047 Y14.1807
G01 X19.5377 Y14.1561
G01 X19.5701 Y14.1344
G01 X19.6052 Y14.1132
G01 X19.6404 Y14.0911
G01 X19.6571 Y14.0820
G01 X19.6706 Y14.0741
G01 X19.7530 Y14.0322
G01 X19.7645 Y14.0272
G01 X19.7822 Y14.0188
G01 X19.8204 Y14.0033
G01 X19.8520 Y13.9899
G01 X19.8946 Y13.9739
G01 X19.9339 Y13.9615
G01 X19.9727 Y13.9486
G01 X20.0041 Y13.9398
G01 X20.0903 Y13.9190
G01 X20.1349 Y13.9105
G01 X20.1687 Y13.9056
G01 X20.2094 Y13.8989
G01 X20.2295 Y13.8969
G01 X20.2418 Y13.8952
G01 X20.3338 Y13.8881
G01 X20.3682 Y13.8870
G01 X20.4031 Y13.8866
G01 X42.4317 Y13.8866
G01 X42.5518 Y13.8914
G00 Z5.0000
G00 X64.9866 Y30.4579
G01 F100.00
G01 Z-0.4000
G01 F400.00
G01 X65.0672 Y31.1225
G01 X64.9866 Y31.7871
G01 X64.7492 Y32.4129
G01 X64.3689 Y32.9638
G01 X63.8678 Y33.4077
G01 X63.2751 Y33.7188
G01 X62.6252 Y33.8790
G01 X61.9558 Y33.8790
G01 X61.3059 Y33.7188
G01 X60.7132 Y33.4077
G01 X60.2121 Y32.9638
G01 X59.8318 Y32.4129
G01 X59.5944 Y31.7871
G01 X59.5138 Y31.1225
G01 X59.5944 Y30.4579
G01 X59.8318 Y29.8321
G01 X60.2121 Y29.2812
G01 X60.7132 Y28.8373
G01 X61.3059 Y28.5262
G01 X61.9558 Y28.3660
G01 X62.6252 Y28.3660
G01 X63.2751 Y28.5262
G01 X63.8678 Y28.8373
G01 X64.3689 Y29.2812
G01 X64.7492 Y29.8321
G01 X64.9866 Y30.4579
G00 Z5.0000
G00 X65.2598 Y30.3906
G01 F100.00
G01 Z-0.4000
G01 F400.00
G01 X65.3487 Y31.1225
G01 X65.2598 Y31.8544
G01 X64.9984 Y32.5437
G01 X64.5796 Y33.1504
G01 X64.0277 Y33.6394
G01 X63.3749 Y33.9820
G01 X62.6591 Y34.1584
G01 X61.9219 Y34.1584
G01 X61.2061 Y33.9820
G01 X60.5533 Y33.6394
G01 X60.0014 Y33.1504
G01 X59.5826 Y32.5437
G01 X59.3212 Y31.8544
G01 X59.2323 Y31.1225
G01 X59.3212 Y30.3906
G01 X59.5826 Y29.7013
G01 X60.0014 Y29.0946
G01 X60.5533 Y28.6056
G01 X61.2061 Y28.2630
G01 X61.9219 Y28.0866
G01 X62.6591 Y28.0866
G01 X63.3749 Y28.2630
G01 X64.0277 Y28.6056
G01 X64.5796 Y29.0946
G01 X64.9984 Y29.7013
G01 X65.2598 Y30.3906
G00 Z5.0000
G00 X65.5331 Y30.3232
G01 F100.00
G01 Z-0.4000
G01 F400.00
G01 X65.6301 Y31.1225
G01 X65.5331 Y31.9218
G01 X65.2476 Y32.6745
G01 X64.7903 Y33.3370
G01 X64.1876 Y33.8710
G01 X63.4747 Y34.2451
G01 X62.6930 Y34.4378
G01 X61.8880 Y34.4378
G01 X61.1063 Y34.2451
G01 X60.3934 Y33.8710
G01 X59.7907 Y33.3370
G01 X59.3334 Y32.6745
G01 X59.0479 Y31.9218
G01 X58.9509 Y31.1225
G01 X59.0479 Y30.3232
G01 X59.3334 Y29.5705
G01 X59.7907 Y28.9080
G01 X60.3934 Y28.3740
G01 X61.1063 Y27.9999
G01 X61.8880 Y27.8072
G01 X62.6930 Y27.8072
G01 X63.4747 Y27.9999
G01 X64.1876 Y28.3740
G01 X64.7903 Y28.9080
G01 X65.2476 Y29.5705
G01 X65.5331 Y30.3232
G00 Z5.0000
G00 X65.8064 Y30.2559
G01 F100.00
G01 Z-0.4000
G01 F400.00
G01 X65.9116 Y31.1225
G01 X65.8064 Y31.9891
G01 X65.4968 Y32.8053
G01 X65.0009 Y33.5237
G01 X64.3475 Y34.1026
G01 X63.5746 Y34.5083
G01 X62.7269 Y34.7172
G01 X61.8541 Y34.7172
G01 X61.0064 Y34.5083
G01 X60.2335 Y34.1026
G01 X59.5801 Y33.5237
G01 X59.0842 Y32.8053
G01 X58.7746 Y31.9891
G01 X58.6694 Y31.1225
G01 X58.7746 Y30.2559
G01 X59.0842 Y29.4397
G01 X59.5801 Y28.7213
G01 X60.2335 Y28.1424
G01 X61.0064 Y27.7367
G01 X61.8541 Y27.5278
G01 X62.7269 Y27.5278
G01 X63.5746 Y27.7367
G01 X64.3475 Y28.1424
G01 X65.0009 Y28.7213
G01 X65.4968 Y29.4397
G01 X65.8064 Y30.2559
G00 Z5.0000
G00 X66.0797 Y30.1885
G01 F100.00
G01 Z-0.4000
G01 F400.00
G01 X66.1930 Y31.1225
G01 X66.0797 Y32.0565
G01 X65.7460 Y32.9361
G01 X65.2116 Y33.7103
G01 X64.5073 Y34.3342
G01 X63.6744 Y34.7715
G01 X62.7609 Y34.9966
G01 X61.8201 Y34.9966
G01 X60.9066 Y34.7715
G01 X60.0737 Y34.3342
G01 X59.3694 Y33.7103
G01 X58.8350 Y32.9361
G01 X58.5013 Y32.0565
G01 X58.3880 Y31.1225
G01 X58.5013 Y30.1885
G01 X58.8350 Y29.3089
G01 X59.3694 Y28.5347
G01 X60.0737 Y27.9108
G01 X60.9066 Y27.4735
G01 X61.8201 Y27.2484
G01 X62.7609 Y27.2484
G01 X63.6744 Y27.4735
G01 X64.5073 Y27.9108
G01 X65.2116 Y28.5347
G01 X65.7460 Y29.3089
G01 X66.0797 Y30.1885
G00 Z5.0000
G00 X51.5816 Y68.4936
G01 F100.00
G01 Z-0.4000
G01 F400.00
G01 X51.5825 Y68.4812
G01 X51.5840 Y68.4688
G01 X51.5959 Y68.3894
G01 X51.5997 Y68.3711
G01 X51.6177 Y68.2993
G01 X51.6210 Y68.2873
G01 X51.6250 Y68.2754
G01 X51.6521 Y68.1999
G01 X51.6594 Y68.1827
G01 X51.6911 Y68.1158
G01 X51.6967 Y68.1047
G01 X51.7028 Y68.0938
G01 X51.7409 Y68.0303
G01 X51.7476 Y68.0198
G01 X51.7547 Y68.0096
G01 X51.7988 Y67.9501
G01 X51.8065 Y67.9403
G01 X51.8147 Y67.9309
G01 X51.8644 Y67.8760
G01 X51.8774 Y67.8626
G01 X51.9369 Y67.8087
G01 X51.9463 Y67.8005
G01 X51.9561 Y67.7928
G01 X52.0156 Y67.7487
G01 X52.0258 Y67.7416
G01 X52.0363 Y67.7349
G01 X52.0998 Y67.6968
G01 X52.1107 Y67.6907
G01 X52.1218 Y67.6851
G01 X52.1887 Y67.6534
G01 X52.2001 Y67.6484
G01 X52.2117 Y67.6439
G01 X52.2814 Y67.6190
G01 X52.2933 Y67.6150
G01 X52.3053 Y67.6117
G01 X52.3771 Y67.5937
G01 X52.3893 Y67.5910
G01 X52.4016 Y67.5889
G01 X52.4748 Y67.5780
G01 X52.4872 Y67.5765
G01 X52.4996 Y67.5756
G01 X52.5735 Y67.5719
G01 X52.5860 Y67.5716
G01 X54.1002 Y67.5717
G01 X54.1804 Y67.5756
G01 X54.1928 Y67.5765
G01 X54.2052 Y67.5780
G01 X54.2784 Y67.5889
G01 X54.2907 Y67.5910
G01 X54.3029 Y67.5937
G01 X54.3747 Y67.6117
G01 X54.3867 Y67.6150
G01 X54.3986 Y67.6190
G01 X54.4683 Y67.6439
G01 X54.4799 Y67.6484
G01 X54.4913 Y67.6534
G01 X54.5582 Y67.6851
G01 X54.5693 Y67.6907
G01 X54.5802 Y67.6968
G01 X54.6437 Y67.7349
G01 X54.6542 Y67.7416
G01 X54.6644 Y67.7487
G01 X54.7239 Y67.7928
G01 X54.7337 Y67.8005
G01 X54.7431 Y67.8087
G01 X54.7980 Y67.8584
G01 X54.8070 Y67.8670
G01 X54.8156 Y67.8760
G01 X54.8653 Y67.9309
G01 X54.8735 Y67.9403
G01 X54.8812 Y67.9501
G01 X54.9253 Y68.0096
G01 X54.9324 Y68.0198
G01 X54.9391 Y68.0303
G01 X54.9772 Y68.0938
G01 X54.9833 Y68.1047
G01 X54.9889 Y68.1158
G01 X55.0206 Y68.1827
G01 X55.0256 Y68.1941
G01 X55.0301 Y68.2057
G01 X55.0550 Y68.2754
G01 X55.0590 Y68.2873
G01 X55.0623 Y68.2993
G01 X55.0803 Y68.3711
G01 X55.0830 Y68.3833
G01 X55.0851 Y68.3956
G01 X55.0960 Y68.4688
G01 X55.0975 Y68.4812
G01 X55.0984 Y68.4936
G01 X55.1021 Y68.5675
G01 X55.1023 Y68.5862
G01 X55.0984 Y68.6664
G01 X55.0975 Y68.6788
G01 X55.0960 Y68.6912
G01 X55.0851 Y68.7644
G01 X55.0830 Y68.7767
G01 X55.0803 Y68.7889
G01 X55.0623 Y68.8607
G01 X55.0590 Y68.8727
G01 X55.0550 Y68.8846
G01 X55.0301 Y68.9543
G01 X55.0255 Y68.9662
G01 X54.9889 Y69.0442
G01 X54.9833 Y69.0553
G01 X54.9772 Y69.0662
G01 X54.9391 Y69.1297
G01 X54.9324 Y69.1402
G01 X54.9253 Y69.1504
G01 X54.8812 Y69.2099
G01 X54.8735 Y69.2197
G01 X54.8653 Y69.2291
G01 X54.8156 Y69.2840
G01 X54.8070 Y69.2930
G01 X54.7980 Y69.3016
G01 X54.7431 Y69.3513
G01 X54.7337 Y69.3595
G01 X54.7239 Y69.3672
G01 X54.6644 Y69.4113
G01 X54.6542 Y69.4184
G01 X54.6437 Y69.4251
G01 X54.5802 Y69.4632
G01 X54.5693 Y69.4693
G01 X54.5582 Y69.4749
G01 X54.4913 Y69.5066
G01 X54.4741 Y69.5139
G01 X54.3986 Y69.5410
G01 X54.3867 Y69.5450
G01 X54.3747 Y69.5483
G01 X54.3029 Y69.5663
G01 X54.2907 Y69.5690
G01 X54.2784 Y69.5711
G01 X54.2052 Y69.5820
G01 X54.1928 Y69.5835
G01 X54.1804 Y69.5844
G01 X54.1065 Y69.5881
G01 X54.0940 Y69.5884
G01 X52.5798 Y69.5883
G01 X52.4996 Y69.5844
G01 X52.4872 Y69.5835
G01 X52.4748 Y69.5820
G01 X52.4016 Y69.5711
G01 X52.3893 Y69.5690
G01 X52.3771 Y69.5663
G01 X52.3053 Y69.5483
G01 X52.2933 Y69.5450
G01 X52.2814 Y69.5410
G01 X52.2117 Y69.5161
G01 X52.1997 Y69.5114
G01 X52.1218 Y69.4749
G01 X52.1107 Y69.4693
G01 X52.0998 Y69.4632
G01 X52.0363 Y69.4251
G01 X52.0258 Y69.4184
G01 X52.0156 Y69.4113
G01 X51.9561 Y69.3672
G01 X51.9463 Y69.3595
G01 X51.9369 Y69.3513
G01 X51.8820 Y69.3016
G01 X51.8730 Y69.2930
G01 X51.8644 Y69.2840
G01 X51.8147 Y69.2291
G01 X51.8026 Y69.2148
G01 X51.7547 Y69.1504
G01 X51.7476 Y69.1402
G01 X51.7409 Y69.1297
G01 X51.6997 Y69.0608
G01 X51.6911 Y69.0442
G01 X51.6594 Y68.9773
G01 X51.6544 Y68.9659
G01 X51.6499 Y68.9543
G01 X51.6250 Y68.8846
G01 X51.6210 Y68.8727
G01 X51.6177 Y68.8607
G01 X51.5997 Y68.7889
G01 X51.5970 Y68.7767
G01 X51.5949 Y68.7644
G01 X51.5832 Y68.6850
G01 X51.5816 Y68.6664
G01 X51.5779 Y68.5925
G01 X51.5776 Y68.5800
G01 X51.5779 Y68.5675
G01 X51.5816 Y68.4936
G00 Z5.0000
G00 X47.4339 Y69.4247
G01 F100.00
G01 Z-0.4000
G01 F400.00
G01 X47.3649 Y69.4079
G01 X47.3320 Y69.4009
G01 X47.2989 Y69.3947
G01 X47.2656 Y69.3894
G01 X47.2033 Y69.3804
G01 X47.4024 Y69.3804
G01 X47.4512 Y69.4293
G01 X47.4339 Y69.4247
G00 Z5.0000
G00 X44.9297 Y76.4706
G01 F100.00
G01 Z-0.4000
G01 F400.00
G01 X44.9427 Y76.4692
G01 X44.9688 Y76.4672
G01 X44.9950 Y76.4666
G01 X46.4450 Y76.4666
G01 X46.4712 Y76.4672
G01 X46.4842 Y76.4680
G01 X46.5103 Y76.4706
G01 X46.5362 Y76.4745
G01 X46.5619 Y76.4796
G01 X46.5873 Y76.4859
G01 X46.6123 Y76.4935
G01 X46.6370 Y76.5023
G01 X46.6612 Y76.5124
G01 X46.6731 Y76.5178
G01 X46.6964 Y76.5296
G01 X46.7192 Y76.5425
G01 X46.7304 Y76.5494
G01 X46.7521 Y76.5639
G01 X46.7732 Y76.5795
G01 X46.7934 Y76.5961
G01 X46.8128 Y76.6137
G01 X46.8313 Y76.6322
G01 X46.8489 Y76.6516
G01 X46.8655 Y76.6718
G01 X46.8734 Y76.6823
G01 X46.8885 Y76.7037
G01 X46.8956 Y76.7146
G01 X46.9091 Y76.7371
G01 X46.9154 Y76.7486
G01 X46.9272 Y76.7719
G01 X46.9378 Y76.7959
G01 X46.9427 Y76.8080
G01 X46.9515 Y76.8327
G01 X46.9554 Y76.8452
G01 X46.9624 Y76.8704
G01 X46.9654 Y76.8831
G01 X46.9705 Y76.9088
G01 X46.9744 Y76.9347
G01 X46.9770 Y76.9608
G01 X46.9778 Y76.9738
G01 X46.9784 Y77.0000
G01 X46.9784 Y78.7000
G01 X46.9778 Y78.7262
G01 X46.9758 Y78.7523
G01 X46.9726 Y78.7783
G01 X46.9705 Y78.7912
G01 X46.9682 Y78.8041
G01 X46.9624 Y78.8296
G01 X46.9554 Y78.8548
G01 X46.9472 Y78.8797
G01 X46.9427 Y78.8920
G01 X46.9326 Y78.9162
G01 X46.9214 Y78.9398
G01 X46.9091 Y78.9629
G01 X46.9025 Y78.9742
G01 X46.8885 Y78.9963
G01 X46.8734 Y79.0177
G01 X46.8573 Y79.0384
G01 X46.8402 Y79.0582
G01 X46.8313 Y79.0678
G01 X46.8128 Y79.0863
G01 X46.7934 Y79.1039
G01 X46.7732 Y79.1205
G01 X46.7521 Y79.1361
G01 X46.7413 Y79.1435
G01 X46.7192 Y79.1575
G01 X46.7079 Y79.1641
G01 X46.6964 Y79.1704
G01 X46.6731 Y79.1822
G01 X46.6491 Y79.1928
G01 X46.6370 Y79.1977
G01 X46.6123 Y79.2065
G01 X46.5873 Y79.2141
G01 X46.5746 Y79.2174
G01 X46.5491 Y79.2232
G01 X46.5362 Y79.2255
G01 X46.5103 Y79.2294
G01 X46.4842 Y79.2320
G01 X46.4712 Y79.2328
G01 X46.4450 Y79.2334
G01 X44.9950 Y79.2334
G01 X44.9688 Y79.2328
G01 X44.9558 Y79.2320
G01 X44.9297 Y79.2294
G01 X44.9038 Y79.2255
G01 X44.8909 Y79.2232
G01 X44.8654 Y79.2174
G01 X44.8402 Y79.2104
G01 X44.8277 Y79.2065
G01 X44.8153 Y79.2022
G01 X44.7909 Y79.1928
G01 X44.7669 Y79.1822
G01 X44.7436 Y79.1704
G01 X44.7208 Y79.1575
G01 X44.6987 Y79.1435
G01 X44.6773 Y79.1284
G01 X44.6668 Y79.1205
G01 X44.6466 Y79.1039
G01 X44.6272 Y79.0863
G01 X44.6087 Y79.0678
G01 X44.5998 Y79.0582
G01 X44.5827 Y79.0384
G01 X44.5666 Y79.0177
G01 X44.5515 Y78.9963
G01 X44.5375 Y78.9742
G01 X44.5309 Y78.9629
G01 X44.5246 Y78.9514
G01 X44.5128 Y78.9281
G01 X44.5022 Y78.9041
G01 X44.4928 Y78.8797
G01 X44.4885 Y78.8673
G01 X44.4846 Y78.8548
G01 X44.4776 Y78.8296
G01 X44.4718 Y78.8041
G01 X44.4674 Y78.7783
G01 X44.4656 Y78.7653
G01 X44.4630 Y78.7392
G01 X44.4622 Y78.7262
G01 X44.4616 Y78.7000
G01 X44.4616 Y77.0000
G01 X44.4618 Y76.9869
G01 X44.4630 Y76.9608
G01 X44.4642 Y76.9477
G01 X44.4674 Y76.9217
G01 X44.4695 Y76.9088
G01 X44.4746 Y76.8831
G01 X44.4776 Y76.8704
G01 X44.4846 Y76.8452
G01 X44.4885 Y76.8327
G01 X44.4973 Y76.8080
G01 X44.5074 Y76.7838
G01 X44.5186 Y76.7602
G01 X44.5246 Y76.7486
G01 X44.5375 Y76.7258
G01 X44.5444 Y76.7146
G01 X44.5589 Y76.6929
G01 X44.5745 Y76.6718
G01 X44.5911 Y76.6516
G01 X44.6087 Y76.6322
G01 X44.6178 Y76.6228
G01 X44.6368 Y76.6048
G01 X44.6466 Y76.5961
G01 X44.6566 Y76.5877
G01 X44.6773 Y76.5716
G01 X44.6987 Y76.5565
G01 X44.7208 Y76.5425
G01 X44.7321 Y76.5359
G01 X44.7552 Y76.5236
G01 X44.7788 Y76.5124
G01 X44.8030 Y76.5023
G01 X44.8153 Y76.4978
G01 X44.8402 Y76.4896
G01 X44.8654 Y76.4826
G01 X44.8909 Y76.4768
G01 X44.9167 Y76.4724
G01 X44.9297 Y76.4706
G00 Z5.0000
G00 X44.9639 Y76.7479
G01 F100.00
G01 Z-0.4000
G01 F400.00
G01 X44.9763 Y76.7467
G01 X44.9950 Y76.7460
G01 X46.4450 Y76.7460
G01 X46.4575 Y76.7463
G01 X46.4699 Y76.7472
G01 X46.4823 Y76.7487
G01 X46.4946 Y76.7509
G01 X46.5127 Y76.7552
G01 X46.5247 Y76.7588
G01 X46.5364 Y76.7630
G01 X46.5479 Y76.7678
G01 X46.5647 Y76.7760
G01 X46.5756 Y76.7821
G01 X46.5861 Y76.7888
G01 X46.6013 Y76.7998
G01 X46.6109 Y76.8077
G01 X46.6201 Y76.8160
G01 X46.6290 Y76.8249
G01 X46.6373 Y76.8341
G01 X46.6490 Y76.8487
G01 X46.6562 Y76.8589
G01 X46.6629 Y76.8694
G01 X46.6719 Y76.8858
G01 X46.6797 Y76.9028
G01 X46.6862 Y76.9203
G01 X46.6914 Y76.9383
G01 X46.6953 Y76.9566
G01 X46.6978 Y76.9751
G01 X46.6989 Y76.9938
G01 X46.6989 Y78.7062
G01 X46.6983 Y78.7187
G01 X46.6963 Y78.7373
G01 X46.6928 Y78.7557
G01 X46.6898 Y78.7677
G01 X46.6862 Y78.7797
G01 X46.6820 Y78.7914
G01 X46.6772 Y78.8029
G01 X46.6690 Y78.8197
G01 X46.6629 Y78.8306
G01 X46.6562 Y78.8411
G01 X46.6490 Y78.8513
G01 X46.6373 Y78.8659
G01 X46.6290 Y78.8751
G01 X46.6201 Y78.8840
G01 X46.6061 Y78.8963
G01 X46.5963 Y78.9040
G01 X46.5809 Y78.9146
G01 X46.5647 Y78.9240
G01 X46.5536 Y78.9296
G01 X46.5422 Y78.9347
G01 X46.5247 Y78.9412
G01 X46.5067 Y78.9464
G01 X46.4884 Y78.9503
G01 X46.4699 Y78.9528
G01 X46.4512 Y78.9539
G01 X44.9888 Y78.9539
G01 X44.9701 Y78.9528
G01 X44.9577 Y78.9513
G01 X44.9454 Y78.9491
G01 X44.9333 Y78.9464
G01 X44.9153 Y78.9412
G01 X44.9036 Y78.9370
G01 X44.8864 Y78.9296
G01 X44.8753 Y78.9240
G01 X44.8591 Y78.9146
G01 X44.8487 Y78.9077
G01 X44.8387 Y78.9002
G01 X44.8291 Y78.8923
G01 X44.8199 Y78.8840
G01 X44.8068 Y78.8706
G01 X44.7987 Y78.8611
G01 X44.7910 Y78.8513
G01 X44.7804 Y78.8359
G01 X44.7710 Y78.8197
G01 X44.7628 Y78.8029
G01 X44.7558 Y78.7856
G01 X44.7519 Y78.7737
G01 X44.7486 Y78.7617
G01 X44.7447 Y78.7434
G01 X44.7422 Y78.7249
G01 X44.7411 Y78.7062
G01 X44.7410 Y77.0000
G01 X44.7417 Y76.9813
G01 X44.7429 Y76.9689
G01 X44.7447 Y76.9566
G01 X44.7486 Y76.9383
G01 X44.7538 Y76.9203
G01 X44.7580 Y76.9086
G01 X44.7628 Y76.8971
G01 X44.7681 Y76.8858
G01 X44.7740 Y76.8748
G01 X44.7838 Y76.8589
G01 X44.7910 Y76.8487
G01 X44.7987 Y76.8389
G01 X44.8110 Y76.8249
G01 X44.8244 Y76.8118
G01 X44.8339 Y76.8037
G01 X44.8437 Y76.7960
G01 X44.8591 Y76.7854
G01 X44.8698 Y76.7790
G01 X44.8808 Y76.7731
G01 X44.8978 Y76.7653
G01 X44.9094 Y76.7608
G01 X44.9213 Y76.7569
G01 X44.9333 Y76.7536
G01 X44.9454 Y76.7509
G01 X44.9639 Y76.7479
G00 Z5.0000
G00 X41.9103 Y74.9175
G01 F100.00
G01 Z-0.4000
G01 F400.00
G01 X41.9152 Y74.8180
G01 X41.9161 Y74.8055
G01 X41.9176 Y74.7931
G01 X41.9323 Y74.6945
G01 X41.9344 Y74.6822
G01 X41.9371 Y74.6701
G01 X41.9614 Y74.5734
G01 X41.9647 Y74.5613
G01 X41.9686 Y74.5495
G01 X42.0022 Y74.4556
G01 X42.0067 Y74.4440
G01 X42.0117 Y74.4326
G01 X42.0544 Y74.3425
G01 X42.0600 Y74.3313
G01 X42.0661 Y74.3205
G01 X42.1174 Y74.2350
G01 X42.1240 Y74.2244
G01 X42.1312 Y74.2142
G01 X42.1906 Y74.1341
G01 X42.1983 Y74.1243
G01 X42.2064 Y74.1149
G01 X42.2734 Y74.0410
G01 X42.2820 Y74.0320
G01 X42.2910 Y74.0234
G01 X42.3649 Y73.9564
G01 X42.3743 Y73.9483
G01 X42.3841 Y73.9406
G01 X42.4642 Y73.8812
G01 X42.4744 Y73.8740
G01 X42.4850 Y73.8674
G01 X42.5705 Y73.8161
G01 X42.5813 Y73.8100
G01 X42.5925 Y73.8044
G01 X42.6826 Y73.7617
G01 X42.6940 Y73.7567
G01 X42.7056 Y73.7522
G01 X42.7995 Y73.7186
G01 X42.8113 Y73.7147
G01 X42.8234 Y73.7114
G01 X42.9201 Y73.6871
G01 X42.9322 Y73.6844
G01 X42.9445 Y73.6823
G01 X43.0431 Y73.6676
G01 X43.0555 Y73.6661
G01 X43.0680 Y73.6652
G01 X43.1675 Y73.6603
G01 X43.1800 Y73.6600
G01 X43.1925 Y73.6603
G01 X43.2920 Y73.6652
G01 X43.3045 Y73.6661
G01 X43.3169 Y73.6676
G01 X43.4155 Y73.6823
G01 X43.4278 Y73.6844
G01 X43.4399 Y73.6871
G01 X43.5366 Y73.7114
G01 X43.5487 Y73.7147
G01 X43.5605 Y73.7186
G01 X43.6544 Y73.7522
G01 X43.6660 Y73.7567
G01 X43.6774 Y73.7617
G01 X43.7675 Y73.8044
G01 X43.7787 Y73.8100
G01 X43.7895 Y73.8161
G01 X43.8750 Y73.8674
G01 X43.8856 Y73.8740
G01 X43.8958 Y73.8812
G01 X43.9759 Y73.9406
G01 X43.9857 Y73.9483
G01 X43.9951 Y73.9564
G01 X44.0690 Y74.0234
G01 X44.0780 Y74.0320
G01 X44.0866 Y74.0410
G01 X44.1536 Y74.1149
G01 X44.1617 Y74.1243
G01 X44.1694 Y74.1341
G01 X44.2288 Y74.2142
G01 X44.2360 Y74.2244
G01 X44.2426 Y74.2350
G01 X44.2939 Y74.3205
G01 X44.3000 Y74.3313
G01 X44.3056 Y74.3425
G01 X44.3483 Y74.4326
G01 X44.3533 Y74.4440
G01 X44.3578 Y74.4556
G01 X44.3914 Y74.5495
G01 X44.3953 Y74.5613
G01 X44.3986 Y74.5734
G01 X44.4229 Y74.6701
G01 X44.4256 Y74.6822
G01 X44.4277 Y74.6945
G01 X44.4424 Y74.7931
G01 X44.4439 Y74.8055
G01 X44.4448 Y74.8180
G01 X44.4497 Y74.9175
G01 X44.4500 Y74.9300
G01 X44.4497 Y74.9425
G01 X44.4448 Y75.0420
G01 X44.4439 Y75.0545
G01 X44.4424 Y75.0669
G01 X44.4277 Y75.1655
G01 X44.4256 Y75.1778
G01 X44.4229 Y75.1899
G01 X44.3986 Y75.2866
G01 X44.3953 Y75.2987
G01 X44.3914 Y75.3105
G01 X44.3578 Y75.4044
G01 X44.3509 Y75.4217
G01 X44.3056 Y75.5175
G01 X44.3000 Y75.5287
G01 X44.2939 Y75.5395
G01 X44.2394 Y75.6303
G01 X44.2288 Y75.6458
G01 X44.1656 Y75.7308
G01 X44.1577 Y75.7404
G01 X44.1328 Y75.7680
G01 X44.1328 Y76.8878
G01 X44.1397 Y76.9028
G01 X44.1442 Y76.9144
G01 X44.1481 Y76.9263
G01 X44.1528 Y76.9443
G01 X44.1553 Y76.9566
G01 X44.1578 Y76.9751
G01 X44.1587 Y76.9875
G01 X44.1590 Y77.0000
G01 X44.1589 Y78.7062
G01 X44.1583 Y78.7187
G01 X44.1563 Y78.7373
G01 X44.1528 Y78.7557
G01 X44.1481 Y78.7737
G01 X44.1442 Y78.7856
G01 X44.1372 Y78.8029
G01 X44.1290 Y78.8197
G01 X44.1196 Y78.8359
G01 X44.1090 Y78.8513
G01 X44.1013 Y78.8611
G01 X44.0932 Y78.8706
G01 X44.0801 Y78.8840
G01 X44.0661 Y78.8963
G01 X44.0513 Y78.9077
G01 X44.0409 Y78.9146
G01 X44.0247 Y78.9240
G01 X44.0079 Y78.9322
G01 X43.9964 Y78.9370
G01 X43.9787 Y78.9431
G01 X43.9667 Y78.9464
G01 X43.9484 Y78.9503
G01 X43.9361 Y78.9521
G01 X43.9237 Y78.9533
G01 X43.9112 Y78.9539
G01 X42.4550 Y78.9540
G01 X42.4425 Y78.9537
G01 X42.4239 Y78.9521
G01 X42.4054 Y78.9491
G01 X42.3933 Y78.9464
G01 X42.3753 Y78.9412
G01 X42.3636 Y78.9370
G01 X42.3464 Y78.9296
G01 X42.3298 Y78.9210
G01 X42.3191 Y78.9146
G01 X42.3087 Y78.9077
G01 X42.2939 Y78.8963
G01 X42.2799 Y78.8840
G01 X42.2710 Y78.8751
G01 X42.2587 Y78.8611
G01 X42.2510 Y78.8513
G01 X42.2404 Y78.8359
G01 X42.2310 Y78.8197
G01 X42.2228 Y78.8029
G01 X42.2180 Y78.7914
G01 X42.2119 Y78.7737
G01 X42.2086 Y78.7617
G01 X42.2059 Y78.7496
G01 X42.2029 Y78.7311
G01 X42.2013 Y78.7125
G01 X42.2010 Y78.7000
G01 X42.2010 Y77.0000
G01 X42.2017 Y76.9813
G01 X42.2029 Y76.9689
G01 X42.2047 Y76.9566
G01 X42.2072 Y76.9443
G01 X42.2102 Y76.9323
G01 X42.2158 Y76.9144
G01 X42.2203 Y76.9028
G01 X42.2272 Y76.8878
G01 X42.2272 Y75.7680
G01 X42.2023 Y75.7404
G01 X42.1944 Y75.7308
G01 X42.1312 Y75.6458
G01 X42.1206 Y75.6303
G01 X42.0661 Y75.5395
G01 X42.0600 Y75.5287
G01 X42.0544 Y75.5175
G01 X42.0117 Y75.4274
G01 X42.0044 Y75.4102
G01 X41.9686 Y75.3105
G01 X41.9647 Y75.2987
G01 X41.9614 Y75.2866
G01 X41.9371 Y75.1899
G01 X41.9344 Y75.1778
G01 X41.9323 Y75.1655
G01 X41.9176 Y75.0669
G01 X41.9161 Y75.0545
G01 X41.9152 Y75.0420
G01 X41.9103 Y74.9425
G01 X41.9100 Y74.9300
G01 X41.9103 Y74.9175
G00 Z5.0000
G00 X41.6312 Y74.9038
G01 F100.00
G01 Z-0.4000
G01 F400.00
G01 X41.6361 Y74.8042
G01 X41.6381 Y74.7781
G01 X41.6413 Y74.7521
G01 X41.6559 Y74.6535
G01 X41.6604 Y74.6277
G01 X41.6661 Y74.6022
G01 X41.6903 Y74.5055
G01 X41.6973 Y74.4802
G01 X41.7055 Y74.4554
G01 X41.7391 Y74.3615
G01 X41.7485 Y74.3371
G01 X41.7537 Y74.3250
G01 X41.8018 Y74.2230
G01 X41.8136 Y74.1996
G01 X41.8265 Y74.1768
G01 X41.8777 Y74.0913
G01 X41.8917 Y74.0692
G01 X41.9068 Y74.0478
G01 X41.9662 Y73.9677
G01 X41.9823 Y73.9471
G01 X41.9994 Y73.9272
G01 X42.0664 Y73.8534
G01 X42.0844 Y73.8344
G01 X42.1034 Y73.8164
G01 X42.1772 Y73.7494
G01 X42.1971 Y73.7323
G01 X42.2177 Y73.7162
G01 X42.3084 Y73.6491
G01 X42.3192 Y73.6417
G01 X42.3413 Y73.6277
G01 X42.4268 Y73.5765
G01 X42.4496 Y73.5636
G01 X42.4730 Y73.5518
G01 X42.5631 Y73.5092
G01 X42.5871 Y73.4985
G01 X42.6115 Y73.4891
G01 X42.7054 Y73.4555
G01 X42.7302 Y73.4473
G01 X42.7555 Y73.4403
G01 X42.8522 Y73.4161
G01 X42.8777 Y73.4104
G01 X42.9035 Y73.4059
G01 X43.0151 Y73.3895
G01 X43.0281 Y73.3881
G01 X43.0542 Y73.3861
G01 X43.1538 Y73.3812
G01 X43.1800 Y73.3806
G01 X43.2062 Y73.3812
G01 X43.3058 Y73.3861
G01 X43.3319 Y73.3881
G01 X43.3579 Y73.3913
G01 X43.4565 Y73.4059
G01 X43.4823 Y73.4104
G01 X43.5078 Y73.4161
G01 X43.6045 Y73.4403
G01 X43.6298 Y73.4473
G01 X43.6546 Y73.4555
G01 X43.7485 Y73.4891
G01 X43.7729 Y73.4985
G01 X43.7850 Y73.5037
G01 X43.8870 Y73.5518
G01 X43.9104 Y73.5636
G01 X43.9332 Y73.5765
G01 X44.0298 Y73.6346
G01 X44.0516 Y73.6491
G01 X44.0622 Y73.6568
G01 X44.1423 Y73.7162
G01 X44.1629 Y73.7323
G01 X44.1828 Y73.7494
G01 X44.2566 Y73.8164
G01 X44.2756 Y73.8344
G01 X44.2936 Y73.8534
G01 X44.3606 Y73.9272
G01 X44.3777 Y73.9471
G01 X44.3938 Y73.9677
G01 X44.4532 Y74.0478
G01 X44.4683 Y74.0692
G01 X44.4823 Y74.0913
G01 X44.5335 Y74.1768
G01 X44.5464 Y74.1996
G01 X44.5582 Y74.2230
G01 X44.6008 Y74.3131
G01 X44.6115 Y74.3371
G01 X44.6163 Y74.3492
G01 X44.6545 Y74.4554
G01 X44.6627 Y74.4802
G01 X44.6697 Y74.5055
G01 X44.6969 Y74.6149
G01 X44.6996 Y74.6277
G01 X44.7041 Y74.6535
G01 X44.7187 Y74.7521
G01 X44.7219 Y74.7781
G01 X44.7239 Y74.8042
G01 X44.7288 Y74.9038
G01 X44.7294 Y74.9300
G01 X44.7288 Y74.9562
G01 X44.7231 Y75.0688
G01 X44.7205 Y75.0949
G01 X44.7187 Y75.1079
G01 X44.7041 Y75.2065
G01 X44.6996 Y75.2323
G01 X44.6939 Y75.2578
G01 X44.6697 Y75.3545
G01 X44.6627 Y75.3798
G01 X44.6545 Y75.4046
G01 X44.6163 Y75.5108
G01 X44.6115 Y75.5229
G01 X44.6008 Y75.5469
G01 X44.5582 Y75.6370
G01 X44.5525 Y75.6488
G01 X44.5401 Y75.6719
G01 X44.4823 Y75.7687
G01 X44.4683 Y75.7908
G01 X44.4532 Y75.8122
G01 X44.4122 Y75.8674
G01 X44.4122 Y76.8351
G01 X44.4191 Y76.8577
G01 X44.4254 Y76.8831
G01 X44.4305 Y76.9088
G01 X44.4326 Y76.9217
G01 X44.4344 Y76.9347
G01 X44.4370 Y76.9608
G01 X44.4382 Y76.9869
G01 X44.4384 Y77.0000
G01 X44.4384 Y78.7000
G01 X44.4382 Y78.7131
G01 X44.4370 Y78.7392
G01 X44.4344 Y78.7653
G01 X44.4305 Y78.7912
G01 X44.4282 Y78.8041
G01 X44.4224 Y78.8296
G01 X44.4154 Y78.8548
G01 X44.4072 Y78.8797
G01 X44.4027 Y78.8920
G01 X44.3926 Y78.9162
G01 X44.3814 Y78.9398
G01 X44.3754 Y78.9514
G01 X44.3625 Y78.9742
G01 X44.3485 Y78.9963
G01 X44.3334 Y79.0177
G01 X44.3255 Y79.0282
G01 X44.3089 Y79.0484
G01 X44.3002 Y79.0582
G01 X44.2822 Y79.0772
G01 X44.2632 Y79.0952
G01 X44.2434 Y79.1123
G01 X44.2332 Y79.1205
G01 X44.2121 Y79.1361
G01 X44.2013 Y79.1435
G01 X44.1792 Y79.1575
G01 X44.1564 Y79.1704
G01 X44.1331 Y79.1822
G01 X44.1212 Y79.1876
G01 X44.0970 Y79.1977
G01 X44.0723 Y79.2065
G01 X44.0598 Y79.2104
G01 X44.0346 Y79.2174
G01 X44.0091 Y79.2232
G01 X43.9962 Y79.2255
G01 X43.9703 Y79.2294
G01 X43.9442 Y79.2320
G01 X43.9312 Y79.2328
G01 X43.9050 Y79.2334
G01 X42.4550 Y79.2334
G01 X42.4288 Y79.2328
G01 X42.4158 Y79.2320
G01 X42.3897 Y79.2294
G01 X42.3638 Y79.2255
G01 X42.3509 Y79.2232
G01 X42.3254 Y79.2174
G01 X42.3002 Y79.2104
G01 X42.2877 Y79.2065
G01 X42.2630 Y79.1977
G01 X42.2388 Y79.1876
G01 X42.2152 Y79.1764
G01 X42.1921 Y79.1641
G01 X42.1808 Y79.1575
G01 X42.1587 Y79.1435
G01 X42.1479 Y79.1361
G01 X42.1268 Y79.1205
G01 X42.1066 Y79.1039
G01 X42.0968 Y79.0952
G01 X42.0778 Y79.0772
G01 X42.0598 Y79.0582
G01 X42.0427 Y79.0384
G01 X42.0345 Y79.0282
G01 X42.0189 Y79.0071
G01 X42.0115 Y78.9963
G01 X41.9975 Y78.9742
G01 X41.9846 Y78.9514
G01 X41.9786 Y78.9398
G01 X41.9674 Y78.9162
G01 X41.9622 Y78.9041
G01 X41.9528 Y78.8797
G01 X41.9446 Y78.8548
G01 X41.9409 Y78.8423
G01 X41.9376 Y78.8296
G01 X41.9318 Y78.8041
G01 X41.9274 Y78.7783
G01 X41.9242 Y78.7523
G01 X41.9230 Y78.7392
G01 X41.9218 Y78.7131
G01 X41.9216 Y77.0000
G01 X41.9222 Y76.9738
G01 X41.9230 Y76.9608
G01 X41.9256 Y76.9347
G01 X41.9274 Y76.9217
G01 X41.9318 Y76.8959
G01 X41.9346 Y76.8831
G01 X41.9409 Y76.8577
G01 X41.9478 Y76.8351
G01 X41.9478 Y75.8674
G01 X41.8991 Y75.8016
G01 X41.8846 Y75.7798
G01 X41.8265 Y75.6832
G01 X41.8199 Y75.6719
G01 X41.8075 Y75.6488
G01 X41.7592 Y75.5469
G01 X41.7485 Y75.5229
G01 X41.7391 Y75.4985
G01 X41.7013 Y75.3922
G01 X41.6973 Y75.3798
G01 X41.6903 Y75.3545
G01 X41.6661 Y75.2578
G01 X41.6604 Y75.2323
G01 X41.6559 Y75.2065
G01 X41.6413 Y75.1079
G01 X41.6395 Y75.0949
G01 X41.6369 Y75.0688
G01 X41.6312 Y74.9562
G01 X41.6306 Y74.9300
G01 X41.6312 Y74.9038
G00 Z5.0000
G00 X42.6056 Y85.8706
G01 F100.00
G01 Z-0.4000
G01 F400.00
G01 X42.6186 Y85.8692
G01 X42.6447 Y85.8672
G01 X42.6709 Y85.8666
G01 X43.6891 Y85.8666
G01 X43.7153 Y85.8672
G01 X43.7414 Y85.8692
G01 X43.7674 Y85.8724
G01 X43.7932 Y85.8768
G01 X43.8187 Y85.8826
G01 X43.8439 Y85.8896
G01 X43.8564 Y85.8935
G01 X43.8688 Y85.8978
G01 X43.8932 Y85.9072
G01 X43.9172 Y85.9178
G01 X43.9289 Y85.9236
G01 X43.9520 Y85.9359
G01 X43.9745 Y85.9494
G01 X43.9962 Y85.9639
G01 X44.0173 Y85.9795
G01 X44.0275 Y85.9877
G01 X44.0473 Y86.0048
G01 X44.0663 Y86.0228
G01 X44.0754 Y86.0322
G01 X44.0930 Y86.0516
G01 X44.1096 Y86.0718
G01 X44.1252 Y86.0929
G01 X44.1397 Y86.1146
G01 X44.1532 Y86.1371
G01 X44.1655 Y86.1602
G01 X44.1713 Y86.1719
G01 X44.1819 Y86.1959
G01 X44.1913 Y86.2203
G01 X44.1995 Y86.2452
G01 X44.2065 Y86.2704
G01 X44.2095 Y86.2831
G01 X44.2146 Y86.3088
G01 X44.2185 Y86.3347
G01 X44.2211 Y86.3608
G01 X44.2223 Y86.3869
G01 X44.2225 Y88.1000
G01 X44.2219 Y88.1262
G01 X44.2199 Y88.1523
G01 X44.2167 Y88.1783
G01 X44.2123 Y88.2041
G01 X44.2095 Y88.2169
G01 X44.2032 Y88.2423
G01 X44.1995 Y88.2548
G01 X44.1913 Y88.2797
G01 X44.1868 Y88.2920
G01 X44.1767 Y88.3162
G01 X44.1655 Y88.3398
G01 X44.1532 Y88.3629
G01 X44.1466 Y88.3742
G01 X44.1397 Y88.3854
G01 X44.1252 Y88.4071
G01 X44.1175 Y88.4177
G01 X44.1014 Y88.4384
G01 X44.0843 Y88.4582
G01 X44.0663 Y88.4772
G01 X44.0473 Y88.4952
G01 X44.0375 Y88.5039
G01 X44.0173 Y88.5205
G01 X44.0068 Y88.5284
G01 X43.9962 Y88.5361
G01 X43.9745 Y88.5506
G01 X43.9520 Y88.5641
G01 X43.9289 Y88.5764
G01 X43.9172 Y88.5822
G01 X43.8932 Y88.5928
G01 X43.8688 Y88.6022
G01 X43.8564 Y88.6065
G01 X43.8314 Y88.6141
G01 X43.8060 Y88.6204
G01 X43.7803 Y88.6255
G01 X43.7544 Y88.6294
G01 X43.7283 Y88.6320
G01 X43.7022 Y88.6332
G01 X42.6709 Y88.6334
G01 X42.6447 Y88.6328
G01 X42.6317 Y88.6320
G01 X42.6056 Y88.6294
G01 X42.5926 Y88.6276
G01 X42.5668 Y88.6232
G01 X42.5540 Y88.6204
G01 X42.5286 Y88.6141
G01 X42.5036 Y88.6065
G01 X42.4912 Y88.6022
G01 X42.4668 Y88.5928
G01 X42.4428 Y88.5822
G01 X42.4311 Y88.5764
G01 X42.4080 Y88.5641
G01 X42.3855 Y88.5506
G01 X42.3638 Y88.5361
G01 X42.3532 Y88.5284
G01 X42.3325 Y88.5123
G01 X42.3225 Y88.5039
G01 X42.3031 Y88.4863
G01 X42.2937 Y88.4772
G01 X42.2757 Y88.4582
G01 X42.2586 Y88.4384
G01 X42.2425 Y88.4177
G01 X42.2348 Y88.4071
G01 X42.2203 Y88.3854
G01 X42.2134 Y88.3742
G01 X42.2005 Y88.3514
G01 X42.1887 Y88.3281
G01 X42.1781 Y88.3041
G01 X42.1732 Y88.2920
G01 X42.1644 Y88.2673
G01 X42.1568 Y88.2423
G01 X42.1505 Y88.2169
G01 X42.1454 Y88.1912
G01 X42.1415 Y88.1653
G01 X42.1389 Y88.1392
G01 X42.1377 Y88.1131
G01 X42.1375 Y86.4000
G01 X42.1381 Y86.3738
G01 X42.1401 Y86.3477
G01 X42.1415 Y86.3347
G01 X42.1454 Y86.3088
G01 X42.1505 Y86.2831
G01 X42.1568 Y86.2577
G01 X42.1605 Y86.2452
G01 X42.1687 Y86.2203
G01 X42.1781 Y86.1959
G01 X42.1833 Y86.1838
G01 X42.1887 Y86.1719
G01 X42.2005 Y86.1486
G01 X42.2134 Y86.1258
G01 X42.2274 Y86.1037
G01 X42.2348 Y86.0929
G01 X42.2504 Y86.0718
G01 X42.2586 Y86.0616
G01 X42.2757 Y86.0418
G01 X42.2846 Y86.0322
G01 X42.3031 Y86.0137
G01 X42.3127 Y86.0048
G01 X42.3325 Y85.9877
G01 X42.3427 Y85.9795
G01 X42.3638 Y85.9639
G01 X42.3855 Y85.9494
G01 X42.3967 Y85.9425
G01 X42.4195 Y85.9296
G01 X42.4428 Y85.9178
G01 X42.4668 Y85.9072
G01 X42.4789 Y85.9023
G01 X42.4912 Y85.8978
G01 X42.5161 Y85.8896
G01 X42.5413 Y85.8826
G01 X42.5668 Y85.8768
G01 X42.5926 Y85.8724
G01 X42.6056 Y85.8706
G00 Z5.0000
G00 X42.6398 Y86.1479
G01 F100.00
G01 Z-0.4000
G01 F400.00
G01 X42.6584 Y86.1463
G01 X42.6709 Y86.1460
G01 X43.6891 Y86.1460
G01 X43.7016 Y86.1463
G01 X43.7140 Y86.1472
G01 X43.7264 Y86.1487
G01 X43.7448 Y86.1522
G01 X43.7628 Y86.1569
G01 X43.7747 Y86.1608
G01 X43.7920 Y86.1678
G01 X43.8033 Y86.1731
G01 X43.8197 Y86.1821
G01 X43.8302 Y86.1888
G01 X43.8454 Y86.1998
G01 X43.8550 Y86.2077
G01 X43.8642 Y86.2160
G01 X43.8773 Y86.2294
G01 X43.8854 Y86.2389
G01 X43.8968 Y86.2537
G01 X43.9070 Y86.2694
G01 X43.9131 Y86.2803
G01 X43.9213 Y86.2971
G01 X43.9261 Y86.3086
G01 X43.9303 Y86.3203
G01 X43.9339 Y86.3323
G01 X43.9382 Y86.3504
G01 X43.9404 Y86.3627
G01 X43.9419 Y86.3751
G01 X43.9430 Y86.3938
G01 X43.9431 Y88.1000
G01 X43.9428 Y88.1125
G01 X43.9412 Y88.1311
G01 X43.9394 Y88.1434
G01 X43.9355 Y88.1617
G01 X43.9303 Y88.1797
G01 X43.9261 Y88.1914
G01 X43.9187 Y88.2086
G01 X43.9101 Y88.2252
G01 X43.9037 Y88.2359
G01 X43.8968 Y88.2463
G01 X43.8854 Y88.2611
G01 X43.8731 Y88.2751
G01 X43.8597 Y88.2882
G01 X43.8502 Y88.2963
G01 X43.8354 Y88.3077
G01 X43.8197 Y88.3179
G01 X43.8088 Y88.3240
G01 X43.7920 Y88.3322
G01 X43.7805 Y88.3370
G01 X43.7688 Y88.3412
G01 X43.7508 Y88.3464
G01 X43.7387 Y88.3491
G01 X43.7264 Y88.3513
G01 X43.7140 Y88.3528
G01 X43.6953 Y88.3539
G01 X42.6709 Y88.3540
G01 X42.6522 Y88.3533
G01 X42.6398 Y88.3521
G01 X42.6213 Y88.3491
G01 X42.6092 Y88.3464
G01 X42.5912 Y88.3412
G01 X42.5795 Y88.3370
G01 X42.5623 Y88.3296
G01 X42.5512 Y88.3240
G01 X42.5350 Y88.3146
G01 X42.5246 Y88.3077
G01 X42.5098 Y88.2963
G01 X42.4958 Y88.2840
G01 X42.4869 Y88.2751
G01 X42.4746 Y88.2611
G01 X42.4632 Y88.2463
G01 X42.4530 Y88.2306
G01 X42.4469 Y88.2197
G01 X42.4413 Y88.2086
G01 X42.4362 Y88.1972
G01 X42.4297 Y88.1797
G01 X42.4261 Y88.1677
G01 X42.4218 Y88.1496
G01 X42.4196 Y88.1373
G01 X42.4181 Y88.1249
G01 X42.4170 Y88.1062
G01 X42.4169 Y86.4000
G01 X42.4172 Y86.3875
G01 X42.4181 Y86.3751
G01 X42.4196 Y86.3627
G01 X42.4218 Y86.3504
G01 X42.4261 Y86.3323
G01 X42.4297 Y86.3203
G01 X42.4339 Y86.3086
G01 X42.4413 Y86.2914
G01 X42.4469 Y86.2803
G01 X42.4530 Y86.2694
G01 X42.4632 Y86.2537
G01 X42.4746 Y86.2389
G01 X42.4827 Y86.2294
G01 X42.4913 Y86.2204
G01 X42.5050 Y86.2077
G01 X42.5196 Y86.1960
G01 X42.5298 Y86.1888
G01 X42.5403 Y86.1821
G01 X42.5567 Y86.1731
G01 X42.5737 Y86.1653
G01 X42.5853 Y86.1608
G01 X42.5972 Y86.1569
G01 X42.6092 Y86.1536
G01 X42.6213 Y86.1509
G01 X42.6398 Y86.1479
G00 Z5.0000
G00 X44.4926 Y89.0077
G01 F100.00
G01 Z-0.4000
G01 F400.00
G01 X44.4884 Y88.9262
G01 X44.4878 Y88.9000
G01 X44.4878 Y88.2649
G01 X44.4809 Y88.2423
G01 X44.4746 Y88.2169
G01 X44.4695 Y88.1912
G01 X44.4674 Y88.1783
G01 X44.4642 Y88.1523
G01 X44.4630 Y88.1392
G01 X44.4622 Y88.1262
G01 X44.4616 Y88.1000
G01 X44.4618 Y86.3869
G01 X44.4630 Y86.3608
G01 X44.4642 Y86.3477
G01 X44.4674 Y86.3217
G01 X44.4695 Y86.3088
G01 X44.4746 Y86.2831
G01 X44.4776 Y86.2704
G01 X44.4846 Y86.2452
G01 X44.4885 Y86.2327
G01 X44.4973 Y86.2080
G01 X44.5022 Y86.1959
G01 X44.5128 Y86.1719
G01 X44.5246 Y86.1486
G01 X44.5375 Y86.1258
G01 X44.5444 Y86.1146
G01 X44.5589 Y86.0929
G01 X44.5666 Y86.0823
G01 X44.5745 Y86.0718
G01 X44.5911 Y86.0516
G01 X44.6087 Y86.0322
G01 X44.6272 Y86.0137
G01 X44.6466 Y85.9961
G01 X44.6668 Y85.9795
G01 X44.6879 Y85.9639
G01 X44.6987 Y85.9565
G01 X44.7208 Y85.9425
G01 X44.7436 Y85.9296
G01 X44.7669 Y85.9178
G01 X44.7909 Y85.9072
G01 X44.8030 Y85.9023
G01 X44.8277 Y85.8935
G01 X44.8527 Y85.8859
G01 X44.8654 Y85.8826
G01 X44.8909 Y85.8768
G01 X44.9167 Y85.8724
G01 X44.9427 Y85.8692
G01 X44.9688 Y85.8672
G01 X44.9950 Y85.8666
G01 X46.4450 Y85.8666
G01 X46.4712 Y85.8672
G01 X46.4842 Y85.8680
G01 X46.5103 Y85.8706
G01 X46.5362 Y85.8745
G01 X46.5491 Y85.8768
G01 X46.5746 Y85.8826
G01 X46.5873 Y85.8859
G01 X46.6123 Y85.8935
G01 X46.6247 Y85.8978
G01 X46.6370 Y85.9023
G01 X46.6612 Y85.9124
G01 X46.6731 Y85.9178
G01 X46.6964 Y85.9296
G01 X46.7192 Y85.9425
G01 X46.7304 Y85.9494
G01 X46.7521 Y85.9639
G01 X46.7627 Y85.9716
G01 X46.7834 Y85.9877
G01 X46.8032 Y86.0048
G01 X46.8222 Y86.0228
G01 X46.8402 Y86.0418
G01 X46.8489 Y86.0516
G01 X46.8655 Y86.0718
G01 X46.8811 Y86.0929
G01 X46.8956 Y86.1146
G01 X46.9091 Y86.1371
G01 X46.9154 Y86.1486
G01 X46.9272 Y86.1719
G01 X46.9378 Y86.1959
G01 X46.9472 Y86.2203
G01 X46.9554 Y86.2452
G01 X46.9591 Y86.2577
G01 X46.9654 Y86.2831
G01 X46.9705 Y86.3088
G01 X46.9744 Y86.3347
G01 X46.9770 Y86.3608
G01 X46.9782 Y86.3869
G01 X46.9784 Y86.4000
G01 X46.9784 Y88.1000
G01 X46.9778 Y88.1262
G01 X46.9770 Y88.1392
G01 X46.9744 Y88.1653
G01 X46.9726 Y88.1783
G01 X46.9705 Y88.1912
G01 X46.9654 Y88.2169
G01 X46.9591 Y88.2423
G01 X46.9522 Y88.2649
G01 X46.9522 Y88.3896
G01 X47.1085 Y88.5460
G01 X47.1721 Y88.6163
G01 X47.1805 Y88.6263
G01 X47.1966 Y88.6469
G01 X47.2375 Y88.7020
G01 X47.2526 Y88.7234
G01 X47.2666 Y88.7455
G01 X47.3084 Y88.8157
G01 X47.3208 Y88.8387
G01 X47.3558 Y88.9125
G01 X47.3613 Y88.9244
G01 X47.3713 Y88.9486
G01 X47.4032 Y89.0378
G01 X47.4108 Y89.0629
G01 X47.4142 Y89.0755
G01 X47.4308 Y89.1421
G01 X47.4366 Y89.1676
G01 X47.4410 Y89.1934
G01 X47.4529 Y89.2742
G01 X47.4554 Y89.3003
G01 X47.4562 Y89.3133
G01 X47.4601 Y89.3949
G01 X47.4602 Y89.7406
G01 X47.5012 Y89.7958
G01 X47.5163 Y89.8172
G01 X47.5303 Y89.8393
G01 X47.5881 Y89.9361
G01 X47.6005 Y89.9592
G01 X47.6062 Y89.9710
G01 X47.6488 Y90.0611
G01 X47.6543 Y90.0730
G01 X47.6643 Y90.0972
G01 X47.7025 Y90.2034
G01 X47.7107 Y90.2282
G01 X47.7177 Y90.2535
G01 X47.7419 Y90.3502
G01 X47.7476 Y90.3757
G01 X47.7521 Y90.4015
G01 X47.7667 Y90.5001
G01 X47.7699 Y90.5261
G01 X47.7719 Y90.5522
G01 X47.7768 Y90.6518
G01 X47.7774 Y90.6780
G01 X47.7768 Y90.7042
G01 X47.7719 Y90.8038
G01 X47.7699 Y90.8299
G01 X47.7667 Y90.8559
G01 X47.7521 Y90.9545
G01 X47.7476 Y90.9803
G01 X47.7419 Y91.0058
G01 X47.7177 Y91.1025
G01 X47.7107 Y91.1278
G01 X47.7025 Y91.1526
G01 X47.6643 Y91.2588
G01 X47.6595 Y91.2709
G01 X47.6488 Y91.2949
G01 X47.6062 Y91.3850
G01 X47.5944 Y91.4084
G01 X47.5815 Y91.4312
G01 X47.5303 Y91.5167
G01 X47.5163 Y91.5388
G01 X47.5089 Y91.5496
G01 X47.4339 Y91.6507
G01 X47.4173 Y91.6709
G01 X47.4086 Y91.6808
G01 X47.3327 Y91.7642
G01 X47.3236 Y91.7736
G01 X47.3046 Y91.7916
G01 X47.2308 Y91.8586
G01 X47.2109 Y91.8757
G01 X47.1903 Y91.8918
G01 X47.1102 Y91.9512
G01 X47.0888 Y91.9663
G01 X47.0667 Y91.9803
G01 X46.9812 Y92.0315
G01 X46.9584 Y92.0444
G01 X46.9350 Y92.0562
G01 X46.8449 Y92.0988
G01 X46.8209 Y92.1095
G01 X46.7965 Y92.1189
G01 X46.7026 Y92.1525
G01 X46.6778 Y92.1607
G01 X46.6525 Y92.1677
G01 X46.5558 Y92.1919
G01 X46.5303 Y92.1976
G01 X46.5045 Y92.2021
G01 X46.4059 Y92.2167
G01 X46.3799 Y92.2199
G01 X46.3538 Y92.2219
G01 X46.2542 Y92.2268
G01 X46.2280 Y92.2274
G01 X46.2018 Y92.2268
G01 X46.1022 Y92.2219
