(G-CODE GENERATED BY FLATCAM v8.994 - www.flatcam.org - Version Date: 2020/11/7)

(Name: copper_top.gbr_noncopper_mt_paint_cnc)
(Type: G-code from Geometry)
(Units: MM)

(Created on Friday, 25 March 2022 at 13:45)

(This preprocessor is the default preprocessor used by FlatCAM.)
(It is made to work with MACH3 compatible motion controllers.)

(TOOL DIAMETER: 1.5875 mm)
(Feedrate_XY: 400.0 mm/min)
(Feedrate_Z: 190.0 mm/min)
(Feedrate rapids 400.0 mm/min)

(Z_Cut: -0.22 mm)
(Z_Move: 3.0 mm)
(Z Start: None mm)
(Z End: 15.0 mm)
(X,Y End: None mm)
(Steps per circle: 64)
(Preprocessor Geometry: default)

(X range:    3.3344 ...  114.7784  mm)
(Y range:    3.3344 ...  161.7656  mm)

(Spindle Speed: 22250.0 RPM)
G21
G90
G94

G01 F400.00

M5
G00 Z15.0000
G00 X0.0000 Y0.0000
T2
M6    
(MSG, Change to Tool Dia = 1.5875)
M0
G00 Z15.0000

M03 S22250.0
G01 F400.00
G00 X7.1444 Y9.5368
G01 F190.00
G01 Z-0.2200
G01 F400.00
G01 X9.6035 Y9.5368
G01 X9.6607 Y9.5372
G01 X9.7209 Y9.5384
G01 X9.8344 Y9.5417
G01 X9.9002 Y9.5444
G01 X9.9619 Y9.5478
G01 X10.0476 Y9.5537
G01 X10.1140 Y9.5592
G01 X10.1766 Y9.5652
G01 X10.2743 Y9.5758
G01 X10.3254 Y9.5816
G01 X10.3882 Y9.5896
G01 X10.4469 Y9.5977
G01 X10.5181 Y9.6085
G01 X10.5684 Y9.6167
G01 X10.6185 Y9.6254
G01 X10.7641 Y9.6529
G01 X10.8198 Y9.6642
G01 X10.8714 Y9.6753
G01 X10.9838 Y9.7013
G01 X11.0337 Y9.7137
G01 X11.0872 Y9.7276
G01 X11.2150 Y9.7625
G01 X11.2763 Y9.7802
G01 X11.3288 Y9.7960
G01 X11.3941 Y9.8164
G01 X11.4490 Y9.8343
G01 X11.5384 Y9.8650
G01 X11.6627 Y9.9099
G01 X11.7561 Y9.9455
G01 X11.8081 Y9.9663
G01 X11.8602 Y9.9877
G01 X11.9046 Y10.0064
G01 X11.9505 Y10.0264
G01 X12.0603 Y10.0758
G01 X12.1129 Y10.1001
G01 X12.1727 Y10.1286
G01 X12.2210 Y10.1524
G01 X12.2946 Y10.1896
G01 X12.3406 Y10.2137
G01 X12.3970 Y10.2440
G01 X12.4855 Y10.2929
G01 X12.5457 Y10.3269
G01 X12.5845 Y10.3495
G01 X12.6321 Y10.3778
G01 X12.6868 Y10.4112
G01 X12.7380 Y10.4432
G01 X12.7968 Y10.4811
G01 X12.8941 Y10.5455
G01 X12.9781 Y10.6030
G01 X13.0248 Y10.6362
G01 X13.0763 Y10.6735
G01 X13.1206 Y10.7064
G01 X13.1678 Y10.7423
G01 X13.2879 Y10.8363
G01 X13.3405 Y10.8790
G01 X13.3893 Y10.9197
G01 X13.4468 Y10.9688
G01 X13.4899 Y11.0066
G01 X13.5355 Y11.0476
G01 X13.6243 Y11.1292
G01 X13.6724 Y11.1747
G01 X13.7111 Y11.2121
G01 X13.7564 Y11.2568
G01 X13.8010 Y11.3019
G01 X13.8464 Y11.3490
G01 X13.8799 Y11.3847
G01 X13.9535 Y11.4640
G01 X13.9966 Y11.5119
G01 X14.0365 Y11.5572
G01 X14.0864 Y11.6154
G01 X14.1182 Y11.6533
G01 X14.1521 Y11.6946
G01 X14.1854 Y11.7362
G01 X14.2520 Y11.8206
G01 X14.3116 Y11.8986
G01 X14.3588 Y11.9627
G01 X14.3963 Y12.0151
G01 X14.4365 Y12.0728
G01 X14.4685 Y12.1201
G01 X14.5223 Y12.2008
G01 X14.5549 Y12.2509
G01 X14.5898 Y12.3062
G01 X14.6229 Y12.3600
G01 X14.6552 Y12.4138
G01 X14.6902 Y12.4740
G01 X14.7670 Y12.6112
G01 X14.7983 Y12.6694
G01 X14.8231 Y12.7170
G01 X14.8607 Y12.7909
G01 X14.8836 Y12.8377
G01 X14.9146 Y12.9028
G01 X14.9593 Y13.0000
G01 X14.9787 Y13.0430
G01 X15.0033 Y13.0994
G01 X15.0338 Y13.0291
G01 X15.0695 Y12.9504
G01 X15.0963 Y12.8933
G01 X15.1340 Y12.8159
G01 X15.1800 Y12.7241
G01 X15.2216 Y12.6442
G01 X15.2672 Y12.5604
G01 X15.3085 Y12.4873
G01 X15.3447 Y12.4256
G01 X15.4130 Y12.3127
G01 X15.4604 Y12.2372
G01 X15.5092 Y12.1624
G01 X15.5513 Y12.0998
G01 X15.5976 Y12.0335
G01 X15.6683 Y11.9351
G01 X15.7189 Y11.8667
G01 X15.7525 Y11.8228
G01 X15.7882 Y11.7771
G01 X15.8339 Y11.7197
G01 X15.8782 Y11.6659
G01 X15.9611 Y11.5679
G01 X16.0088 Y11.5132
G01 X16.0599 Y11.4563
G01 X16.1236 Y11.3873
G01 X16.1707 Y11.3381
G01 X16.2726 Y11.2350
G01 X16.3199 Y11.1884
G01 X16.3648 Y11.1454
G01 X16.4259 Y11.0883
G01 X16.4751 Y11.0436
G01 X16.5279 Y10.9971
G01 X16.6253 Y10.9133
G01 X16.6940 Y10.8561
G01 X16.7773 Y10.7896
G01 X16.8378 Y10.7428
G01 X16.8958 Y10.6994
G01 X16.9902 Y10.6304
G01 X17.0483 Y10.5892
G01 X17.1160 Y10.5427
G01 X17.1878 Y10.4950
G01 X17.2518 Y10.4540
G01 X17.3593 Y10.3875
G01 X17.4131 Y10.3550
G01 X17.4751 Y10.3187
G01 X17.5665 Y10.2672
G01 X17.6298 Y10.2328
G01 X17.6969 Y10.1978
G01 X17.8100 Y10.1405
G01 X17.8954 Y10.0991
G01 X17.9710 Y10.0641
G01 X18.0344 Y10.0357
G01 X18.0975 Y10.0086
G01 X18.2234 Y9.9565
G01 X18.2893 Y9.9304
G01 X18.3670 Y9.9010
G01 X18.4437 Y9.8733
G01 X18.5255 Y9.8453
G01 X18.6524 Y9.8042
G01 X18.7137 Y9.7851
G01 X18.7905 Y9.7626
G01 X18.8682 Y9.7410
G01 X18.9579 Y9.7176
G01 X19.0819 Y9.6878
G01 X19.1716 Y9.6675
G01 X19.2332 Y9.6546
G01 X19.3068 Y9.6401
G01 X19.3713 Y9.6283
G01 X19.4392 Y9.6168
G01 X19.5582 Y9.5982
G01 X19.6287 Y9.5882
G01 X19.6861 Y9.5808
G01 X19.7343 Y9.5751
G01 X19.8078 Y9.5672
G01 X19.8716 Y9.5612
G01 X19.9235 Y9.5569
G01 X20.0255 Y9.5493
G01 X20.1051 Y9.5444
G01 X20.1675 Y9.5416
G01 X20.2441 Y9.5391
G01 X20.3045 Y9.5378
G01 X20.3891 Y9.5369
G01 X42.4317 Y9.5368
G01 X42.4865 Y9.5372
G01 X42.5446 Y9.5383
G01 X42.5929 Y9.5397
G01 X42.6661 Y9.5426
G01 X42.9526 Y9.5429
G01 X42.9748 Y9.4626
G01 X43.0071 Y9.3527
G01 X43.0260 Y9.2915
G01 X43.0472 Y9.2265
G01 X43.0807 Y9.1275
G01 X43.1011 Y9.0700
G01 X43.1208 Y9.0166
G01 X43.1466 Y8.9485
G01 X43.1737 Y8.8792
G01 X43.2067 Y8.7990
G01 X43.2499 Y8.6982
G01 X43.2746 Y8.6426
G01 X43.3018 Y8.5837
G01 X43.3350 Y8.5137
G01 X43.3747 Y8.4324
G01 X43.4101 Y8.3634
G01 X43.4645 Y8.2604
G01 X43.4958 Y8.2036
G01 X43.5547 Y8.1007
G01 X43.6010 Y8.0226
G01 X43.6373 Y7.9638
G01 X43.6866 Y7.8856
G01 X43.7220 Y7.8311
G01 X43.7705 Y7.7592
G01 X43.8328 Y7.6691
G01 X43.8736 Y7.6123
G01 X43.9351 Y7.5294
G01 X43.9770 Y7.4742
G01 X44.0332 Y7.4027
G01 X44.0877 Y7.3356
G01 X44.1333 Y7.2805
G01 X44.1876 Y7.2173
G01 X44.2515 Y7.1444
G01 X7.1444 Y7.1444
G01 X7.1444 Y9.5368
G01 X5.8744 Y10.8068
G01 X9.6276 Y10.8070
G01 X9.6908 Y10.8080
G01 X9.7940 Y10.8110
G01 X9.8433 Y10.8131
G01 X9.8803 Y10.8152
G01 X9.9515 Y10.8201
G01 X10.0023 Y10.8243
G01 X10.0492 Y10.8288
G01 X10.1543 Y10.8402
G01 X10.2014 Y10.8459
G01 X10.2562 Y10.8534
G01 X10.3130 Y10.8618
G01 X10.3590 Y10.8693
G01 X10.4092 Y10.8781
G01 X10.5163 Y10.8985
G01 X10.5641 Y10.9082
G01 X10.6156 Y10.9195
G01 X10.6830 Y10.9352
G01 X10.7482 Y10.9516
G01 X10.8754 Y10.9863
G01 X10.9367 Y11.0041
G01 X11.0010 Y11.0241
G01 X11.0521 Y11.0407
G01 X11.1009 Y11.0573
G01 X11.2370 Y11.1065
G01 X11.2879 Y11.1260
G01 X11.3550 Y11.1531
G01 X11.4065 Y11.1747
G01 X11.4524 Y11.1947
G01 X11.5555 Y11.2415
G01 X11.6005 Y11.2626
G01 X11.6488 Y11.2862
G01 X11.7104 Y11.3173
G01 X11.7845 Y11.3566
G01 X11.8666 Y11.4019
G01 X11.9148 Y11.4291
G01 X11.9654 Y11.4589
G01 X12.0206 Y11.4924
G01 X12.0540 Y11.5133
G01 X12.1164 Y11.5537
G01 X12.2046 Y11.6123
G01 X12.2639 Y11.6534
G01 X12.3082 Y11.6852
G01 X12.3544 Y11.7192
G01 X12.3949 Y11.7500
G01 X12.4832 Y11.8190
G01 X12.5228 Y11.8509
G01 X12.5652 Y11.8861
G01 X12.6182 Y11.9313
G01 X12.6670 Y11.9744
G01 X12.7738 Y12.0727
G01 X12.8245 Y12.1214
G01 X12.8719 Y12.1684
G01 X12.9247 Y12.2228
G01 X12.9555 Y12.2555
G01 X13.0190 Y12.3241
G01 X13.0753 Y12.3872
G01 X13.1173 Y12.4363
G01 X13.1491 Y12.4743
G01 X13.1898 Y12.5246
G01 X13.2525 Y12.6040
G01 X13.2922 Y12.6561
G01 X13.3306 Y12.7082
G01 X13.3614 Y12.7512
G01 X13.3915 Y12.7945
G01 X13.4698 Y12.9117
G01 X13.4975 Y12.9548
G01 X13.5346 Y13.0147
G01 X13.5606 Y13.0579
G01 X13.5955 Y13.1181
G01 X13.6538 Y13.2227
G01 X13.6773 Y13.2663
G01 X13.6945 Y13.2993
G01 X13.7346 Y13.3789
G01 X13.7623 Y13.4367
G01 X13.8189 Y13.5605
G01 X13.8377 Y13.6037
G01 X13.8540 Y13.6423
G01 X13.8819 Y13.7108
G01 X13.9062 Y13.7739
G01 X13.9456 Y13.8815
G01 X13.9629 Y13.9310
G01 X13.9776 Y13.9749
G01 X14.0027 Y14.0537
G01 X14.0214 Y14.1169
G01 X14.0530 Y14.2299
G01 X14.0660 Y14.2794
G01 X14.0753 Y14.3166
G01 X14.0924 Y14.3887
G01 X14.1082 Y14.4618
G01 X14.1324 Y14.5854
G01 X14.1450 Y14.6567
G01 X14.1587 Y14.7438
G01 X14.1679 Y14.8108
G01 X14.1832 Y14.9443
G01 X14.1883 Y14.9951
G01 X14.1954 Y15.0817
G01 X14.1997 Y15.1497
G01 X14.2022 Y15.2019
G01 X14.2051 Y15.2869
G01 X14.2069 Y15.3615
G01 X14.2071 Y15.4315
G01 X14.2059 Y15.5167
G01 X14.2042 Y15.5671
G01 X14.1991 Y15.6778
G01 X14.2272 Y15.9162
G01 X14.2947 Y16.0943
G01 X14.4043 Y16.2530
G01 X14.5489 Y16.3811
G01 X14.7196 Y16.4707
G01 X14.9069 Y16.5168
G01 X15.0997 Y16.5168
G01 X15.2870 Y16.4707
G01 X15.4577 Y16.3811
G01 X15.6023 Y16.2530
G01 X15.7119 Y16.0943
G01 X15.7802 Y15.9140
G01 X15.8077 Y15.6873
G01 X15.8051 Y15.6382
G01 X15.8028 Y15.5878
G01 X15.8010 Y15.5190
G01 X15.7996 Y15.3956
G01 X15.8004 Y15.3149
G01 X15.8028 Y15.2328
G01 X15.8065 Y15.1601
G01 X15.8154 Y15.0301
G01 X15.8195 Y14.9817
G01 X15.8230 Y14.9454
G01 X15.8327 Y14.8585
G01 X15.8407 Y14.7972
G01 X15.8602 Y14.6659
G01 X15.8686 Y14.6155
G01 X15.8774 Y14.5666
G01 X15.8944 Y14.4805
G01 X15.9052 Y14.4308
G01 X15.9255 Y14.3421
G01 X15.9427 Y14.2709
G01 X15.9635 Y14.1924
G01 X15.9753 Y14.1501
G01 X15.9905 Y14.0987
G01 X16.0287 Y13.9768
G01 X16.0500 Y13.9124
G01 X16.0818 Y13.8231
G01 X16.0970 Y13.7823
G01 X16.1149 Y13.7364
G01 X16.1638 Y13.6158
G01 X16.1951 Y13.5432
G01 X16.2335 Y13.4590
G01 X16.2620 Y13.3999
G01 X16.3189 Y13.2864
G01 X16.3575 Y13.2134
G01 X16.3838 Y13.1657
G01 X16.4064 Y13.1257
G01 X16.4450 Y13.0602
G01 X16.4933 Y12.9804
G01 X16.5217 Y12.9350
G01 X16.5699 Y12.8609
G01 X16.6159 Y12.7931
G01 X16.6940 Y12.6840
G01 X16.7243 Y12.6429
G01 X16.7578 Y12.5988
G01 X16.7995 Y12.5456
G01 X16.8213 Y12.5185
G01 X16.8508 Y12.4826
G01 X16.9092 Y12.4134
G01 X16.9593 Y12.3555
G01 X17.0148 Y12.2939
G01 X17.0621 Y12.2433
G01 X17.1126 Y12.1914
G01 X17.1726 Y12.1310
G01 X17.2081 Y12.0961
G01 X17.2472 Y12.0589
G01 X17.3121 Y11.9989
G01 X17.3737 Y11.9446
G01 X17.4445 Y11.8837
G01 X17.4820 Y11.8524
G01 X17.5230 Y11.8191
G01 X17.5790 Y11.7749
G01 X17.6077 Y11.7528
G01 X17.6464 Y11.7239
G01 X17.7127 Y11.6753
G01 X17.7742 Y11.6313
G01 X17.8316 Y11.5920
G01 X17.8993 Y11.5473
G01 X17.9600 Y11.5090
G01 X18.0589 Y11.4485
G01 X18.1054 Y11.4212
G01 X18.1380 Y11.4026
G01 X18.1776 Y11.3805
G01 X18.2242 Y11.3551
G01 X18.2731 Y11.3296
G01 X18.3434 Y11.2938
G01 X18.4061 Y11.2626
G01 X18.4862 Y11.2249
G01 X18.5244 Y11.2077
G01 X18.5716 Y11.1870
G01 X18.6970 Y11.1349
G01 X18.7630 Y11.1089
G01 X18.8052 Y11.0931
G01 X18.8636 Y11.0719
G01 X18.9290 Y11.0495
G01 X19.0398 Y11.0136
G01 X19.1012 Y10.9948
G01 X19.1911 Y10.9693
G01 X19.2642 Y10.9501
G01 X19.3753 Y10.9235
G01 X19.4446 Y10.9078
G01 X19.5303 Y10.8904
G01 X19.5704 Y10.8828
G01 X19.6213 Y10.8739
G01 X19.7505 Y10.8536
G01 X19.8210 Y10.8438
G01 X19.9028 Y10.8342
G01 X19.9862 Y10.8260
G01 X20.1009 Y10.8171
G01 X20.1736 Y10.8126
G01 X20.2152 Y10.8107
G01 X20.2766 Y10.8087
G01 X20.3233 Y10.8076
G01 X20.3750 Y10.8070
G01 X42.4317 Y10.8068
G01 X42.4736 Y10.8071
G01 X42.5252 Y10.8082
G01 X42.6399 Y10.8126
G01 X43.1089 Y10.8130
G01 X43.4006 Y10.7465
G01 X43.6462 Y10.6283
G01 X43.8588 Y10.4588
G01 X44.0283 Y10.2462
G01 X44.1468 Y9.9999
G01 X44.1771 Y9.8798
G01 X44.1968 Y9.8087
G01 X44.2144 Y9.7483
G01 X44.2355 Y9.6788
G01 X44.2513 Y9.6301
G01 X44.2713 Y9.5707
G01 X44.2941 Y9.5054
G01 X44.3278 Y9.4154
G01 X44.3517 Y9.3537
G01 X44.3785 Y9.2887
G01 X44.4022 Y9.2331
G01 X44.4216 Y9.1885
G01 X44.4503 Y9.1258
G01 X44.4789 Y9.0653
G01 X44.5111 Y8.9995
G01 X44.5582 Y8.9085
G01 X44.5930 Y8.8437
G01 X44.6185 Y8.7985
G01 X44.6511 Y8.7417
G01 X44.6774 Y8.6970
G01 X44.6976 Y8.6637
G01 X44.7588 Y8.5663
G01 X44.7800 Y8.5336
G01 X44.8090 Y8.4904
G01 X44.8505 Y8.4299
G01 X44.8788 Y8.3896
G01 X44.9005 Y8.3596
G01 X44.9495 Y8.2935
G01 X44.9808 Y8.2521
G01 X45.0264 Y8.1943
G01 X45.0929 Y8.1128
G01 X45.1262 Y8.0734
G01 X45.1971 Y7.9922
G01 X45.2377 Y7.9474
G01 X45.2742 Y7.9085
G01 X45.3414 Y7.8383
G01 X47.3050 Y5.8744
G01 X5.8744 Y5.8744
G01 X5.8744 Y10.8068
G01 X4.6044 Y12.0768
G01 X9.6035 Y12.0768
G01 X9.6547 Y12.0775
G01 X9.7329 Y12.0797
G01 X9.7535 Y12.0804
G01 X9.8069 Y12.0831
G01 X9.8828 Y12.0886
G01 X9.9141 Y12.0916
G01 X10.0146 Y12.1025
G01 X10.0460 Y12.1064
G01 X10.1036 Y12.1146
G01 X10.1413 Y12.1205
G01 X10.1748 Y12.1263
G01 X10.2765 Y12.1457
G01 X10.3083 Y12.1522
G01 X10.3822 Y12.1691
G01 X10.4321 Y12.1816
G01 X10.5358 Y12.2100
G01 X10.5664 Y12.2190
G01 X10.6194 Y12.2354
G01 X10.6552 Y12.2471
G01 X10.6877 Y12.2582
G01 X10.7857 Y12.2937
G01 X10.8197 Y12.3066
G01 X10.8545 Y12.3205
G01 X10.9008 Y12.3397
G01 X10.9314 Y12.3530
G01 X11.0281 Y12.3968
G01 X11.0767 Y12.4200
G01 X11.1262 Y12.4449
G01 X11.1721 Y12.4692
G01 X11.2779 Y12.5278
G01 X11.3166 Y12.5506
G01 X11.3700 Y12.5834
G01 X11.3995 Y12.6022
G01 X11.4870 Y12.6602
G01 X11.5323 Y12.6916
G01 X11.5882 Y12.7321
G01 X11.6153 Y12.7525
G01 X11.6985 Y12.8176
G01 X11.7412 Y12.8524
G01 X11.7984 Y12.9014
G01 X11.8212 Y12.9218
G01 X11.8991 Y12.9935
G01 X11.9380 Y13.0307
G01 X11.9861 Y13.0789
G01 X12.0227 Y13.1174
G01 X12.0845 Y13.1841
G01 X12.1193 Y13.2232
G01 X12.1654 Y13.2776
G01 X12.1966 Y13.3161
G01 X12.2530 Y13.3875
G01 X12.2851 Y13.4300
G01 X12.3265 Y13.4873
G01 X12.3464 Y13.5162
G01 X12.4032 Y13.6012
G01 X12.4331 Y13.6479
G01 X12.4705 Y13.7094
G01 X12.4879 Y13.7395
G01 X12.5368 Y13.8269
G01 X12.5621 Y13.8742
G01 X12.5961 Y13.9417
G01 X12.6184 Y13.9887
G01 X12.6559 Y14.0708
G01 X12.6762 Y14.1177
G01 X12.6949 Y14.1629
G01 X12.7149 Y14.2141
G01 X12.7443 Y14.2943
G01 X12.7633 Y14.3478
G01 X12.7744 Y14.3817
G01 X12.7900 Y14.4310
G01 X12.7994 Y14.4626
G01 X12.8286 Y14.5673
G01 X12.8424 Y14.6211
G01 X12.8534 Y14.6676
G01 X12.8655 Y14.7235
G01 X12.8852 Y14.8254
G01 X12.8916 Y14.8610
G01 X12.9016 Y14.9243
G01 X12.9073 Y14.9656
G01 X12.9211 Y15.0854
G01 X12.9244 Y15.1192
G01 X12.9289 Y15.1760
G01 X12.9313 Y15.2121
G01 X12.9330 Y15.2469
G01 X12.9365 Y15.3496
G01 X12.9371 Y15.3847
G01 X12.9372 Y15.4219
G01 X12.9365 Y15.4779
G01 X12.9355 Y15.5115
G01 X12.9304 Y15.6210
G01 X12.9279 Y15.6592
G01 X12.9231 Y15.7165
G01 X12.9842 Y16.2202
G01 X13.1620 Y16.6888
G01 X13.4468 Y17.1014
G01 X13.8221 Y17.4339
G01 X14.2659 Y17.6669
G01 X14.7527 Y17.7868
G01 X15.2539 Y17.7868
G01 X15.7407 Y17.6669
G01 X16.1845 Y17.4339
G01 X16.5598 Y17.1014
G01 X16.8446 Y16.6888
G01 X17.0224 Y16.2202
G01 X17.0839 Y15.7132
G01 X17.0793 Y15.6642
G01 X17.0767 Y15.6301
G01 X17.0727 Y15.5577
G01 X17.0709 Y15.5018
G01 X17.0696 Y15.3999
G01 X17.0697 Y15.3645
G01 X17.0709 Y15.3127
G01 X17.0720 Y15.2778
G01 X17.0738 Y15.2415
G01 X17.0810 Y15.1348
G01 X17.0856 Y15.0823
G01 X17.0938 Y15.0085
G01 X17.1006 Y14.9588
G01 X17.1134 Y14.8715
G01 X17.1189 Y14.8379
G01 X17.1295 Y14.7805
G01 X17.1362 Y14.7466
G01 X17.1433 Y14.7135
G01 X17.1638 Y14.6239
G01 X17.1745 Y14.5799
G01 X17.1978 Y14.4943
G01 X17.2146 Y14.4388
G01 X17.2393 Y14.3604
G01 X17.2500 Y14.3282
G01 X17.2745 Y14.2593
G01 X17.2935 Y14.2095
G01 X17.3333 Y14.1110
G01 X17.3465 Y14.0799
G01 X17.3610 Y14.0471
G01 X17.3848 Y13.9951
G01 X17.3991 Y13.9656
G01 X17.4455 Y13.8727
G01 X17.4621 Y13.8408
G01 X17.4785 Y13.8104
G01 X17.5043 Y13.7641
G01 X17.5223 Y13.7331
G01 X17.5783 Y13.6405
G01 X17.6094 Y13.5916
G01 X17.6305 Y13.5594
G01 X17.6545 Y13.5240
G01 X17.7247 Y13.4259
G01 X17.7579 Y13.3816
G01 X17.7917 Y13.3384
G01 X17.8234 Y13.2993
G01 X17.8939 Y13.2159
G01 X17.9286 Y13.1767
G01 X17.9772 Y13.1240
G01 X18.0158 Y13.0843
G01 X18.0727 Y13.0270
G01 X18.0964 Y13.0038
G01 X18.1520 Y12.9517
G01 X18.1899 Y12.9178
G01 X18.2700 Y12.8489
G01 X18.2950 Y12.8280
G01 X18.3553 Y12.7800
G01 X18.3969 Y12.7483
G01 X18.4784 Y12.6888
G01 X18.5074 Y12.6683
G01 X18.5380 Y12.6474
G01 X18.5824 Y12.6179
G01 X18.6109 Y12.5997
G01 X18.6856 Y12.5537
G01 X18.7357 Y12.5238
G01 X18.8096 Y12.4823
G01 X18.8492 Y12.4614
G01 X18.9356 Y12.4174
G01 X18.9652 Y12.4029
G01 X19.0262 Y12.3745
G01 X19.0773 Y12.3520
G01 X19.1789 Y12.3099
G01 X19.2118 Y12.2969
G01 X19.2712 Y12.2749
G01 X19.3243 Y12.2564
G01 X19.4272 Y12.2231
G01 X19.4771 Y12.2081
G01 X19.5276 Y12.1939
G01 X19.5783 Y12.1807
G01 X19.6850 Y12.1553
G01 X19.7381 Y12.1439
G01 X19.8033 Y12.1313
G01 X19.8373 Y12.1254
G01 X19.9428 Y12.1089
G01 X20.0002 Y12.1013
G01 X20.0689 Y12.0937
G01 X20.1008 Y12.0908
G01 X20.1971 Y12.0835
G01 X20.2421 Y12.0807
G01 X20.3285 Y12.0777
G01 X20.4031 Y12.0768
G01 X42.4317 Y12.0768
G01 X42.4607 Y12.0771
G01 X42.5026 Y12.0781
G01 X42.6276 Y12.0831
G01 X43.2515 Y12.0831
G01 X43.8232 Y11.9526
G01 X44.3261 Y11.7104
G01 X44.7625 Y11.3625
G01 X45.1104 Y10.9261
G01 X45.3526 Y10.4232
G01 X45.3825 Y10.2932
G01 X45.4036 Y10.2092
G01 X45.4092 Y10.1882
G01 X45.4412 Y10.0784
G01 X45.4582 Y10.0256
G01 X45.4725 Y9.9830
G01 X45.4831 Y9.9522
G01 X45.5013 Y9.9026
G01 X45.5178 Y9.8590
G01 X45.5375 Y9.8090
G01 X45.5674 Y9.7382
G01 X45.5886 Y9.6900
G01 X45.6229 Y9.6168
G01 X45.6378 Y9.5858
G01 X45.6633 Y9.5359
G01 X45.6966 Y9.4725
G01 X45.7240 Y9.4234
G01 X45.7475 Y9.3827
G01 X45.7761 Y9.3343
G01 X45.8124 Y9.2762
G01 X45.8310 Y9.2470
G01 X45.8622 Y9.2001
G01 X45.8917 Y9.1571
G01 X45.9226 Y9.1134
G01 X45.9638 Y9.0577
G01 X45.9979 Y9.0129
G01 X46.0195 Y8.9858
G01 X46.0728 Y8.9206
G01 X46.1435 Y8.8390
G01 X46.1868 Y8.7918
G01 X46.2486 Y8.7270
G01 X46.2684 Y8.7070
G01 X50.3711 Y4.6044
G01 X4.6044 Y4.6044
G01 X4.6044 Y12.0768
G00 Z3.0000
G00 X3.3344 Y13.4028
G01 F190.00
G01 Z-0.2200
G01 F400.00
G01 X3.3477 Y13.3994
G01 X3.3790 Y13.3925
G01 X3.4000 Y13.3881
G01 X3.4212 Y13.3843
G01 X3.5085 Y13.3691
G01 X3.5501 Y13.3633
G01 X3.5670 Y13.3613
G01 X3.6703 Y13.3517
G01 X3.6894 Y13.3504
G01 X3.7345 Y13.3483
G01 X3.8105 Y13.3468
G01 X9.6185 Y13.3470
G01 X9.7130 Y13.3497
G01 X9.7335 Y13.3509
G01 X9.7789 Y13.3544
G01 X9.8269 Y13.3599
G01 X9.8748 Y13.3648
G01 X9.9194 Y13.3711
G01 X9.9404 Y13.3745
G01 X9.9889 Y13.3840
G01 X10.0366 Y13.3928
G01 X10.0815 Y13.4030
G01 X10.1007 Y13.4076
G01 X10.1962 Y13.4338
G01 X10.2583 Y13.4534
G01 X10.3043 Y13.4704
G01 X10.3515 Y13.4871
G01 X10.3726 Y13.4955
G01 X10.4105 Y13.5112
G01 X10.5007 Y13.5521
G01 X10.5597 Y13.5818
G01 X10.6013 Y13.6051
G01 X10.6410 Y13.6266
G01 X10.6559 Y13.6353
G01 X10.7009 Y13.6628
G01 X10.7423 Y13.6905
G01 X10.7835 Y13.7175
G01 X10.8008 Y13.7297
G01 X10.8357 Y13.7551
G01 X10.8746 Y13.7858
G01 X10.8971 Y13.8030
G01 X10.9137 Y13.8161
G01 X10.9497 Y13.8464
G01 X10.9641 Y13.8590
G01 X11.0366 Y13.9256
G01 X11.0815 Y13.9703
G01 X11.1500 Y14.0441
G01 X11.1915 Y14.0926
G01 X11.2535 Y14.1710
G01 X11.2788 Y14.2054
G01 X11.2915 Y14.2233
G01 X11.3038 Y14.2416
G01 X11.3187 Y14.2645
G01 X11.3460 Y14.3049
G01 X11.3692 Y14.3423
G01 X11.3803 Y14.3610
G01 X11.4040 Y14.4039
G01 X11.4277 Y14.4456
G01 X11.4576 Y14.5045
G01 X11.4994 Y14.5955
G01 X11.5236 Y14.6543
G01 X11.5580 Y14.7481
G01 X11.5773 Y14.8083
G01 X11.5905 Y14.8562
G01 X11.5986 Y14.8842
G01 X11.6043 Y14.9048
G01 X11.6094 Y14.9255
G01 X11.6192 Y14.9680
G01 X11.6283 Y15.0164
G01 X11.6381 Y15.0653
G01 X11.6463 Y15.1169
G01 X11.6485 Y15.1340
G01 X11.6532 Y15.1782
G01 X11.6589 Y15.2265
G01 X11.6624 Y15.2702
G01 X11.6638 Y15.2920
G01 X11.6652 Y15.3410
G01 X11.6664 Y15.3684
G01 X11.6671 Y15.3903
G01 X11.6672 Y15.4122
G01 X11.6667 Y15.4559
G01 X11.6620 Y15.5573
G01 X11.6564 Y15.6212
G01 X11.6522 Y15.6593
G01 X11.6445 Y15.7225
G01 X11.7421 Y16.5264
G01 X12.0292 Y17.2834
G01 X12.4892 Y17.9498
G01 X13.0953 Y18.4868
G01 X13.8122 Y18.8631
G01 X14.5985 Y19.0568
G01 X15.4081 Y19.0568
G01 X16.1944 Y18.8631
G01 X16.9113 Y18.4868
G01 X17.5174 Y17.9498
G01 X17.9774 Y17.2834
G01 X18.2645 Y16.5264
G01 X18.3621 Y15.7225
G01 X18.3527 Y15.6436
G01 X18.3490 Y15.5997
G01 X18.3442 Y15.5505
G01 X18.3407 Y15.4846
G01 X18.3404 Y15.4358
G01 X18.3396 Y15.3866
G01 X18.3412 Y15.3229
G01 X18.3480 Y15.2233
G01 X18.3549 Y15.1585
G01 X18.3693 Y15.0603
G01 X18.3815 Y14.9961
G01 X18.3925 Y14.9492
G01 X18.4021 Y14.9058
G01 X18.4064 Y14.8888
G01 X18.4203 Y14.8385
G01 X18.4356 Y14.7909
G01 X18.4500 Y14.7440
G01 X18.4569 Y14.7240
G01 X18.4721 Y14.6825
G01 X18.5093 Y14.5906
G01 X18.5178 Y14.5713
G01 X18.5361 Y14.5313
G01 X18.5580 Y14.4881
G01 X18.5802 Y14.4430
G01 X18.5909 Y14.4232
G01 X18.6111 Y14.3869
G01 X18.6633 Y14.3006
G01 X18.6912 Y14.2579
G01 X18.7012 Y14.2434
G01 X18.7275 Y14.2074
G01 X18.7555 Y14.1679
G01 X18.7684 Y14.1510
G01 X18.7960 Y14.1160
G01 X18.8603 Y14.0400
G01 X18.9040 Y13.9923
G01 X18.9388 Y13.9577
G01 X18.9727 Y13.9230
G01 X18.9877 Y13.9087
G01 X19.0209 Y13.8782
G01 X19.0955 Y13.8140
G01 X19.1475 Y13.7728
G01 X19.1860 Y13.7450
G01 X19.2260 Y13.7154
G01 X19.2444 Y13.7028
G01 X19.2797 Y13.6794
G01 X19.3660 Y13.6263
G01 X19.4102 Y13.6013
G01 X19.4254 Y13.5932
G01 X19.4660 Y13.5728
G01 X19.5095 Y13.5504
G01 X19.5477 Y13.5325
G01 X19.5672 Y13.5237
G01 X19.6607 Y13.4850
G01 X19.7196 Y13.4633
G01 X19.7401 Y13.4566
G01 X19.7679 Y13.4479
G01 X19.8146 Y13.4326
G01 X19.8573 Y13.4203
G01 X19.8768 Y13.4151
G01 X19.9539 Y13.3967
G01 X19.9743 Y13.3919
G01 X19.9948 Y13.3877
G01 X20.0363 Y13.3797
G01 X20.0854 Y13.3723
G01 X20.1351 Y13.3643
G01 X20.1995 Y13.3570
G01 X20.2477 Y13.3536
G01 X20.2932 Y13.3498
G01 X20.3106 Y13.3489
G01 X20.3610 Y13.3473
G01 X20.4031 Y13.3468
G01 X42.4317 Y13.3468
G01 X42.4639 Y13.3475
G01 X42.5625 Y13.3515
G01 X42.5912 Y13.3531
G01 X43.3946 Y13.3531
G01 X43.9424 Y13.2281
G01 X43.9790 Y13.2201
G01 X44.0051 Y13.2137
G01 X44.2453 Y13.1589
G01 X45.0060 Y12.7926
G01 X45.6662 Y12.2662
G01 X46.1926 Y11.6060
G01 X46.5589 Y10.8453
G01 X46.6176 Y10.5888
G01 X46.6237 Y10.5661
G01 X46.6302 Y10.5386
G01 X46.6358 Y10.5176
G01 X46.6449 Y10.4875
G01 X46.6532 Y10.4576
G01 X46.6596 Y10.4372
G01 X46.6697 Y10.4082
G01 X46.6789 Y10.3800
G01 X46.6857 Y10.3608
G01 X46.6970 Y10.3320
G01 X46.7078 Y10.3026
G01 X46.7155 Y10.2834
G01 X46.7276 Y10.2558
G01 X46.7389 Y10.2285
G01 X46.7472 Y10.2100
G01 X46.7607 Y10.1822
G01 X46.7742 Y10.1529
G01 X46.7838 Y10.1336
G01 X46.7975 Y10.1081
G01 X46.8106 Y10.0824
G01 X46.8210 Y10.0634
G01 X46.8370 Y10.0362
G01 X46.8525 Y10.0087
G01 X46.8636 Y9.9902
G01 X46.8790 Y9.9663
G01 X46.8938 Y9.9422
G01 X46.9056 Y9.9240
G01 X46.9246 Y9.8970
G01 X46.9423 Y9.8706
G01 X46.9543 Y9.8539
G01 X46.9713 Y9.8316
G01 X46.9885 Y9.8080
G01 X47.0018 Y9.7909
G01 X47.0230 Y9.7653
G01 X47.0425 Y9.7407
G01 X47.0554 Y9.7255
G01 X47.0736 Y9.7052
G01 X47.0900 Y9.6859
G01 X47.1018 Y9.6726
G01 X47.1664 Y9.6050
G01 X53.4371 Y3.3344
G01 X3.3344 Y3.3344
G01 X3.3344 Y13.4028
G00 Z3.0000
G00 X11.0501 Y8.4150
G01 F190.00
G01 Z-0.2200
G01 F400.00
G01 X11.1113 Y8.4278
G01 X11.1787 Y8.4427
G01 X11.2692 Y8.4638
G01 X11.3345 Y8.4798
G01 X11.3957 Y8.4955
G01 X11.4606 Y8.5129
G01 X11.5662 Y8.5420
G01 X11.6428 Y8.5642
G01 X11.7076 Y8.5838
G01 X11.7719 Y8.6039
G01 X11.8256 Y8.6212
G01 X11.8908 Y8.6430
G01 X11.9638 Y8.6683
G01 X12.0649 Y8.7047
G01 X12.1225 Y8.7259
G01 X12.1862 Y8.7501
G01 X12.2522 Y8.7760
G01 X12.3220 Y8.8044
G01 X12.3835 Y8.8300
G01 X12.4486 Y8.8580
G01 X12.5133 Y8.8868
G01 X12.6103 Y8.9308
G01 X12.6553 Y8.9517
G01 X12.7189 Y8.9820
G01 X12.7784 Y9.0112
G01 X12.8468 Y9.0456
G01 X12.9390 Y9.0935
G01 X12.9989 Y9.1257
G01 X13.1013 Y9.1822
G01 X13.1616 Y9.2161
G01 X13.2155 Y9.2472
G01 X13.2750 Y9.2825
G01 X13.3427 Y9.3236
G01 X13.3923 Y9.3544
G01 X13.4551 Y9.3943
G01 X13.5137 Y9.4326
G01 X13.6012 Y9.4906
G01 X13.6678 Y9.5358
G01 X13.7096 Y9.5649
G01 X13.7643 Y9.6037
G01 X13.8238 Y9.6467
G01 X13.8732 Y9.6833
G01 X13.9273 Y9.7242
G01 X13.9726 Y9.7592
G01 X14.0660 Y9.8324
G01 X14.1221 Y9.8776
G01 X14.1745 Y9.9207
G01 X14.2134 Y9.9534
G01 X14.2839 Y10.0138
G01 X14.3271 Y10.0516
G01 X14.3813 Y10.1001
G01 X14.4671 Y10.1788
G01 X14.5110 Y10.2197
G01 X14.5591 Y10.2653
G01 X14.6068 Y10.3116
G01 X14.6588 Y10.3632
G01 X14.7028 Y10.4076
G01 X14.7567 Y10.4634
G01 X14.7876 Y10.4960
G01 X14.8688 Y10.5833
G01 X14.9096 Y10.6278
G01 X14.9633 Y10.6878
G01 X15.0034 Y10.7338
G01 X15.0556 Y10.6739
G01 X15.1010 Y10.6231
G01 X15.1520 Y10.5672
G01 X15.2056 Y10.5097
G01 X15.2556 Y10.4575
G01 X15.2913 Y10.4209
G01 X15.3755 Y10.3361
G01 X15.4316 Y10.2808
G01 X15.4674 Y10.2462
G01 X15.5156 Y10.2006
G01 X15.5801 Y10.1408
G01 X15.6294 Y10.0961
G01 X15.6733 Y10.0572
G01 X15.7176 Y10.0188
G01 X15.7967 Y9.9508
G01 X15.8590 Y9.8985
G01 X15.9094 Y9.8573
G01 X15.9474 Y9.8268
G01 X16.0137 Y9.7745
G01 X16.0711 Y9.7304
G01 X16.1355 Y9.6821
G01 X16.2173 Y9.6222
G01 X16.2678 Y9.5857
G01 X16.3224 Y9.5471
G01 X16.3715 Y9.5132
G01 X16.4188 Y9.4811
G01 X16.4729 Y9.4452
G01 X16.5331 Y9.4060
G01 X16.6008 Y9.3631
G01 X16.6942 Y9.3056
G01 X16.7518 Y9.2706
G01 X16.8021 Y9.2409
G01 X16.8643 Y9.2050
G01 X16.9266 Y9.1698
G01 X16.9843 Y9.1380
G01 X17.0353 Y9.1106
G01 X17.1085 Y9.0723
G01 X17.2140 Y9.0186
G01 X17.2583 Y8.9965
G01 X17.3213 Y8.9658
G01 X17.3823 Y8.9370
G01 X17.4495 Y8.9060
G01 X17.5129 Y8.8777
G01 X17.5720 Y8.8520
G01 X17.6293 Y8.8278
G01 X17.7374 Y8.7831
G01 X17.7826 Y8.7650
G01 X17.8487 Y8.7392
G01 X17.9141 Y8.7145
G01 X17.9771 Y8.6914
G01 X18.0402 Y8.6690
G01 X18.1015 Y8.6480
G01 X18.1611 Y8.6282
G01 X18.2688 Y8.5935
G01 X18.3417 Y8.5709
G01 X18.3878 Y8.5571
G01 X18.4539 Y8.5380
G01 X18.5232 Y8.5187
G01 X18.5891 Y8.5011
G01 X18.6476 Y8.4861
G01 X18.7083 Y8.4713
G01 X18.8211 Y8.4445
G01 X18.8987 Y8.4272
G01 X18.9494 Y8.4164
G01 X11.0501 Y8.4150
G00 Z3.0000
G00 X3.3344 Y61.6980
G01 F190.00
G01 Z-0.2200
G01 F400.00
G01 X3.3344 Y161.7656
G01 X71.6523 Y161.7656
G01 X71.6489 Y161.7523
G01 X71.6420 Y161.7210
G01 X71.6376 Y161.7000
G01 X71.6338 Y161.6788
G01 X71.6186 Y161.5915
G01 X71.6128 Y161.5499
G01 X71.6108 Y161.5330
G01 X71.6012 Y161.4297
G01 X71.5999 Y161.4106
G01 X71.5978 Y161.3655
G01 X71.5963 Y161.2895
G01 X71.5963 Y73.2448
G01 X60.1052 Y61.7537
G01 X3.8105 Y61.7537
G01 X3.7650 Y61.7531
G01 X3.6779 Y61.7490
G01 X3.6390 Y61.7465
G01 X3.6020 Y61.7431
G01 X3.4947 Y61.7294
G01 X3.4736 Y61.7260
G01 X3.4381 Y61.7197
G01 X3.3344 Y61.6980
G01 X4.6044 Y63.0237
G01 X4.6044 Y160.4956
G01 X70.3263 Y160.4956
G01 X70.3263 Y73.7708
G01 X59.5792 Y63.0237
G01 X4.6044 Y63.0237
G00 Z3.0000
G00 X12.2244 Y78.1131
G01 F190.00
G01 Z-0.2200
G01 F400.00
G01 X12.3303 Y78.1228
G01 X12.4513 Y78.1351
G01 X12.4512 Y77.0000
G01 X12.4519 Y76.8943
G01 X12.4530 Y76.8169
G01 X12.4546 Y76.7468
G01 X12.4586 Y76.6242
G01 X12.4650 Y76.4860
G01 X12.4722 Y76.3635
G01 X12.4808 Y76.2450
G01 X12.4902 Y76.1325
G01 X12.5018 Y76.0121
G01 X12.5140 Y75.8998
G01 X12.5277 Y75.7858
G01 X12.5425 Y75.6738
G01 X12.5604 Y75.5504
G01 X12.5780 Y75.4387
G01 X12.5989 Y75.3158
G01 X12.6192 Y75.2047
G01 X12.6431 Y75.0823
G01 X12.6653 Y74.9754
G01 X12.6922 Y74.8537
G01 X12.7178 Y74.7436
G01 X12.7477 Y74.6226
G01 X12.7746 Y74.5188
G01 X12.7957 Y72.2843
G01 X12.7970 Y72.1972
G01 X12.7991 Y72.1135
G01 X12.8012 Y72.0454
G01 X12.8048 Y71.9571
G01 X12.8094 Y71.8614
G01 X12.8137 Y71.7836
G01 X12.8181 Y71.7123
G01 X12.8247 Y71.6210
G01 X12.8305 Y71.5471
G01 X12.8368 Y71.4754
G01 X12.8455 Y71.3842
G01 X12.8532 Y71.3105
G01 X12.8612 Y71.2390
G01 X12.8722 Y71.1481
G01 X12.8817 Y71.0746
G01 X12.8917 Y71.0014
G01 X12.9072 Y70.8948
G01 X12.9183 Y70.8218
G01 X12.9313 Y70.7409
G01 X12.9441 Y70.6655
G01 X12.2244 Y70.6593
G01 X12.2244 Y78.1131
G01 X10.9544 Y79.3505
G01 X11.0332 Y79.3476
G01 X11.1228 Y79.3452
G01 X11.2095 Y79.3438
G01 X11.2786 Y79.3434
G01 X11.3683 Y79.3436
G01 X11.4433 Y79.3445
G01 X11.5358 Y79.3465
G01 X11.6224 Y79.3494
G01 X11.7040 Y79.3528
G01 X11.8425 Y79.3597
G01 X11.9312 Y79.3648
G01 X12.0021 Y79.3696
G01 X12.0944 Y79.3767
G01 X12.1836 Y79.3845
G01 X12.2728 Y79.3933
G01 X12.3619 Y79.4031
G01 X12.4586 Y79.4147
G01 X12.5483 Y79.4266
G01 X12.6254 Y79.4375
G01 X12.7588 Y79.4573
G01 X12.8474 Y79.4712
G01 X12.9128 Y79.4821
G01 X13.0010 Y79.4976
G01 X13.0776 Y79.5118
G01 X13.1656 Y79.5291
G01 X13.2333 Y79.5430
G01 X13.3180 Y79.5613
G01 X13.4083 Y79.5818
G01 X13.4774 Y79.5982
G01 X13.5435 Y79.6144
G01 X13.6743 Y79.6473
G01 X13.7779 Y79.6744
G01 X13.7662 Y79.5683
G01 X13.7557 Y79.4597
G01 X13.7471 Y79.3578
G01 X13.7396 Y79.2538
G01 X13.7334 Y79.1518
G01 X13.7283 Y79.0428
G01 X13.7248 Y78.9425
G01 X13.7224 Y78.8364
G01 X13.7216 Y78.7664
G01 X13.7213 Y78.7021
G01 X13.7213 Y76.9865
G01 X13.7218 Y76.9124
G01 X13.7230 Y76.8325
G01 X13.7250 Y76.7507
G01 X13.7278 Y76.6699
G01 X13.7338 Y76.5414
G01 X13.7415 Y76.4170
G01 X13.7512 Y76.2917
G01 X13.7574 Y76.2219
G01 X13.7634 Y76.1598
G01 X13.7767 Y76.0358
G01 X13.7924 Y75.9082
G01 X13.8084 Y75.7924
G01 X13.8264 Y75.6740
G01 X13.8378 Y75.6048
G01 X13.8484 Y75.5434
G01 X13.8694 Y75.4284
G01 X13.8954 Y75.2975
G01 X13.9205 Y75.1803
G01 X13.9352 Y75.1148
G01 X13.9512 Y75.0465
G01 X13.9799 Y74.9301
G01 X14.0094 Y74.8170
G01 X14.0311 Y74.7381
G01 X14.0464 Y74.6836
G01 X14.0653 Y72.3258
G01 X14.0662 Y72.2575
G01 X14.0673 Y72.2001
G01 X14.0695 Y72.1183
G01 X14.0721 Y72.0473
G01 X14.0749 Y71.9831
G01 X14.0789 Y71.9030
G01 X14.0836 Y71.8241
G01 X14.0878 Y71.7609
G01 X14.0932 Y71.6880
G01 X14.0991 Y71.6181
G01 X14.1051 Y71.5522
G01 X14.1121 Y71.4824
G01 X14.1205 Y71.4049
G01 X14.1279 Y71.3421
G01 X14.1385 Y71.2580
G01 X14.1480 Y71.1876
G01 X14.1571 Y71.1240
G01 X14.1690 Y71.0446
G01 X14.1821 Y70.9617
G01 X14.1930 Y70.8964
G01 X14.2072 Y70.8158
G01 X14.2183 Y70.7555
G01 X14.2309 Y70.6905
G01 X14.2471 Y70.6102
G01 X14.2632 Y70.5340
G01 X14.2820 Y70.4494
G01 X14.2970 Y70.3849
G01 X14.3161 Y70.3055
G01 X14.3360 Y70.2256
G01 X14.3696 Y70.0964
G01 X14.3926 Y70.0128
G01 X14.4107 Y69.9491
G01 X14.4312 Y69.8790
G01 X14.4541 Y69.8034
G01 X14.4712 Y69.7486
G01 X14.4950 Y69.6744
G01 X14.5197 Y69.5995
G01 X14.5436 Y69.5295
G01 X14.5648 Y69.4689
G01 X14.5933 Y69.3891
G01 X10.9544 Y69.3783
G01 X10.9544 Y79.3505
G01 X9.6844 Y80.7755
G01 X9.7666 Y80.7593
G01 X9.8451 Y80.7448
G01 X9.9219 Y80.7314
G01 X10.0017 Y80.7185
G01 X10.1552 Y80.6955
G01 X10.2237 Y80.6857
G01 X10.3058 Y80.6748
G01 X10.4005 Y80.6635
G01 X10.4800 Y80.6549
G01 X10.5633 Y80.6469
G01 X10.6410 Y80.6404
G01 X10.7168 Y80.6348
G01 X10.8218 Y80.6284
G01 X10.9525 Y80.6219
G01 X11.0216 Y80.6188
G01 X11.0887 Y80.6165
G01 X11.1666 Y80.6146
G01 X11.2485 Y80.6135
G01 X11.3400 Y80.6134
G01 X11.4238 Y80.6143
G01 X11.5095 Y80.6163
G01 X11.5864 Y80.6189
G01 X11.6526 Y80.6218
G01 X11.8027 Y80.6294
G01 X11.8892 Y80.6348
G01 X11.9650 Y80.6404
G01 X12.0427 Y80.6469
G01 X12.1241 Y80.6547
G01 X12.1997 Y80.6628
G01 X12.2616 Y80.6701
G01 X12.3389 Y80.6798
G01 X12.4277 Y80.6921
G01 X12.5571 Y80.7112
G01 X12.6178 Y80.7206
G01 X12.6918 Y80.7327
G01 X12.7762 Y80.7475
G01 X12.8566 Y80.7626
G01 X12.9312 Y80.7774
G01 X13.0074 Y80.7934
G01 X13.0873 Y80.8111
G01 X13.1641 Y80.8291
G01 X13.2332 Y80.8459
G01 X13.3630 Y80.8785
G01 X13.4657 Y80.9055
G01 X13.5408 Y80.9263
G01 X13.6194 Y80.9490
G01 X13.7033 Y80.9744
G01 X13.7851 Y81.0001
G01 X13.8702 Y81.0281
G01 X13.9495 Y81.0552
G01 X14.0985 Y81.1082
G01 X14.1607 Y81.1308
G01 X14.2337 Y81.1582
G01 X14.3154 Y81.1899
G01 X14.3895 Y81.2196
G01 X14.4597 Y81.2487
G01 X14.5314 Y81.2793
G01 X14.6081 Y81.3130
G01 X14.6782 Y81.3448
G01 X14.7453 Y81.3760
G01 X14.8565 Y81.4287
G01 X14.9398 Y81.4691
G01 X15.0268 Y81.5128
G01 X15.1130 Y81.5574
G01 X15.2026 Y81.5110
G01 X15.2950 Y81.4648
G01 X15.3712 Y81.4279
G01 X15.5066 Y81.3639
G01 X15.4777 Y81.2910
G01 X15.4451 Y81.2054
G01 X15.4195 Y81.1360
G01 X15.3901 Y81.0534
G01 X15.3623 Y80.9723
G01 X15.3349 Y80.8890
G01 X15.3149 Y80.8258
G01 X15.2899 Y80.7439
G01 X15.2664 Y80.6635
G01 X15.2418 Y80.5753
G01 X15.2208 Y80.4962
G01 X15.2016 Y80.4206
G01 X15.1869 Y80.3601
G01 X15.1683 Y80.2804
G01 X15.1498 Y80.1967
G01 X15.1328 Y80.1147
G01 X15.1170 Y80.0344
G01 X15.1022 Y79.9539
G01 X15.0870 Y79.8656
G01 X15.0745 Y79.7867
G01 X15.0630 Y79.7096
G01 X15.0522 Y79.6305
G01 X15.0411 Y79.5416
G01 X15.0319 Y79.4603
G01 X15.0227 Y79.3692
G01 X15.0162 Y79.2954
G01 X15.0091 Y79.2041
G01 X15.0040 Y79.1264
G01 X14.9991 Y79.0330
G01 X14.9958 Y78.9532
G01 X14.9931 Y78.8597
G01 X14.9920 Y78.7974
G01 X14.9913 Y78.7010
G01 X14.9912 Y77.0000
G01 X14.9916 Y76.9308
G01 X14.9926 Y76.8617
G01 X14.9943 Y76.7935
G01 X14.9965 Y76.7273
G01 X14.9988 Y76.6728
G01 X15.0028 Y76.5950
G01 X15.0063 Y76.5367
G01 X15.0118 Y76.4589
G01 X15.0163 Y76.4026
G01 X15.0242 Y76.3153
G01 X15.0361 Y76.2010
G01 X15.0479 Y76.1023
G01 X15.0600 Y76.0116
G01 X15.0742 Y75.9152
G01 X15.0899 Y75.8171
G01 X15.1070 Y75.7192
G01 X15.1252 Y75.6235
G01 X15.1442 Y75.5300
G01 X15.1688 Y75.4177
G01 X15.1905 Y75.3248
G01 X15.2145 Y75.2283
G01 X15.2403 Y75.1304
G01 X15.2670 Y75.0347
G01 X15.2927 Y74.9468
G01 X15.3251 Y74.8419
G01 X15.3351 Y72.3676
G01 X15.3361 Y72.2692
G01 X15.3383 Y72.1777
G01 X15.3414 Y72.0901
G01 X15.3465 Y71.9827
G01 X15.3520 Y71.8893
G01 X15.3587 Y71.7960
G01 X15.3657 Y71.7126
G01 X15.3747 Y71.6195
G01 X15.3840 Y71.5343
G01 X15.3978 Y71.4221
G01 X15.4129 Y71.3131
G01 X15.4315 Y71.1914
G01 X15.4414 Y71.1308
G01 X15.4530 Y71.0636
G01 X15.4726 Y70.9583
G01 X15.4941 Y70.8513
G01 X15.5076 Y70.7885
G01 X15.5199 Y70.7333
G01 X15.5432 Y70.6338
G01 X15.5730 Y70.5143
G01 X15.6021 Y70.4041
G01 X15.6192 Y70.3421
G01 X15.6369 Y70.2803
G01 X15.6683 Y70.1758
G01 X15.7006 Y70.0737
G01 X15.7363 Y69.9665
G01 X15.7596 Y69.8993
G01 X15.7827 Y69.8347
G01 X15.8206 Y69.7314
G01 X15.8626 Y69.6223
G01 X15.8998 Y69.5302
G01 X15.9222 Y69.4762
G01 X15.9466 Y69.4188
G01 X15.9905 Y69.3190
G01 X16.0400 Y69.2109
G01 X16.0946 Y69.0962
G01 X16.1186 Y69.0472
G01 X16.1499 Y68.9845
G01 X16.1954 Y68.8962
G01 X16.2505 Y68.7931
G01 X16.3005 Y68.7028
G01 X16.3353 Y68.6418
G01 X16.3622 Y68.5955
G01 X16.4294 Y68.4828
G01 X16.4838 Y68.3943
G01 X16.5496 Y68.2909
G01 X16.5853 Y68.2364
G01 X16.6162 Y68.1902
G01 X16.6714 Y68.1093
G01 X9.6844 Y68.1045
G01 X9.6844 Y80.7755
G01 X8.4144 Y82.5191
G01 X8.5055 Y82.4773
G01 X8.5911 Y82.4396
G01 X8.6917 Y82.3974
G01 X8.7858 Y82.3599
G01 X8.8440 Y82.3376
G01 X8.8933 Y82.3192
G01 X9.0458 Y82.2645
G01 X9.1397 Y82.2321
G01 X9.2435 Y82.1984
G01 X9.3516 Y82.1655
G01 X9.3965 Y82.1525
G01 X9.4603 Y82.1347
G01 X9.5582 Y82.1088
G01 X9.6927 Y82.0750
G01 X9.7875 Y82.0525
G01 X9.8788 Y82.0322
G01 X9.9780 Y82.0119
G01 X10.0699 Y81.9947
G01 X10.1582 Y81.9796
G01 X10.2429 Y81.9663
G01 X10.3956 Y81.9440
G01 X10.4535 Y81.9363
G01 X10.5154 Y81.9286
G01 X10.6083 Y81.9184
G01 X10.7131 Y81.9087
G01 X10.8180 Y81.9009
G01 X10.9133 Y81.8953
G01 X11.0537 Y81.8886
G01 X11.1433 Y81.8855
G01 X11.2056 Y81.8841
G01 X11.2523 Y81.8835
G01 X11.3653 Y81.8836
G01 X11.4744 Y81.8858
G01 X11.5737 Y81.8895
G01 X11.7355 Y81.8976
G01 X11.7880 Y81.9009
G01 X11.8541 Y81.9056
G01 X11.9473 Y81.9135
G01 X12.0403 Y81.9229
G01 X12.1486 Y81.9358
G01 X12.2413 Y81.9484
G01 X12.3843 Y81.9696
G01 X12.4785 Y81.9847
G01 X12.5361 Y81.9947
G01 X12.5897 Y82.0046
G01 X12.6967 Y82.0258
G01 X12.7425 Y82.0355
G01 X12.8033 Y82.0490
G01 X12.8849 Y82.0681
G01 X13.0421 Y82.1073
G01 X13.1382 Y82.1326
G01 X13.2432 Y82.1622
G01 X13.3328 Y82.1891
G01 X13.4219 Y82.2174
G01 X13.5234 Y82.2516
G01 X13.6761 Y82.3059
G01 X13.7584 Y82.3362
G01 X13.8601 Y82.3755
G01 X13.9576 Y82.4152
G01 X14.0471 Y82.4536
G01 X14.1466 Y82.4982
G01 X14.2951 Y82.5680
G01 X14.3705 Y82.6044
G01 X14.4506 Y82.6445
G01 X14.5370 Y82.6895
G01 X14.6261 Y82.7378
G01 X14.7210 Y82.7915
G01 X14.7966 Y82.8359
G01 X14.9404 Y82.9225
G01 X15.0329 Y82.9805
G01 X15.1130 Y83.0327
G01 X15.1734 Y82.9931
G01 X15.2326 Y82.9554
G01 X15.2872 Y82.9215
G01 X15.3388 Y82.8901
G01 X15.4394 Y82.8299
G01 X15.5050 Y82.7915
G01 X15.5761 Y82.7511
G01 X15.6478 Y82.7116
G01 X15.7028 Y82.6822
G01 X15.7615 Y82.6516
G01 X15.8276 Y82.6182
G01 X15.8905 Y82.5874
G01 X16.0652 Y82.5047
G01 X16.1290 Y82.4757
G01 X16.1967 Y82.4458
G01 X16.2613 Y82.4183
G01 X16.3333 Y82.3886
G01 X16.3949 Y82.3641
G01 X16.4640 Y82.3376
G01 X16.5389 Y82.3099
G01 X16.6548 Y82.2684
G01 X16.7081 Y82.2497
G01 X16.7708 Y82.2284
G01 X16.8338 Y82.2078
G01 X16.8969 Y82.1880
G01 X16.9678 Y82.1666
G01 X17.0315 Y82.1482
G01 X17.0915 Y82.1316
G01 X17.1556 Y82.1146
G01 X17.3256 Y82.0719
G01 X17.2686 Y81.9891
G01 X17.2168 Y81.9112
G01 X17.1622 Y81.8259
G01 X17.1110 Y81.7430
G01 X17.0554 Y81.6492
G01 X17.0091 Y81.5680
G01 X16.9641 Y81.4860
G01 X16.9330 Y81.4275
G01 X16.9114 Y81.3860
G01 X16.8625 Y81.2885
G01 X16.8186 Y81.1972
G01 X16.7779 Y81.1087
G01 X16.7418 Y81.0267
G01 X16.7010 Y80.9297
G01 X16.6662 Y80.8430
G01 X16.6328 Y80.7556
G01 X16.5955 Y80.6531
G01 X16.5639 Y80.5610
G01 X16.5326 Y80.4646
G01 X16.5053 Y80.3752
G01 X16.4793 Y80.2854
G01 X16.4518 Y80.1838
G01 X16.4262 Y80.0818
G01 X16.4144 Y80.0325
G01 X16.4006 Y79.9717
G01 X16.3835 Y79.8917
G01 X16.3630 Y79.7885
G01 X16.3452 Y79.6888
G01 X16.3295 Y79.5927
G01 X16.3161 Y79.5001
G01 X16.3031 Y79.3997
G01 X16.2923 Y79.3029
G01 X16.2821 Y79.1942
G01 X16.2750 Y79.1010
G01 X16.2698 Y79.0154
G01 X16.2656 Y78.9259
G01 X16.2626 Y78.8247
G01 X16.2614 Y78.7390
G01 X16.2613 Y76.9942
G01 X16.2625 Y76.8831
G01 X16.2639 Y76.8247
G01 X16.2661 Y76.7624
G01 X16.2718 Y76.6495
G01 X16.2758 Y76.5873
G01 X16.2808 Y76.5213
G01 X16.2881 Y76.4398
G01 X16.2986 Y76.3390
G01 X16.3094 Y76.2501
G01 X16.3226 Y76.1536
G01 X16.3381 Y76.0535
G01 X16.3560 Y75.9498
G01 X16.3712 Y75.8694
G01 X16.3835 Y75.8083
G01 X16.3931 Y75.7625
G01 X16.4144 Y75.6675
G01 X16.4336 Y75.5879
G01 X16.4588 Y75.4898
G01 X16.4867 Y75.3884
G01 X16.5097 Y75.3099
G01 X16.5280 Y75.2503
G01 X16.5421 Y75.2057
G01 X16.5739 Y75.1095
G01 X16.6030 Y75.0259
G01 X16.6052 Y72.3491
G01 X16.6059 Y72.2926
G01 X16.6073 Y72.2303
G01 X16.6111 Y72.1251
G01 X16.6173 Y72.0041
G01 X16.6209 Y71.9477
G01 X16.6252 Y71.8895
G01 X16.6308 Y71.8235
G01 X16.6384 Y71.7459
G01 X16.6456 Y71.6801
G01 X16.6550 Y71.6027
G01 X16.6649 Y71.5293
G01 X16.6783 Y71.4384
G01 X16.6892 Y71.3691
G01 X16.7016 Y71.2961
G01 X16.7099 Y71.2501
G01 X16.7223 Y71.1850
G01 X16.7370 Y71.1125
G01 X16.7518 Y71.0439
G01 X16.7665 Y70.9793
G01 X16.7833 Y70.9092
G01 X16.8028 Y70.8314
G01 X16.8220 Y70.7579
G01 X16.8416 Y70.6865
G01 X16.8599 Y70.6228
G01 X16.8824 Y70.5482
G01 X16.9023 Y70.4850
G01 X16.9266 Y70.4110
G01 X16.9461 Y70.3538
G01 X16.9774 Y70.2653
G01 X16.9981 Y70.2086
G01 X17.0207 Y70.1484
G01 X17.0490 Y70.0758
G01 X17.0738 Y70.0144
G01 X17.1008 Y69.9496
G01 X17.1270 Y69.8888
G01 X17.1572 Y69.8212
G01 X17.1815 Y69.7681
G01 X17.2148 Y69.6972
G01 X17.2402 Y69.6445
G01 X17.2686 Y69.5869
G01 X17.3003 Y69.5243
G01 X17.3309 Y69.4656
G01 X17.3659 Y69.4003
G01 X17.3979 Y69.3423
G01 X17.4364 Y69.2746
G01 X17.4658 Y69.2241
G01 X17.5084 Y69.1528
G01 X17.5418 Y69.0979
G01 X17.5743 Y69.0459
G01 X17.6176 Y68.9781
G01 X17.6513 Y68.9269
G01 X17.6941 Y68.8634
G01 X17.7312 Y68.8098
G01 X17.7778 Y68.7442
G01 X17.8207 Y68.6854
G01 X17.8720 Y68.6164
G01 X17.9157 Y68.5591
G01 X17.9541 Y68.5100
G01 X17.9954 Y68.4582
G01 X18.0423 Y68.4009
G01 X18.0848 Y68.3501
G01 X18.1279 Y68.2999
G01 X18.1716 Y68.2501
G01 X18.2119 Y68.2051
G01 X18.2685 Y68.1428
G01 X18.3177 Y68.0901
G01 X18.3580 Y68.0478
G01 X18.4056 Y67.9989
G01 X18.5333 Y67.8708
G01 X18.5289 Y67.8106
G01 X18.5247 Y67.7445
G01 X18.5162 Y67.5749
G01 X18.5125 Y67.4697
G01 X18.5110 Y67.4035
G01 X18.5104 Y67.3412
G01 X18.5104 Y67.2827
G01 X18.5109 Y67.2243
G01 X18.5135 Y67.1152
G01 X18.5173 Y67.0218
G01 X18.5230 Y66.9066
G01 X18.5273 Y66.8337
G01 X8.4144 Y66.8337
G01 X8.4144 Y82.5191
G01 X7.1444 Y84.9950
G01 X7.2050 Y84.9284
G01 X7.2611 Y84.8689
G01 X7.3018 Y84.8269
G01 X7.3569 Y84.7718
G01 X7.3989 Y84.7311
G01 X7.4584 Y84.6750
G01 X7.4929 Y84.6434
G01 X7.5919 Y84.5539
G01 X7.6317 Y84.5188
G01 X7.6842 Y84.4737
G01 X7.7235 Y84.4408
G01 X7.7878 Y84.3885
G01 X7.8375 Y84.3495
G01 X7.8813 Y84.3159
G01 X8.0212 Y84.2120
G01 X8.0686 Y84.1778
G01 X8.1261 Y84.1376
G01 X8.1938 Y84.0918
G01 X8.2427 Y84.0598
G01 X8.2954 Y84.0263
G01 X8.3451 Y83.9956
G01 X8.4606 Y83.9262
G01 X8.5143 Y83.8946
G01 X8.5685 Y83.8637
G01 X8.6128 Y83.8391
G01 X8.6677 Y83.8096
G01 X8.7195 Y83.7825
G01 X8.7751 Y83.7544
G01 X8.8241 Y83.7304
G01 X8.9741 Y83.6594
G01 X9.0272 Y83.6351
G01 X9.0914 Y83.6069
G01 X9.1668 Y83.5752
G01 X9.2211 Y83.5533
G01 X9.2938 Y83.5253
G01 X9.3486 Y83.5050
G01 X9.4681 Y83.4622
G01 X9.5270 Y83.4418
G01 X9.5862 Y83.4221
G01 X9.6345 Y83.4068
G01 X9.6941 Y83.3886
G01 X9.7577 Y83.3701
G01 X9.8178 Y83.3536
G01 X9.8743 Y83.3388
G01 X9.9899 Y83.3098
G01 X10.0505 Y83.2952
G01 X10.1113 Y83.2813
G01 X10.1685 Y83.2690
G01 X10.2296 Y83.2568
G01 X10.2947 Y83.2447
G01 X10.3561 Y83.2341
G01 X10.4139 Y83.2249
G01 X10.5395 Y83.2063
G01 X10.6012 Y83.1977
G01 X10.6631 Y83.1900
G01 X10.7134 Y83.1843
G01 X10.7754 Y83.1781
G01 X10.8259 Y83.1737
G01 X10.8881 Y83.1690
G01 X10.9347 Y83.1660
G01 X11.0927 Y83.1581
G01 X11.1667 Y83.1553
G01 X11.2368 Y83.1538
G01 X11.3186 Y83.1533
G01 X11.3770 Y83.1539
G01 X11.4549 Y83.1558
G01 X11.5133 Y83.1581
G01 X11.6402 Y83.1643
G01 X11.7024 Y83.1680
G01 X11.7646 Y83.1725
G01 X11.8150 Y83.1767
G01 X11.8771 Y83.1827
G01 X11.9429 Y83.1900
G01 X12.0048 Y83.1977
G01 X12.0627 Y83.2057
G01 X12.1806 Y83.2232
G01 X12.2422 Y83.2328
G01 X12.3036 Y83.2433
G01 X12.3611 Y83.2538
G01 X12.4375 Y83.2690
G01 X12.4947 Y83.2813
G01 X12.5555 Y83.2952
G01 X12.6161 Y83.3098
G01 X12.7317 Y83.3388
G01 X12.8032 Y83.3576
G01 X12.8633 Y83.3744
G01 X12.9119 Y83.3886
G01 X12.9715 Y83.4068
G01 X13.0198 Y83.4221
G01 X13.0790 Y83.4418
G01 X13.1195 Y83.4557
G01 X13.2830 Y83.5144
G01 X13.3341 Y83.5336
G01 X13.4103 Y83.5634
G01 X13.4751 Y83.5901
G01 X13.5360 Y83.6162
G01 X13.5930 Y83.6415
G01 X13.6496 Y83.6676
G01 X13.7608 Y83.7203
G01 X13.8309 Y83.7544
G01 X13.8865 Y83.7825
G01 X13.9315 Y83.8059
G01 X13.9864 Y83.8354
G01 X14.0375 Y83.8637
G01 X14.0849 Y83.8907
G01 X14.1387 Y83.9222
G01 X14.2376 Y83.9815
G01 X14.2908 Y84.0140
G01 X14.3436 Y84.0472
G01 X14.3927 Y84.0789
G01 X14.4445 Y84.1134
G01 X14.4992 Y84.1509
G01 X14.5501 Y84.1869
G01 X14.5974 Y84.2212
G01 X14.6931 Y84.2922
G01 X14.7429 Y84.3297
G01 X14.7921 Y84.3679
G01 X14.8318 Y84.3994
G01 X14.8801 Y84.4388
G01 X14.9249 Y84.4763
G01 X14.9722 Y84.5170
G01 X15.0073 Y84.5479
G01 X15.1130 Y84.6433
G01 X15.2159 Y84.5503
G01 X15.2860 Y84.4892
G01 X15.3480 Y84.4371
G01 X15.3897 Y84.4030
G01 X15.4289 Y84.3718
G01 X15.4776 Y84.3340
G01 X15.5113 Y84.3083
G01 X15.6444 Y84.2097
G01 X15.6886 Y84.1778
G01 X15.7268 Y84.1509
G01 X15.7686 Y84.1222
G01 X15.8138 Y84.0918
G01 X15.8627 Y84.0598
G01 X15.9088 Y84.0305
G01 X15.9817 Y83.9855
G01 X16.1141 Y83.9064
G01 X16.1614 Y83.8791
G01 X16.2157 Y83.8485
G01 X16.2602 Y83.8243
G01 X16.3083 Y83.7986
G01 X16.3881 Y83.7579
G01 X16.4652 Y83.7203
G01 X16.5941 Y83.6594
G01 X16.6544 Y83.6319
G01 X16.7293 Y83.5992
G01 X16.7941 Y83.5722
G01 X16.8556 Y83.5476
G01 X16.9138 Y83.5253
G01 X16.9796 Y83.5010
G01 X17.0918 Y83.4609
G01 X17.1692 Y83.4343
G01 X17.2470 Y83.4091
G01 X17.3066 Y83.3908
G01 X17.3627 Y83.3744
G01 X17.4228 Y83.3576
G01 X17.4943 Y83.3388
G01 X17.6099 Y83.3098
G01 X17.6705 Y83.2952
G01 X17.7313 Y83.2813
G01 X17.7885 Y83.2690
G01 X17.8649 Y83.2538
G01 X17.9224 Y83.2433
G01 X17.9838 Y83.2328
G01 X18.0454 Y83.2232
G01 X18.1788 Y83.2035
G01 X18.2367 Y83.1957
G01 X18.3063 Y83.1873
G01 X18.3877 Y83.1789
G01 X18.4381 Y83.1743
G01 X18.5003 Y83.1696
G01 X18.5547 Y83.1660
G01 X18.7399 Y83.1569
G01 X18.7944 Y83.1551
G01 X18.8708 Y83.1536
G01 X18.9269 Y83.0982
G01 X18.9719 Y83.0551
G01 X19.0146 Y83.0152
G01 X19.0549 Y82.9785
G01 X19.0986 Y82.9396
G01 X19.1457 Y82.8988
G01 X19.1844 Y82.8661
G01 X19.2265 Y82.8314
G01 X19.2720 Y82.7948
G01 X19.3211 Y82.7564
G01 X19.3614 Y82.7256
G01 X19.4114 Y82.6884
G01 X19.4651 Y82.6496
G01 X19.5161 Y82.6138
G01 X19.5579 Y82.5852
G01 X19.6108 Y82.5500
G01 X19.5386 Y82.5017
G01 X19.4969 Y82.4729
G01 X19.4524 Y82.4413
G01 X19.3801 Y82.3884
G01 X19.3150 Y82.3389
G01 X19.2447 Y82.2833
G01 X19.2024 Y82.2488
G01 X19.1635 Y82.2163
G01 X19.0927 Y82.1552
G01 X19.0261 Y82.0954
G01 X18.9719 Y82.0449
G01 X18.9325 Y82.0072
G01 X18.8963 Y81.9718
G01 X18.8332 Y81.9081
G01 X18.7687 Y81.8404
G01 X18.7344 Y81.8032
G01 X18.6978 Y81.7627
G01 X18.6389 Y81.6952
G01 X18.5862 Y81.6326
G01 X18.5298 Y81.5630
G01 X18.4771 Y81.4953
G01 X18.4466 Y81.4549
G01 X18.4142 Y81.4110
G01 X18.3621 Y81.3381
G01 X18.3159 Y81.2706
G01 X18.2665 Y81.1958
G01 X18.2372 Y81.1498
G01 X18.2105 Y81.1068
G01 X18.1624 Y81.0266
G01 X18.1179 Y80.9488
G01 X18.0934 Y80.9045
G01 X18.0676 Y80.8564
G01 X18.0334 Y80.7907
G01 X17.9935 Y80.7105
G01 X17.9535 Y80.6260
G01 X17.9326 Y80.5798
G01 X17.9106 Y80.5299
G01 X17.8758 Y80.4473
G01 X17.8454 Y80.3714
G01 X17.8137 Y80.2876
G01 X17.7849 Y80.2068
G01 X17.7588 Y80.1293
G01 X17.7364 Y80.0587
G01 X17.7162 Y79.9916
G01 X17.6940 Y79.9128
G01 X17.6750 Y79.8413
G01 X17.6581 Y79.7732
G01 X17.6381 Y79.6859
G01 X17.6228 Y79.6134
G01 X17.6073 Y79.5331
G01 X17.5951 Y79.4640
G01 X17.5835 Y79.3909
G01 X17.5719 Y79.3099
G01 X17.5613 Y79.2249
G01 X17.5550 Y79.1667
G01 X17.5468 Y79.0775
G01 X17.5406 Y78.9920
G01 X17.5358 Y78.9025
G01 X17.5331 Y78.8286
G01 X17.5319 Y78.7740
G01 X17.5314 Y78.7312
G01 X17.5312 Y77.0000
G01 X17.5318 Y76.9338
G01 X17.5331 Y76.8714
G01 X17.5351 Y76.8130
G01 X17.5377 Y76.7585
G01 X17.5427 Y76.6769
G01 X17.5468 Y76.6225
G01 X17.5512 Y76.5720
G01 X17.5575 Y76.5100
G01 X17.5631 Y76.4597
G01 X17.5689 Y76.4133
G01 X17.5756 Y76.3631
G01 X17.5835 Y76.3091
G01 X17.5913 Y76.2590
G01 X17.6073 Y76.1669
G01 X17.6168 Y76.1172
G01 X17.6291 Y76.0561
G01 X17.6398 Y76.0065
G01 X17.6536 Y75.9458
G01 X17.6655 Y75.8965
G01 X17.6789 Y75.8436
G01 X17.6919 Y75.7947
G01 X17.7044 Y75.7496
G01 X17.7184 Y75.7009
G01 X17.7341 Y75.6487
G01 X17.7516 Y75.5930
G01 X17.7686 Y75.5411
G01 X17.7952 Y75.4637
G01 X17.8137 Y75.4124
G01 X17.8314 Y75.3650
G01 X17.8540 Y75.3069
G01 X17.8735 Y75.2583
G01 X17.8751 Y72.3893
G01 X17.8756 Y72.3238
G01 X17.8771 Y72.2537
G01 X17.8792 Y72.1952
G01 X17.8824 Y72.1267
G01 X17.8883 Y72.0295
G01 X17.8924 Y71.9751
G01 X17.8969 Y71.9247
G01 X17.9031 Y71.8626
G01 X17.9097 Y71.8046
G01 X17.9165 Y71.7504
G01 X17.9250 Y71.6887
G01 X17.9369 Y71.6093
G01 X17.9463 Y71.5516
G01 X17.9570 Y71.4902
G01 X17.9664 Y71.4404
G01 X17.9787 Y71.3793
G01 X17.9909 Y71.3222
G01 X18.0030 Y71.2690
G01 X18.0166 Y71.2121
G01 X18.0323 Y71.1494
G01 X18.0460 Y71.0966
G01 X18.0710 Y71.0065
G01 X18.0853 Y70.9579
G01 X18.1012 Y70.9057
G01 X18.1166 Y70.8575
G01 X18.1363 Y70.7983
G01 X18.1554 Y70.7431
G01 X18.1745 Y70.6895
G01 X18.2070 Y70.6018
G01 X18.2268 Y70.5510
G01 X18.2457 Y70.5040
G01 X18.2636 Y70.4608
G01 X18.2834 Y70.4142
G01 X18.3086 Y70.3572
G01 X18.3312 Y70.3075
G01 X18.3823 Y70.1998
G01 X18.4047 Y70.1544
G01 X18.4329 Y70.0988
G01 X18.4564 Y70.0539
G01 X18.4822 Y70.0059
G01 X18.5067 Y69.9615
G01 X18.5298 Y69.9208
G01 X18.5592 Y69.8703
G01 X18.5963 Y69.8081
G01 X18.6444 Y69.7299
G01 X18.6961 Y69.6493
G01 X18.7259 Y69.6047
G01 X18.7539 Y69.5635
G01 X18.8069 Y69.4884
G01 X18.8699 Y69.4026
G01 X18.9217 Y69.3343
G01 X18.9505 Y69.2974
G01 X18.9820 Y69.2578
G01 X19.0365 Y69.1916
G01 X19.0692 Y69.1530
G01 X19.1049 Y69.1118
G01 X19.1516 Y69.0594
G01 X19.2083 Y68.9972
G01 X19.2455 Y68.9573
G01 X19.3050 Y68.8956
G01 X19.8732 Y68.3270
G01 X19.8611 Y68.2569
G01 X19.8496 Y68.1837
G01 X19.8300 Y68.0504
G01 X19.8180 Y67.9577
G01 X19.8097 Y67.8841
G01 X19.8030 Y67.8143
G01 X19.7960 Y67.7249
G01 X19.7915 Y67.6510
G01 X19.7853 Y67.5242
G01 X19.7823 Y67.4463
G01 X19.7808 Y67.3762
G01 X19.7804 Y67.2866
G01 X19.7813 Y67.2126
G01 X19.7839 Y67.1269
G01 X19.7909 Y66.9806
G01 X19.7950 Y66.9106
G01 X19.8007 Y66.8329
G01 X19.8059 Y66.7747
G01 X19.8143 Y66.6933
G01 X19.8247 Y66.6082
G01 X19.8344 Y66.5388
G01 X19.8567 Y66.3901
G01 X19.8717 Y66.3017
G01 X19.8853 Y66.2289
G01 X19.9017 Y66.1488
G01 X19.9204 Y66.0651
G01 X19.9368 Y65.9969
G01 X19.9726 Y65.8549
G01 X19.9950 Y65.7722
G01 X20.0111 Y65.7160
G01 X20.0338 Y65.6415
G01 X20.0589 Y65.5637
G01 X7.1444 Y65.5637
G01 X7.1444 Y84.9950
G01 X5.8744 Y88.7682
G01 X7.1443 Y87.4983
G01 X7.1605 Y87.4472
G01 X7.1816 Y87.3844
G01 X7.2361 Y87.2318
G01 X7.2597 Y87.1699
G01 X7.2726 Y87.1373
G01 X7.2904 Y87.0941
G01 X7.3104 Y87.0475
G01 X7.3408 Y86.9800
G01 X7.3933 Y86.8687
G01 X7.4153 Y86.8231
G01 X7.4363 Y86.7813
G01 X7.4596 Y86.7363
G01 X7.4911 Y86.6781
G01 X7.5218 Y86.6238
G01 X7.5475 Y86.5802
G01 X7.5988 Y86.4947
G01 X7.6252 Y86.4514
G01 X7.6585 Y86.3988
G01 X7.6951 Y86.3435
G01 X7.7237 Y86.3017
G01 X7.7621 Y86.2478
G01 X7.8399 Y86.1425
G01 X7.8704 Y86.1021
G01 X7.9088 Y86.0530
G01 X7.9506 Y86.0016
G01 X7.9832 Y85.9628
G01 X8.0138 Y85.9275
G01 X8.0475 Y85.8896
G01 X8.1302 Y85.7985
G01 X8.1594 Y85.7672
G01 X8.2054 Y85.7194
G01 X8.2383 Y85.6863
G01 X8.2746 Y85.6509
G01 X8.3085 Y85.6188
G01 X8.3458 Y85.5844
G01 X8.4252 Y85.5125
G01 X8.4676 Y85.4749
G01 X8.5177 Y85.4321
G01 X8.5665 Y85.3920
G01 X8.6191 Y85.3505
G01 X8.6536 Y85.3241
G01 X8.7526 Y85.2505
G01 X8.7936 Y85.2207
G01 X8.8317 Y85.1937
G01 X8.8735 Y85.1651
G01 X8.9124 Y85.1392
G01 X8.9682 Y85.1034
G01 X9.0180 Y85.0728
G01 X9.1102 Y85.0175
G01 X9.1538 Y84.9918
G01 X9.1945 Y84.9687
G01 X9.2388 Y84.9443
G01 X9.2801 Y84.9223
G01 X9.3391 Y84.8923
G01 X9.3776 Y84.8734
G01 X9.5171 Y84.8075
G01 X9.5775 Y84.7804
G01 X9.6241 Y84.7604
G01 X9.6854 Y84.7354
G01 X9.7435 Y84.7129
G01 X9.7911 Y84.6955
G01 X9.8850 Y84.6619
G01 X9.9476 Y84.6402
G01 X9.9920 Y84.6257
G01 X10.0254 Y84.6152
G01 X10.0702 Y84.6017
G01 X10.1039 Y84.5920
G01 X10.1490 Y84.5796
G01 X10.1905 Y84.5688
G01 X10.3175 Y84.5371
G01 X10.3592 Y84.5273
G01 X10.4048 Y84.5171
G01 X10.4697 Y84.5039
G01 X10.5042 Y84.4974
G01 X10.5848 Y84.4836
G01 X10.7143 Y84.4642
G01 X10.7799 Y84.4552
G01 X10.8263 Y84.4496
G01 X10.8611 Y84.4458
G01 X10.9077 Y84.4413
G01 X10.9426 Y84.4384
G01 X10.9893 Y84.4351
G01 X11.0321 Y84.4326
G01 X11.1394 Y84.4273
G01 X11.1900 Y84.4252
G01 X11.2718 Y84.4234
G01 X11.3186 Y84.4233
G01 X11.3692 Y84.4240
G01 X11.4432 Y84.4262
G01 X11.5895 Y84.4334
G01 X11.6634 Y84.4384
G01 X11.6983 Y84.4413
G01 X11.7449 Y84.4458
G01 X11.7952 Y84.4514
G01 X11.8416 Y84.4572
G01 X11.8917 Y84.4642
G01 X11.9904 Y84.4789
G01 X12.0558 Y84.4893
G01 X12.1018 Y84.4974
G01 X12.1363 Y84.5039
G01 X12.1821 Y84.5131
G01 X12.2164 Y84.5205
G01 X12.2885 Y84.5371
G01 X12.4306 Y84.5727
G01 X12.4720 Y84.5837
G01 X12.5171 Y84.5963
G01 X12.5954 Y84.6198
G01 X12.6732 Y84.6452
G01 X12.7210 Y84.6619
G01 X12.8149 Y84.6955
G01 X12.8770 Y84.7185
G01 X12.9206 Y84.7354
G01 X12.9531 Y84.7485
G01 X12.9963 Y84.7665
G01 X13.0570 Y84.7930
G01 X13.1101 Y84.8174
G01 X13.2073 Y84.8633
G01 X13.2669 Y84.8923
G01 X13.3086 Y84.9134
G01 X13.3397 Y84.9296
G01 X13.3809 Y84.9517
G01 X13.4115 Y84.9687
G01 X13.4757 Y85.0056
G01 X13.5813 Y85.0688
G01 X13.6378 Y85.1034
G01 X13.6772 Y85.1285
G01 X13.7066 Y85.1477
G01 X13.7454 Y85.1738
G01 X13.7743 Y85.1937
G01 X13.8345 Y85.2367
G01 X13.9522 Y85.3239
G01 X14.0108 Y85.3691
G01 X14.0503 Y85.4008
G01 X14.0864 Y85.4305
G01 X14.1485 Y85.4838
G01 X14.1864 Y85.5175
G01 X14.2602 Y85.5844
G01 X14.2975 Y85.6188
G01 X14.3566 Y85.6754
G01 X14.4142 Y85.7334
G01 X14.4466 Y85.7672
G01 X14.4758 Y85.7985
G01 X14.5785 Y85.9120
G01 X14.6312 Y85.9726
G01 X14.6840 Y86.0365
G01 X14.7255 Y86.0891
G01 X14.7471 Y86.1173
G01 X14.8255 Y86.2226
G01 X14.8643 Y86.2763
G01 X14.8912 Y86.3145
G01 X14.9109 Y86.3435
G01 X14.9368 Y86.3824
G01 X14.9559 Y86.4119
G01 X14.9951 Y86.4747
G01 X15.0704 Y86.6003
G01 X15.0919 Y86.6373
G01 X15.1130 Y86.6747
G01 X15.1341 Y86.6373
G01 X15.1556 Y86.6003
G01 X15.2188 Y86.4947
G01 X15.2534 Y86.4382
G01 X15.2892 Y86.3824
G01 X15.3348 Y86.3145
G01 X15.3707 Y86.2636
G01 X15.4005 Y86.2226
G01 X15.4739 Y86.1238
G01 X15.5191 Y86.0652
G01 X15.5508 Y86.0257
G01 X15.5931 Y85.9747
G01 X15.6338 Y85.9275
G01 X15.6675 Y85.8896
G01 X15.7344 Y85.8158
G01 X15.7688 Y85.7785
G01 X15.8118 Y85.7334
G01 X15.8583 Y85.6863
G01 X15.8946 Y85.6509
G01 X15.9485 Y85.6002
G01 X16.0412 Y85.5161
G01 X16.0914 Y85.4716
G01 X16.1412 Y85.4291
G01 X16.1889 Y85.3900
G01 X16.2404 Y85.3495
G01 X16.2925 Y85.3099
G01 X16.3789 Y85.2459
G01 X16.4263 Y85.2117
G01 X16.4806 Y85.1738
G01 X16.5488 Y85.1285
G01 X16.5882 Y85.1034
G01 X16.6247 Y85.0809
G01 X16.7369 Y85.0135
G01 X16.7873 Y84.9841
G01 X16.8281 Y84.9611
G01 X16.8588 Y84.9443
G01 X16.9001 Y84.9223
G01 X16.9313 Y84.9063
G01 X16.9976 Y84.8734
G01 X17.1300 Y84.8108
G01 X17.1975 Y84.7804
G01 X17.2297 Y84.7665
G01 X17.2729 Y84.7485
G01 X17.3054 Y84.7354
G01 X17.3490 Y84.7185
G01 X17.4038 Y84.6981
G01 X17.5050 Y84.6619
G01 X17.5676 Y84.6402
G01 X17.6306 Y84.6198
G01 X17.6902 Y84.6017
G01 X17.7690 Y84.5796
G01 X17.8180 Y84.5669
G01 X17.9148 Y84.5427
G01 X17.9640 Y84.5308
G01 X18.0439 Y84.5131
G01 X18.1050 Y84.5009
G01 X18.1702 Y84.4893
G01 X18.2356 Y84.4789
G01 X18.3651 Y84.4598
G01 X18.4308 Y84.4514
G01 X18.4656 Y84.4474
G01 X18.5471 Y84.4397
G01 X18.6093 Y84.4351
G01 X18.6598 Y84.4322
G01 X18.7594 Y84.4273
G01 X18.8100 Y84.4252
G01 X18.8724 Y84.4237
G01 X18.9542 Y84.4234
G01 X19.0204 Y84.4247
G01 X19.0788 Y84.4269
G01 X19.2095 Y84.4334
G01 X19.2834 Y84.4384
G01 X19.3183 Y84.4413
G01 X19.3649 Y84.4458
G01 X19.4289 Y84.4531
G01 X19.4667 Y84.4016
G01 X19.4878 Y84.3737
G01 X19.5384 Y84.3093
G01 X19.5904 Y84.2462
G01 X19.6209 Y84.2107
G01 X19.6545 Y84.1728
G01 X19.6859 Y84.1382
G01 X19.7099 Y84.1126
G01 X19.7422 Y84.0788
G01 X19.7667 Y84.0538
G01 X19.7999 Y84.0208
G01 X19.8250 Y83.9964
G01 X19.8590 Y83.9642
G01 X19.9078 Y83.9195
G01 X19.9457 Y83.8859
G01 X19.9812 Y83.8554
G01 X20.0443 Y83.8034
G01 X20.1087 Y83.7528
G01 X20.1742 Y83.7039
G01 X20.2410 Y83.6566
G01 X20.3089 Y83.6109
G01 X20.3779 Y83.5670
G01 X20.4078 Y83.5486
G01 X20.4648 Y83.5149
G01 X20.5361 Y83.4748
G01 X20.6084 Y83.4364
G01 X20.6815 Y83.3998
G01 X20.7238 Y83.3797
G01 X20.7698 Y83.3587
G01 X20.8126 Y83.3398
G01 X20.8449 Y83.3261
G01 X20.8881 Y83.3083
G01 X20.9207 Y83.2953
G01 X20.9643 Y83.2786
G01 X20.9973 Y83.2665
G01 X21.0413 Y83.2508
G01 X21.1041 Y83.2297
G01 X21.1524 Y83.2144
G01 X21.1971 Y83.2009
G01 X21.2759 Y83.1789
G01 X21.3552 Y83.1588
G01 X21.4350 Y83.1406
G01 X21.5152 Y83.1244
G01 X21.5958 Y83.1102
G01 X21.6304 Y83.1047
G01 X21.6960 Y83.0953
G01 X21.7772 Y83.0855
G01 X21.8587 Y83.0778
G01 X21.9403 Y83.0720
G01 X22.0220 Y83.0682
G01 X22.1038 Y83.0664
G01 X23.5850 Y83.0662
G01 X23.6512 Y83.0670
G01 X23.7174 Y83.0689
G01 X23.7991 Y83.0732
G01 X23.8613 Y83.0778
G01 X23.9428 Y83.0855
G01 X24.0240 Y83.0953
G01 X24.0896 Y83.1047
G01 X24.1242 Y83.1102
G01 X24.1703 Y83.1181
G01 X24.2379 Y83.1309
G01 X24.3056 Y83.1181
G01 X24.3709 Y83.1071
G01 X24.4326 Y83.0979
G01 X24.4983 Y83.0895
G01 X24.5331 Y83.0855
G01 X24.5797 Y83.0809
G01 X24.6301 Y83.0765
G01 X24.6962 Y83.0720
G01 X24.7585 Y83.0689
G01 X24.8247 Y83.0670
G01 X24.8909 Y83.0662
G01 X25.9403 Y83.0664
G01 X26.0221 Y83.0682
G01 X26.1038 Y83.0720
G01 X26.1854 Y83.0778
G01 X26.2514 Y83.0839
G01 X26.2862 Y83.0877
G01 X26.3326 Y83.0933
G01 X26.3674 Y83.0979
G01 X26.4137 Y83.1047
G01 X26.4483 Y83.1102
G01 X26.4944 Y83.1181
G01 X26.5620 Y83.1309
G01 X26.6297 Y83.1181
G01 X26.6950 Y83.1071
G01 X26.7567 Y83.0979
G01 X26.8379 Y83.0877
G01 X26.9193 Y83.0794
G01 X26.9853 Y83.0742
G01 X27.0359 Y83.0711
G01 X27.0826 Y83.0689
G01 X27.1176 Y83.0677
G01 X27.1644 Y83.0667
G01 X27.2150 Y83.0662
G01 X28.6650 Y83.0662
G01 X28.7156 Y83.0667
G01 X28.7624 Y83.0677
G01 X28.8130 Y83.0696
G01 X28.8597 Y83.0720
G01 X28.8947 Y83.0742
G01 X28.9607 Y83.0794
G01 X29.0421 Y83.0877
G01 X29.1040 Y83.0953
G01 X29.1850 Y83.1071
G01 X29.2656 Y83.1208
G01 X29.3306 Y83.1334
G01 X29.3650 Y83.1406
G01 X29.4106 Y83.1508
G01 X29.4599 Y83.1625
G01 X29.5241 Y83.1789
G01 X29.6029 Y83.2009
G01 X29.6625 Y83.2190
G01 X29.7255 Y83.2395
G01 X29.7587 Y83.2508
G01 X29.8027 Y83.2665
G01 X29.8502 Y83.2841
G01 X29.9119 Y83.3083
G01 X29.9874 Y83.3398
G01 X30.0444 Y83.3651
G01 X30.1044 Y83.3931
G01 X30.1360 Y83.4084
G01 X30.1778 Y83.4293
G01 X30.2227 Y83.4526
G01 X30.2810 Y83.4842
G01 X30.3521 Y83.5247
G01 X30.4221 Y83.5670
G01 X30.4748 Y83.6003
G01 X30.5429 Y83.6456
G01 X30.5973 Y83.6834
G01 X30.6258 Y83.7039
G01 X30.6634 Y83.7317
G01 X30.7037 Y83.7623
G01 X30.7557 Y83.8034
G01 X30.8188 Y83.8554
G01 X30.8660 Y83.8962
G01 X30.9268 Y83.9509
G01 X30.9862 Y84.0072
G01 X31.0333 Y84.0538
G01 X31.0578 Y84.0788
G01 X31.0901 Y84.1126
G01 X31.1246 Y84.1497
G01 X31.1688 Y84.1990
G01 X31.2221 Y84.2611
G01 X31.2616 Y84.3093
G01 X31.3122 Y84.3737
G01 X31.3611 Y84.4392
G01 X31.3995 Y84.4932
G01 X31.4282 Y84.5350
G01 X31.4541 Y84.5739
G01 X31.4731 Y84.6033
G01 X31.5083 Y84.6595
G01 X31.5501 Y84.7298
G01 X31.5808 Y84.7840
G01 X31.6124 Y84.8423
G01 X31.6357 Y84.8872
G01 X31.6566 Y84.9290
G01 X31.6719 Y84.9606
G01 X31.6999 Y85.0206
G01 X31.7329 Y85.0955
G01 X31.7567 Y85.1531
G01 X31.7809 Y85.2148
G01 X31.7932 Y85.2476
G01 X31.8090 Y85.2916
G01 X31.8255 Y85.3395
G01 X31.8460 Y85.4025
G01 X31.8641 Y85.4621
G01 X31.8861 Y85.5409
G01 X31.9025 Y85.6051
G01 X31.9107 Y85.6392
G01 X31.9211 Y85.6848
G01 X31.9316 Y85.7344
G01 X31.9442 Y85.7994
G01 X31.9548 Y85.8608
G01 X31.9649 Y85.9263
G01 X31.9717 Y85.9765
G01 X31.9795 Y86.0422
G01 X31.9856 Y86.1043
G01 X31.9908 Y86.1703
G01 X31.9939 Y86.2209
G01 X31.9961 Y86.2676
G01 X31.9973 Y86.3026
G01 X31.9986 Y86.3766
G01 X31.9988 Y86.9816
G01 X32.0972 Y86.9225
G01 X32.1408 Y86.8968
G01 X32.1951 Y86.8661
G01 X32.2533 Y86.8346
G01 X32.2983 Y86.8113
G01 X32.3576 Y86.7818
G01 X32.4758 Y86.7257
G01 X32.5218 Y86.7044
G01 X32.5788 Y86.6791
G01 X32.6399 Y86.6535
G01 X32.6869 Y86.6347
G01 X32.7488 Y86.6111
G01 X32.8720 Y86.5669
G01 X32.9198 Y86.5502
G01 X32.9790 Y86.5307
G01 X33.0423 Y86.5111
G01 X33.0909 Y86.4970
G01 X33.1548 Y86.4797
G01 X33.2818 Y86.4477
G01 X33.3310 Y86.4358
G01 X33.3918 Y86.4221
G01 X33.4567 Y86.4089
G01 X33.5065 Y86.3996
G01 X33.5718 Y86.3886
G01 X33.7013 Y86.3692
G01 X33.7514 Y86.3622
G01 X33.8133 Y86.3546
G01 X33.8792 Y86.3478
G01 X33.9296 Y86.3434
G01 X33.9957 Y86.3389
G01 X34.1264 Y86.3323
G01 X34.1770 Y86.3302
G01 X34.2238 Y86.3290
G01 X34.2744 Y86.3283
G01 X34.3406 Y86.3287
G01 X34.4030 Y86.3302
G01 X34.4536 Y86.3323
G01 X34.5765 Y86.3384
G01 X34.6193 Y86.3411
G01 X34.6853 Y86.3463
G01 X34.7474 Y86.3524
G01 X34.8131 Y86.3602
G01 X34.8710 Y86.3681
G01 X34.9774 Y86.3839
G01 X35.0274 Y86.3917
G01 X35.0735 Y86.3996
G01 X35.1233 Y86.4089
G01 X35.1691 Y86.4181
G01 X35.2338 Y86.4323
G01 X35.2982 Y86.4477
G01 X35.4252 Y86.4797
G01 X35.5041 Y86.5013
G01 X35.5824 Y86.5248
G01 X35.6454 Y86.5452
G01 X35.7007 Y86.5643
G01 X35.8019 Y86.6005
G01 X35.8640 Y86.6235
G01 X35.9257 Y86.6476
G01 X35.9833 Y86.6715
G01 X36.0440 Y86.6980
G01 X36.0971 Y86.7224
G01 X36.2154 Y86.7784
G01 X36.2539 Y86.7973
G01 X36.3168 Y86.8294
G01 X36.5812 Y86.8304
G01 X36.5812 Y86.4000
G01 X36.5817 Y86.3494
G01 X36.5832 Y86.2870
G01 X36.5861 Y86.2209
G01 X36.5892 Y86.1703
G01 X36.5944 Y86.1043
G01 X36.6005 Y86.0422
G01 X36.6103 Y85.9610
G01 X36.6221 Y85.8800
G01 X36.6331 Y85.8147
G01 X36.6424 Y85.7649
G01 X36.6516 Y85.7191
G01 X36.6589 Y85.6848
G01 X36.6693 Y85.6392
G01 X36.6775 Y85.6051
G01 X36.6889 Y85.5598
G01 X36.6979 Y85.5259
G01 X36.7159 Y85.4621
G01 X36.7399 Y85.3839
G01 X36.7658 Y85.3063
G01 X36.7936 Y85.2293
G01 X36.8233 Y85.1531
G01 X36.8548 Y85.0776
G01 X36.8882 Y85.0029
G01 X36.9148 Y84.9465
G01 X36.9514 Y84.8734
G01 X36.9898 Y84.8011
G01 X37.0299 Y84.7298
G01 X37.0717 Y84.6595
G01 X37.1153 Y84.5902
G01 X37.1606 Y84.5221
G01 X37.2075 Y84.4550
G01 X37.2467 Y84.4016
G01 X37.2678 Y84.3737
G01 X37.2965 Y84.3367
G01 X37.3282 Y84.2972
G01 X37.3579 Y84.2611
G01 X37.3805 Y84.2343
G01 X37.4112 Y84.1990
G01 X37.4345 Y84.1728
G01 X37.4659 Y84.1382
G01 X37.4899 Y84.1126
G01 X37.5222 Y84.0788
G01 X37.5467 Y84.0538
G01 X37.5799 Y84.0208
G01 X37.6050 Y83.9964
G01 X37.6390 Y83.9642
G01 X37.6647 Y83.9404
G01 X37.7140 Y83.8962
G01 X37.7761 Y83.8429
G01 X37.8395 Y83.7912
G01 X37.9042 Y83.7410
G01 X37.9700 Y83.6925
G01 X38.0371 Y83.6456
G01 X38.1052 Y83.6003
G01 X38.1745 Y83.5567
G01 X38.2279 Y83.5247
G01 X38.2990 Y83.4842
G01 X38.3711 Y83.4454
G01 X38.4440 Y83.4084
G01 X38.5179 Y83.3732
G01 X38.5926 Y83.3398
G01 X38.6681 Y83.3083
G01 X38.7443 Y83.2786
G01 X38.8213 Y83.2508
G01 X38.8989 Y83.2249
G01 X38.9771 Y83.2009
G01 X39.0559 Y83.1789
G01 X39.1352 Y83.1588
G01 X39.2150 Y83.1406
G01 X39.2952 Y83.1244
G01 X39.3604 Y83.1128
G01 X39.4104 Y83.1047
G01 X39.4567 Y83.0979
G01 X39.4915 Y83.0933
G01 X39.5572 Y83.0855
G01 X39.6387 Y83.0778
G01 X39.7009 Y83.0732
G01 X39.7826 Y83.0689
G01 X39.8488 Y83.0670
G01 X39.9072 Y83.0663
G01 X41.3650 Y83.0662
G01 X41.4156 Y83.0667
G01 X41.4624 Y83.0677
G01 X41.4974 Y83.0689
G01 X41.5441 Y83.0711
G01 X41.5947 Y83.0742
G01 X41.6607 Y83.0794
G01 X41.7421 Y83.0877
G01 X41.8040 Y83.0953
G01 X41.8850 Y83.1071
G01 X41.9503 Y83.1181
G01 X42.0179 Y83.1309
G01 X42.0856 Y83.1181
G01 X42.1317 Y83.1102
G01 X42.1663 Y83.1047
G01 X42.2126 Y83.0979
G01 X42.2474 Y83.0933
G01 X42.2938 Y83.0877
G01 X42.3286 Y83.0839
G01 X42.3946 Y83.0778
G01 X42.4762 Y83.0720
G01 X42.5579 Y83.0682
G01 X42.6397 Y83.0664
G01 X43.6891 Y83.0662
G01 X43.7553 Y83.0670
G01 X43.8215 Y83.0689
G01 X43.8838 Y83.0720
G01 X43.9499 Y83.0765
G01 X43.9848 Y83.0794
G01 X44.0314 Y83.0839
G01 X44.0817 Y83.0895
G01 X44.1474 Y83.0979
G01 X44.2091 Y83.1071
G01 X44.2744 Y83.1181
G01 X44.3420 Y83.1309
G01 X44.4097 Y83.1181
G01 X44.4558 Y83.1102
G01 X44.4904 Y83.1047
G01 X44.5560 Y83.0953
G01 X44.6372 Y83.0855
G01 X44.6993 Y83.0794
G01 X44.7809 Y83.0732
G01 X44.8626 Y83.0689
G01 X44.9288 Y83.0670
G01 X44.9950 Y83.0662
G01 X46.4684 Y83.0664
G01 X46.5424 Y83.0677
G01 X46.5774 Y83.0689
G01 X46.6241 Y83.0711
G01 X46.6591 Y83.0732
G01 X46.7058 Y83.0765
G01 X46.7407 Y83.0794
G01 X46.7873 Y83.0839
G01 X46.8376 Y83.0895
G01 X46.8840 Y83.0953
G01 X46.9187 Y83.1001
G01 X46.9650 Y83.1071
G01 X46.9996 Y83.1128
G01 X47.0456 Y83.1208
G01 X47.0801 Y83.1274
G01 X47.1450 Y83.1406
G01 X47.2248 Y83.1588
G01 X47.3041 Y83.1789
G01 X47.3641 Y83.1955
G01 X47.4425 Y83.2190
G01 X47.5055 Y83.2395
G01 X47.5387 Y83.2508
G01 X47.5827 Y83.2665
G01 X47.6302 Y83.2841
G01 X47.6919 Y83.3083
G01 X47.7674 Y83.3398
G01 X47.8244 Y83.3651
G01 X47.8985 Y83.3998
G01 X47.9716 Y83.4364
G01 X48.0302 Y83.4673
G01 X48.0746 Y83.4917
G01 X48.1152 Y83.5149
G01 X48.1455 Y83.5326
G01 X48.2021 Y83.5670
G01 X48.2711 Y83.6109
G01 X48.3229 Y83.6456
G01 X48.3900 Y83.6925
G01 X48.4558 Y83.7410
G01 X48.5083 Y83.7815
G01 X48.5478 Y83.8132
G01 X48.5839 Y83.8429
G01 X48.6107 Y83.8655
G01 X48.6606 Y83.9091
G01 X48.7210 Y83.9642
G01 X48.7662 Y84.0072
G01 X48.8242 Y84.0649
G01 X48.8486 Y84.0900
G01 X48.8941 Y84.1382
G01 X48.9255 Y84.1728
G01 X48.9591 Y84.2107
G01 X48.9896 Y84.2462
G01 X49.0318 Y84.2972
G01 X49.0635 Y84.3367
G01 X49.1040 Y84.3892
G01 X49.1319 Y84.4267
G01 X49.1616 Y84.4677
G01 X49.1884 Y84.5060
G01 X49.2255 Y84.5609
G01 X49.2531 Y84.6033
G01 X49.2883 Y84.6595
G01 X49.3124 Y84.6995
G01 X49.3379 Y84.7433
G01 X49.3702 Y84.8011
G01 X49.3924 Y84.8423
G01 X49.4157 Y84.8872
G01 X49.4452 Y84.9465
G01 X49.4653 Y84.9888
G01 X49.4863 Y85.0348
G01 X49.5129 Y85.0955
G01 X49.5309 Y85.1387
G01 X49.5497 Y85.1857
G01 X49.5664 Y85.2293
G01 X49.5890 Y85.2916
G01 X49.6055 Y85.3395
G01 X49.6201 Y85.3839
G01 X49.6396 Y85.4472
G01 X49.6537 Y85.4959
G01 X49.6711 Y85.5598
G01 X49.6907 Y85.6392
G01 X49.7084 Y85.7191
G01 X49.7242 Y85.7994
G01 X49.7379 Y85.8800
G01 X49.7497 Y85.9610
G01 X49.7595 Y86.0422
G01 X49.7672 Y86.1237
G01 X49.7730 Y86.2053
G01 X49.7754 Y86.2520
G01 X49.7773 Y86.3026
G01 X49.7783 Y86.3494
G01 X49.7787 Y86.3922
G01 X49.7788 Y87.4966
G01 X49.8150 Y87.5658
G01 X49.8360 Y87.6076
G01 X49.8547 Y87.6462
G01 X49.8906 Y87.7223
G01 X49.9086 Y87.7612
G01 X49.9276 Y87.8039
G01 X49.9476 Y87.8504
G01 X49.9654 Y87.8937
G01 X49.9783 Y87.9263
G01 X49.9951 Y87.9699
G01 X50.0099 Y88.0101
G01 X50.0382 Y88.0894
G01 X50.0523 Y88.1299
G01 X50.0777 Y88.2076
G01 X50.0914 Y88.2523
G01 X50.1055 Y88.3010
G01 X50.1179 Y88.3461
G01 X50.1287 Y88.3875
G01 X50.1491 Y88.4692
G01 X50.1592 Y88.5109
G01 X50.1695 Y88.5565
G01 X50.1800 Y88.6060
G01 X50.1890 Y88.6519
G01 X50.1953 Y88.6864
G01 X50.2032 Y88.7325
G01 X50.2099 Y88.7748
G01 X50.2223 Y88.8580
G01 X50.2282 Y88.9005
G01 X50.2340 Y88.9469
G01 X50.2395 Y88.9964
G01 X50.2656 Y89.0604
G01 X50.2825 Y89.1040
G01 X50.2975 Y89.1441
G01 X50.3469 Y89.2820
G01 X50.3608 Y89.3226
G01 X50.3753 Y89.3670
G01 X50.3993 Y89.4452
G01 X50.4173 Y89.5090
G01 X50.4341 Y89.5730
G01 X50.4657 Y89.7000
G01 X50.4805 Y89.7646
G01 X50.4910 Y89.8141
G01 X50.5036 Y89.8792
G01 X50.5143 Y89.9406
G01 X50.5221 Y89.9906
G01 X50.5368 Y90.0893
G01 X50.5438 Y90.1394
G01 X50.5514 Y90.2013
G01 X50.5582 Y90.2672
G01 X50.5626 Y90.3176
G01 X50.5676 Y90.3915
G01 X50.5741 Y90.5222
G01 X50.5763 Y90.5806
G01 X50.5776 Y90.6468
G01 X50.5776 Y90.7092
G01 X50.5763 Y90.7754
G01 X50.5737 Y90.8416
G01 X50.5684 Y90.9489
G01 X50.5649 Y91.0073
G01 X50.5597 Y91.0733
G01 X50.5536 Y91.1354
G01 X50.5458 Y91.2011
G01 X50.5401 Y91.2436
G01 X50.5210 Y91.3731
G01 X50.5117 Y91.4308
G01 X50.5036 Y91.4768
G01 X50.4910 Y91.5419
G01 X50.4805 Y91.5914
G01 X50.4657 Y91.6560
G01 X50.4341 Y91.7830
G01 X50.4214 Y91.8320
G01 X50.4047 Y91.8921
G01 X50.3858 Y91.9556
G01 X50.3705 Y92.0038
G01 X50.3494 Y92.0666
G01 X50.3055 Y92.1899
G01 X50.2881 Y92.2375
G01 X50.2656 Y92.2956
G01 X50.2406 Y92.3569
G01 X50.2206 Y92.4035
G01 X50.1935 Y92.4639
G01 X50.1377 Y92.5823
G01 X50.1157 Y92.6279
G01 X50.0876 Y92.6836
G01 X50.0567 Y92.7422
G01 X50.0323 Y92.7865
G01 X49.9993 Y92.8440
G01 X49.9322 Y92.9563
G01 X49.9058 Y92.9996
G01 X49.8809 Y93.0391
G01 X49.8533 Y93.0816
G01 X49.8162 Y93.1365
G01 X49.7803 Y93.1874
G01 X49.7505 Y93.2284
G01 X49.6724 Y93.3334
G01 X49.6319 Y93.3858
G01 X49.6002 Y93.4253
G01 X49.5579 Y93.4763
G01 X49.5172 Y93.5235
G01 X49.4835 Y93.5614
G01 X49.3955 Y93.6582
G01 X49.3501 Y93.7064
G01 X49.3147 Y93.7427
G01 X49.2816 Y93.7756
G01 X49.2338 Y93.8216
G01 X49.1910 Y93.8613
G01 X49.1037 Y93.9404
G01 X49.0596 Y93.9794
G01 X49.0098 Y94.0219
G01 X48.9621 Y94.0610
G01 X48.9106 Y94.1015
G01 X48.8646 Y94.1365
G01 X48.7721 Y94.2051
G01 X48.7374 Y94.2303
G01 X48.6865 Y94.2662
G01 X48.6316 Y94.3033
G01 X48.5891 Y94.3309
G01 X48.5263 Y94.3701
G01 X48.4208 Y94.4335
G01 X48.3772 Y94.4592
G01 X48.3263 Y94.4880
G01 X48.3637 Y94.5091
G01 X48.4007 Y94.5306
G01 X48.5330 Y94.6100
G01 X48.6022 Y94.6535
G01 X48.6704 Y94.6988
G01 X48.7247 Y94.7367
G01 X48.7532 Y94.7571
G01 X48.8772 Y94.8489
G01 X48.9112 Y94.8750
G01 X48.9480 Y94.9038
G01 X49.0114 Y94.9555
G01 X49.0382 Y94.9782
G01 X49.0881 Y95.0217
G01 X49.2025 Y95.1252
G01 X49.2338 Y95.1544
G01 X49.2676 Y95.1868
G01 X49.3256 Y95.2444
G01 X49.3501 Y95.2696
G01 X49.3955 Y95.3178
G01 X49.5035 Y95.4370
G01 X49.5462 Y95.4859
G01 X49.5689 Y95.5127
G01 X49.6213 Y95.5769
G01 X49.6505 Y95.6141
G01 X49.6769 Y95.6486
G01 X49.7643 Y95.7665
G01 X49.7893 Y95.8013
G01 X49.8162 Y95.8395
G01 X49.8618 Y95.9074
G01 X49.8809 Y95.9369
G01 X49.9160 Y95.9930
G01 X49.9954 Y96.1253
G01 X50.0169 Y96.1623
G01 X50.0399 Y96.2031
G01 X50.0787 Y96.2751
G01 X50.1087 Y96.3341
G01 X50.1242 Y96.3656
G01 X50.1902 Y96.5050
G01 X50.2080 Y96.5440
G01 X50.2269 Y96.5868
G01 X50.2584 Y96.6623
G01 X50.2713 Y96.6949
G01 X50.2949 Y96.7568
G01 X50.3494 Y96.9094
G01 X50.3608 Y96.9426
G01 X50.3812 Y97.0056
G01 X50.4047 Y97.0839
G01 X50.4173 Y97.1290
G01 X50.4283 Y97.1704
G01 X50.4602 Y97.2973
G01 X50.4737 Y97.3542
G01 X50.4839 Y97.3998
G01 X50.4910 Y97.4341
G01 X50.5036 Y97.4992
G01 X50.5174 Y97.5798
G01 X50.5368 Y97.7093
G01 X50.5458 Y97.7749
G01 X50.5514 Y97.8213
G01 X50.5552 Y97.8561
G01 X50.5597 Y97.9027
G01 X50.5626 Y97.9376
G01 X50.5676 Y98.0115
G01 X50.5748 Y98.1578
G01 X50.5770 Y98.2318
G01 X50.5776 Y98.2668
G01 X50.5777 Y98.3136
G01 X50.5773 Y98.3486
G01 X50.5763 Y98.3954
G01 X50.5741 Y98.4538
G01 X50.5676 Y98.5845
G01 X50.5626 Y98.6584
G01 X50.5597 Y98.6933
G01 X50.5552 Y98.7399
G01 X50.5514 Y98.7747
G01 X50.5458 Y98.8211
G01 X50.5368 Y98.8867
G01 X50.5221 Y98.9854
G01 X50.5143 Y99.0354
G01 X50.5001 Y99.1160
G01 X50.4910 Y99.1619
G01 X50.4805 Y99.2114
G01 X50.4702 Y99.2570
G01 X50.4602 Y99.2987
G01 X50.4263 Y99.4332
G01 X50.4047 Y99.5121
G01 X50.3812 Y99.5904
G01 X50.3608 Y99.6534
G01 X50.3494 Y99.6866
G01 X50.2975 Y99.8319
G01 X50.2825 Y99.8720
G01 X50.2656 Y99.9156
G01 X50.2352 Y99.9897
G01 X50.2352 Y101.9937
G01 X50.2348 Y102.0443
G01 X50.2332 Y102.1067
G01 X50.2312 Y102.1573
G01 X50.2266 Y102.2491
G01 X50.2239 Y102.2919
G01 X50.2203 Y102.3385
G01 X50.2172 Y102.3734
G01 X50.2104 Y102.4393
G01 X50.2048 Y102.4857
G01 X50.1991 Y102.5282
G01 X50.1963 Y103.1492
G01 X50.1941 Y103.2310
G01 X50.1919 Y103.2777
G01 X50.1888 Y103.3283
G01 X50.1836 Y103.3943
G01 X50.1775 Y103.4564
G01 X50.1677 Y103.5376
G01 X50.1583 Y103.6032
G01 X50.1502 Y103.6532
G01 X50.1422 Y103.6992
G01 X50.1356 Y103.7337
G01 X50.1224 Y103.7986
G01 X50.1084 Y103.8608
G01 X50.1529 Y103.8875
G01 X50.1827 Y103.9060
G01 X50.2385 Y103.9417
G01 X50.2774 Y103.9676
G01 X50.3192 Y103.9963
G01 X50.3574 Y104.0233
G01 X50.4232 Y104.0718
G01 X50.4511 Y104.0931
G01 X50.5031 Y104.1342
G01 X50.5393 Y104.1637
G01 X50.5781 Y104.1963
G01 X50.6134 Y104.2270
G01 X50.6627 Y104.2712
G01 X50.6884 Y104.2950
G01 X50.7224 Y104.3272
G01 X50.7586 Y104.3625
G01 X50.7916 Y104.3957
G01 X50.8160 Y104.4208
G01 X50.8615 Y104.4690
G01 X50.9162 Y104.5298
G01 X50.9469 Y104.5651
G01 X50.9795 Y104.6039
G01 X51.0090 Y104.6401
G01 X51.0309 Y104.6675
G01 X51.0714 Y104.7200
G01 X51.0993 Y104.7575
G01 X51.1290 Y104.7985
G01 X51.1558 Y104.8368
G01 X51.2015 Y104.9047
G01 X51.2205 Y104.9341
G01 X51.2557 Y104.9903
G01 X51.2798 Y105.0303
G01 X51.3053 Y105.0741
G01 X51.3376 Y105.1319
G01 X51.3598 Y105.1731
G01 X51.3760 Y105.2042
G01 X51.3971 Y105.2459
G01 X51.4193 Y105.2914
G01 X51.4392 Y105.3337
G01 X51.4726 Y105.4084
G01 X51.4983 Y105.4695
G01 X51.5114 Y105.5020
G01 X51.5406 Y105.5784
G01 X51.5679 Y105.6555
G01 X51.5827 Y105.6999
G01 X51.5980 Y105.7482
G01 X51.6115 Y105.7929
G01 X51.6211 Y105.8267
G01 X51.6385 Y105.8906
G01 X51.6499 Y105.9359
G01 X51.6616 Y105.9852
G01 X51.6718 Y106.0308
G01 X51.6790 Y106.0652
G01 X51.6916 Y106.1302
G01 X51.7053 Y106.2108
G01 X51.7123 Y106.2571
G01 X51.7191 Y106.3073
G01 X51.7247 Y106.3537
G01 X51.7285 Y106.3885
G01 X51.7346 Y106.4545
G01 X51.7382 Y106.5011
G01 X51.7413 Y106.5517
G01 X51.7435 Y106.5984
G01 X51.7454 Y106.6646
G01 X51.7460 Y106.6996
G01 X51.7462 Y111.0835
G01 X51.7705 Y111.5788
G01 X51.7722 Y111.6216
G01 X51.7734 Y111.6684
G01 X51.7741 Y111.7268
G01 X51.7741 Y122.0138
G01 X55.9112 Y122.0140
G01 X55.9774 Y122.0153
G01 X56.0358 Y122.0174
G01 X56.3300 Y122.0319
G01 X56.3806 Y122.0348
G01 X56.4428 Y122.0394
G01 X56.5087 Y122.0455
G01 X56.5591 Y122.0511
G01 X56.6248 Y122.0596
G01 X56.9470 Y122.1072
G01 X56.9893 Y122.1139
G01 X57.0354 Y122.1218
G01 X57.0852 Y122.1311
G01 X57.1501 Y122.1443
G01 X57.2109 Y122.1580
G01 X57.2602 Y122.1699
G01 X57.5686 Y122.2473
G01 X57.6475 Y122.2689
G01 X57.7110 Y122.2878
G01 X57.7593 Y122.3031
G01 X57.8294 Y122.3267
G01 X58.1435 Y122.4391
G01 X58.2127 Y122.4653
G01 X58.2597 Y122.4841
G01 X58.3208 Y122.5098
G01 X58.3778 Y122.5351
G01 X58.4237 Y122.5563
G01 X58.6900 Y122.6823
G01 X58.7286 Y122.7010
G01 X58.7843 Y122.7290
G01 X58.8429 Y122.7599
G01 X58.8736 Y122.7768
G01 X58.9144 Y122.7997
G01 X58.9514 Y122.8213
G01 X59.2242 Y122.9846
G01 X59.2740 Y123.0153
G01 X59.3297 Y123.0510
G01 X59.3976 Y123.0966
G01 X59.4644 Y123.1440
G01 X59.7386 Y123.3472
G01 X59.7972 Y123.3924
G01 X59.8368 Y123.4241
G01 X59.8878 Y123.4663
G01 X59.9350 Y123.5071
G01 X59.9728 Y123.5408
G01 X60.1911 Y123.7386
G01 X60.2339 Y123.7784
G01 X60.2677 Y123.8107
G01 X60.2927 Y123.8352
G01 X60.3393 Y123.8823
G01 X60.3956 Y123.9417
G01 X60.6248 Y124.1946
G01 X60.6735 Y124.2504
G01 X60.7062 Y124.2891
G01 X60.7479 Y124.3405
G01 X60.7863 Y124.3897
G01 X60.8168 Y124.4301
G01 X60.9923 Y124.6667
G01 X61.0265 Y124.7141
G01 X61.0534 Y124.7524
G01 X61.0731 Y124.7813
G01 X61.1096 Y124.8366
G01 X61.1532 Y124.9058
G01 X61.3327 Y125.2053
G01 X61.3732 Y125.2764
G01 X61.4047 Y125.3346
G01 X61.4281 Y125.3796
G01 X61.4610 Y125.4459
G01 X61.6068 Y125.7545
G01 X61.6402 Y125.8292
G01 X61.6659 Y125.8903
G01 X61.6847 Y125.9373
G01 X61.7109 Y126.0065
G01 X61.8258 Y126.3280
G01 X61.8469 Y126.3907
G01 X61.8622 Y126.4390
G01 X61.8811 Y126.5025
G01 X61.9027 Y126.5814
G01 X61.9875 Y126.9201
G01 X62.0057 Y126.9999
G01 X62.0189 Y127.0648
G01 X62.0255 Y127.0992
G01 X62.0335 Y127.1453
G01 X62.0428 Y127.2030
G01 X62.0861 Y127.4944
G01 X62.0931 Y127.5446
G01 X62.1007 Y127.6064
G01 X62.1090 Y127.6878
G01 X62.1142 Y127.7539
G01 X62.1177 Y127.8122
G01 X62.1335 Y128.1376
G01 X62.1358 Y128.2194
G01 X62.1361 Y128.2856
G01 X62.1358 Y128.3206
G01 X62.1347 Y128.3674
G01 X62.1326 Y128.4258
G01 X62.1177 Y128.7278
G01 X62.1152 Y128.7706
G01 X62.1119 Y128.8172
G01 X62.1075 Y128.8677
G01 X62.1007 Y128.9336
G01 X62.0931 Y128.9954
G01 X62.0872 Y129.0379
G01 X62.0392 Y129.3601
G01 X62.0255 Y129.4408
G01 X62.0129 Y129.5058
G01 X62.0057 Y129.5401
G01 X61.9955 Y129.5858
G01 X61.9820 Y129.6426
G01 X61.9105 Y129.9284
G01 X61.8977 Y129.9774
G01 X61.8811 Y130.0375
G01 X61.8622 Y130.1010
G01 X61.8469 Y130.1493
G01 X61.8258 Y130.2120
G01 X61.7109 Y130.5335
G01 X61.6847 Y130.6027
G01 X61.6659 Y130.6497
G01 X61.6402 Y130.7108
G01 X61.6068 Y130.7855
G01 X61.4677 Y131.0800
G01 X61.4421 Y131.1326
G01 X61.4120 Y131.1916
G01 X61.3826 Y131.2466
G01 X61.3503 Y131.3044
G01 X61.3168 Y131.3615
G01 X61.1694 Y131.6075
G01 X61.1430 Y131.6507
G01 X61.1096 Y131.7034
G01 X61.0731 Y131.7587
G01 X61.0534 Y131.7876
G01 X61.0175 Y131.8386
G01 X60.9876 Y131.8795
G01 X60.7981 Y132.1348
G01 X60.7479 Y132.1995
G01 X60.7062 Y132.2509
G01 X60.6735 Y132.2896
G01 X60.6248 Y132.3454
G01 X60.3956 Y132.5983
G01 X60.3501 Y132.6465
G01 X60.3148 Y132.6827
G01 X60.2677 Y132.7293
G01 X60.2225 Y132.7723
G01 X60.1853 Y132.8066
G01 X59.9728 Y132.9992
G01 X59.9232 Y133.0432
G01 X59.8729 Y133.0862
G01 X59.8247 Y133.1257
G01 X59.7727 Y133.1668
G01 X59.7199 Y133.2068
G01 X59.4644 Y133.3960
G01 X59.3976 Y133.4434
G01 X59.3428 Y133.4804
G01 X59.3003 Y133.5080
G01 X59.2375 Y133.5473
G01 X58.9648 Y133.7108
G01 X58.9144 Y133.7403
G01 X58.8566 Y133.7726
G01 X58.8016 Y133.8020
G01 X58.7426 Y133.8321
G01 X58.6830 Y133.8611
G01 X58.4237 Y133.9837
G01 X58.3778 Y134.0049
G01 X58.3208 Y134.0302
G01 X58.2885 Y134.0439
G01 X58.2272 Y134.0690
G01 X58.1836 Y134.0859
G01 X58.1435 Y134.1009
G01 X57.8441 Y134.2081
G01 X57.8036 Y134.2222
G01 X57.7444 Y134.2417
G01 X57.6811 Y134.2613
G01 X57.6475 Y134.2711
G01 X57.6025 Y134.2837
G01 X57.5610 Y134.2947
G01 X57.2526 Y134.3720
G01 X57.1958 Y134.3855
G01 X57.1311 Y134.3997
G01 X57.0852 Y134.4089
G01 X57.0354 Y134.4182
G01 X56.9893 Y134.4261
G01 X56.9470 Y134.4328
G01 X56.6325 Y134.4794
G01 X56.5900 Y134.4851
G01 X56.5242 Y134.4928
G01 X56.4777 Y134.4975
G01 X56.4272 Y134.5019
G01 X56.3806 Y134.5052
G01 X56.3378 Y134.5077
G01 X56.0202 Y134.5232
G01 X55.9774 Y134.5247
G01 X55.9034 Y134.5261
G01 X51.3317 Y134.5262
G01 X51.3122 Y134.5693
G01 X51.2856 Y134.6257
G01 X51.2561 Y134.6850
G01 X51.2400 Y134.7161
G01 X51.2181 Y134.7574
G01 X51.1937 Y134.8018
G01 X51.1607 Y134.8593
G01 X51.1287 Y134.9127
G01 X51.0935 Y134.9689
G01 X51.0659 Y135.0113
G01 X51.0398 Y135.0501
G01 X51.0020 Y135.1045
G01 X50.9723 Y135.1455
G01 X50.9444 Y135.1830
G01 X50.9039 Y135.2355
G01 X50.8722 Y135.2750
G01 X50.8300 Y135.3260
G01 X50.7995 Y135.3615
G01 X50.7659 Y135.3994
G01 X50.7212 Y135.4482
G01 X50.6782 Y135.4934
G01 X50.6316 Y135.5405
G01 X50.5954 Y135.5758
G01 X50.5614 Y135.6080
G01 X50.5126 Y135.6527
G01 X50.4747 Y135.6863
G01 X50.4243 Y135.7293
G01 X50.3882 Y135.7590
G01 X50.3487 Y135.7907
G01 X50.2962 Y135.8312
G01 X50.2462 Y135.8683
G01 X50.2132 Y135.8919
G01 X50.2721 Y136.0167
G01 X50.3008 Y136.0803
G01 X50.3148 Y136.1126
G01 X50.3335 Y136.1571
G01 X50.3471 Y136.1907
G01 X50.3646 Y136.2358
G01 X50.3884 Y136.2999
G01 X50.4304 Y136.4173
G01 X50.4471 Y136.4652
G01 X50.4725 Y136.5429
G01 X50.4862 Y136.5877
G01 X50.5003 Y136.6363
G01 X50.5126 Y136.6814
G01 X50.5234 Y136.7229
G01 X50.5631 Y136.8817
G01 X50.5812 Y136.9614
G01 X50.5974 Y137.0416
G01 X50.6091 Y137.1068
G01 X50.6147 Y137.1414
G01 X50.6389 Y137.3033
G01 X50.6448 Y137.3458
G01 X50.6506 Y137.3921
G01 X50.6546 Y137.4270
G01 X50.6592 Y137.4735
G01 X50.6624 Y137.5084
G01 X50.6659 Y137.5551
G01 X50.6699 Y137.6212
G01 X50.6773 Y137.7769
G01 X50.6793 Y137.8431
G01 X50.6799 Y137.8859
G01 X50.6800 Y140.0978
G01 X50.7411 Y140.2685
G01 X50.7627 Y140.3311
G01 X50.7773 Y140.3756
G01 X50.7878 Y140.4090
G01 X50.8013 Y140.4538
G01 X50.8110 Y140.4875
G01 X50.8233 Y140.5326
G01 X50.8341 Y140.5741
G01 X50.9113 Y140.8825
G01 X50.9211 Y140.9242
G01 X50.9313 Y140.9699
G01 X50.9475 Y141.0501
G01 X50.9591 Y141.1153
G01 X50.9660 Y141.1576
G01 X51.0117 Y141.4644
G01 X51.0207 Y141.5300
G01 X51.0284 Y141.5958
G01 X51.0362 Y141.6772
G01 X51.0420 Y141.7588
G01 X51.0582 Y142.0842
G01 X51.0603 Y142.1426
G01 X51.0616 Y142.2088
G01 X51.0614 Y142.2906
G01 X51.0599 Y142.3530
G01 X51.0578 Y142.4036
G01 X51.0433 Y142.6978
G01 X51.0398 Y142.7561
G01 X51.0346 Y142.8222
G01 X51.0263 Y142.9036
G01 X51.0160 Y142.9848
G01 X50.9684 Y143.3070
G01 X50.9617 Y143.3493
G01 X50.9511 Y143.4108
G01 X50.9385 Y143.4758
G01 X50.9280 Y143.5253
G01 X50.9176 Y143.5709
G01 X50.9076 Y143.6126
G01 X50.8283 Y143.9286
G01 X50.8110 Y143.9925
G01 X50.8013 Y144.0262
G01 X50.7878 Y144.0710
G01 X50.7725 Y144.1193
G01 X50.7578 Y144.1636
G01 X50.7411 Y144.2115
G01 X50.6445 Y144.4815
G01 X50.6215 Y144.5436
G01 X50.5973 Y144.6053
G01 X50.5735 Y144.6629
G01 X50.5469 Y144.7236
G01 X50.5193 Y144.7837
G01 X50.3832 Y145.0711
G01 X50.3466 Y145.1443
G01 X50.3157 Y145.2029
G01 X50.2912 Y145.2472
G01 X50.2543 Y145.3114
G01 X50.0910 Y145.5842
G01 X50.0603 Y145.6340
G01 X50.0246 Y145.6897
G01 X49.9900 Y145.7416
G01 X49.9521 Y145.7959
G01 X49.9132 Y145.8495
G01 X49.7424 Y146.0799
G01 X49.7024 Y146.1327
G01 X49.6613 Y146.1847
G01 X49.6318 Y146.2209
G01 X49.5991 Y146.2596
G01 X49.5556 Y146.3096
G01 X49.3370 Y146.5511
G01 X49.2972 Y146.5939
G01 X49.2513 Y146.6416
G01 X49.2183 Y146.6748
G01 X49.1821 Y146.7101
G01 X49.1481 Y146.7423
G01 X49.1109 Y146.7766
G01 X48.8752 Y146.9900
G01 X48.8134 Y147.0437
G01 X48.7624 Y147.0859
G01 X48.7228 Y147.1176
G01 X48.6642 Y147.1628
G01 X48.4089 Y147.3523
G01 X48.3742 Y147.3775
G01 X48.3232 Y147.4134
G01 X48.2943 Y147.4331
G01 X48.2390 Y147.4696
G01 X48.1863 Y147.5030
G01 X48.1431 Y147.5294
G01 X47.8971 Y147.6768
G01 X47.8400 Y147.7103
G01 X47.7822 Y147.7426
G01 X47.7272 Y147.7720
G01 X47.6682 Y147.8021
G01 X47.6086 Y147.8311
G01 X47.3211 Y147.9668
G01 X47.2464 Y148.0002
G01 X47.1853 Y148.0259
G01 X47.1383 Y148.0447
G01 X47.0691 Y148.0709
G01 X46.7771 Y148.1755
G01 X46.7292 Y148.1922
G01 X46.6700 Y148.2117
G01 X46.6067 Y148.2313
G01 X46.5581 Y148.2454
G01 X46.5130 Y148.2577
G01 X46.4715 Y148.2685
G01 X46.1555 Y148.3475
G01 X46.0909 Y148.3624
G01 X46.0414 Y148.3729
G01 X45.9764 Y148.3855
G01 X45.9149 Y148.3961
G01 X45.8649 Y148.4040
G01 X45.5735 Y148.4472
G01 X45.5310 Y148.4531
G01 X45.4692 Y148.4607
G01 X45.4033 Y148.4675
G01 X45.3684 Y148.4706
G01 X45.3217 Y148.4742
G01 X45.2790 Y148.4769
G01 X44.9458 Y148.4932
G01 X44.9030 Y148.4947
G01 X44.8290 Y148.4961
G01 X23.7744 Y148.4962
G01 X23.7082 Y148.4955
G01 X23.6614 Y148.4943
G01 X23.6186 Y148.4926
G01 X23.3166 Y148.4777
G01 X23.2738 Y148.4752
G01 X23.2272 Y148.4719
G01 X23.1922 Y148.4690
G01 X23.1457 Y148.4645
G01 X23.1108 Y148.4607
G01 X23.0644 Y148.4551
G01 X22.9988 Y148.4461
G01 X22.6920 Y148.4004
G01 X22.6190 Y148.3882
G01 X22.5692 Y148.3789
G01 X22.5233 Y148.3697
G01 X22.4891 Y148.3624
G01 X22.4435 Y148.3520
G01 X22.4018 Y148.3420
G01 X22.0934 Y148.2647
G01 X22.0519 Y148.2537
G01 X21.9882 Y148.2357
G01 X21.9100 Y148.2117
G01 X21.8324 Y148.1858
G01 X21.5329 Y148.0789
G01 X21.4854 Y148.0614
G01 X21.4272 Y148.0390
G01 X21.3659 Y148.0139
G01 X21.3193 Y147.9940
G01 X21.2589 Y147.9668
G01 X20.9503 Y147.8210
G01 X20.8840 Y147.7881
G01 X20.8390 Y147.7647
G01 X20.7808 Y147.7332
G01 X20.7097 Y147.6927
G01 X20.4169 Y147.5173
G01 X20.3804 Y147.4947
G01 X20.3247 Y147.4590
G01 X20.2728 Y147.4244
G01 X20.2185 Y147.3865
G01 X20.1649 Y147.3476
G01 X19.9345 Y147.1768
G01 X19.8817 Y147.1368
G01 X19.8297 Y147.0957
G01 X19.7815 Y147.0562
G01 X19.7312 Y147.0132
G01 X19.6874 Y146.9745
G01 X19.4461 Y146.7556
G01 X19.3867 Y146.6993
G01 X19.3396 Y146.6527
G01 X19.3043 Y146.6165
G01 X19.2535 Y146.5625
G01 X19.0399 Y146.3270
G01 X19.0012 Y146.2832
G01 X18.9582 Y146.2329
G01 X18.9187 Y146.1847
G01 X18.8776 Y146.1327
G01 X18.8376 Y146.0799
G01 X18.6668 Y145.8495
G01 X18.6369 Y145.8086
G01 X18.6010 Y145.7576
G01 X18.5640 Y145.7028
G01 X18.5448 Y145.6734
G01 X18.5114 Y145.6207
G01 X18.4890 Y145.5842
G01 X18.3257 Y145.3114
G01 X18.2888 Y145.2472
G01 X18.2643 Y145.2029
G01 X18.2334 Y145.1443
G01 X18.1968 Y145.0711
G01 X18.0607 Y144.7837
G01 X18.0395 Y144.7378
G01 X18.0142 Y144.6808
G01 X17.9885 Y144.6197
G01 X17.9754 Y144.5872
G01 X17.9530 Y144.5290
G01 X17.9355 Y144.4815
G01 X17.8389 Y144.2115
G01 X17.8173 Y144.1489
G01 X17.7968 Y144.0859
G01 X17.7787 Y144.0262
G01 X17.7607 Y143.9625
G01 X17.7459 Y143.9059
G01 X17.6743 Y143.6202
G01 X17.6624 Y143.5709
G01 X17.6447 Y143.4911
G01 X17.6289 Y143.4108
G01 X17.6183 Y143.3493
G01 X17.6116 Y143.3070
G01 X17.5650 Y142.9925
G01 X17.5593 Y142.9500
G01 X17.5537 Y142.9036
G01 X17.5454 Y142.8222
G01 X17.5402 Y142.7561
G01 X17.5375 Y142.7134
G01 X17.5222 Y142.4036
G01 X17.5197 Y142.3374
G01 X17.5186 Y142.2906
G01 X17.5183 Y142.2556
G01 X17.5184 Y142.2088
G01 X17.5189 Y142.1738
G01 X17.5201 Y142.1270
G01 X17.5218 Y142.0842
G01 X17.5367 Y141.7822
G01 X17.5392 Y141.7394
G01 X17.5425 Y141.6928
G01 X17.5469 Y141.6423
G01 X17.5537 Y141.5764
G01 X17.5613 Y141.5146
G01 X17.5683 Y141.4644
G01 X17.6104 Y141.1807
G01 X17.6183 Y141.1307
G01 X17.6325 Y141.0501
G01 X17.6415 Y141.0042
G01 X17.6520 Y140.9547
G01 X17.6624 Y140.9091
G01 X17.6724 Y140.8674
G01 X17.7439 Y140.5816
G01 X17.7567 Y140.5326
G01 X17.7733 Y140.4725
G01 X17.7968 Y140.3941
G01 X17.8222 Y140.3164
G01 X17.8389 Y140.2685
G01 X17.9000 Y140.0978
G01 X17.9000 Y137.9093
G01 X17.9004 Y137.8587
G01 X17.9020 Y137.7963
G01 X17.9037 Y137.7535
G01 X17.9106 Y137.6134
G01 X17.9141 Y137.5551
G01 X17.9193 Y137.4890
G01 X17.9254 Y137.4270
G01 X17.9332 Y137.3612
G01 X17.9411 Y137.3033
G01 X17.9617 Y137.1645
G01 X17.9709 Y137.1068
G01 X17.9826 Y137.0416
G01 X17.9988 Y136.9614
G01 X18.0089 Y136.9158
G01 X18.0188 Y136.8741
G01 X18.0566 Y136.7229
G01 X18.0714 Y136.6663
G01 X18.0840 Y136.6213
G01 X18.0938 Y136.5877
G01 X18.1075 Y136.5429
G01 X18.1182 Y136.5095
G01 X18.1418 Y136.4394
G01 X18.1943 Y136.2926
G01 X18.2091 Y136.2524
G01 X18.2258 Y136.2087
G01 X18.2388 Y136.1761
G01 X18.2566 Y136.1329
G01 X18.2703 Y136.1006
G01 X18.2891 Y136.0579
G01 X18.3135 Y136.0047
G01 X18.3668 Y135.8919
G01 X18.3338 Y135.8683
G01 X18.2838 Y135.8312
G01 X18.2313 Y135.7907
G01 X18.1918 Y135.7590
G01 X18.1408 Y135.7168
G01 X18.0936 Y135.6760
G01 X18.0443 Y135.6318
G01 X18.0072 Y135.5973
G01 X17.9734 Y135.5650
G01 X17.9263 Y135.5184
G01 X17.8910 Y135.4822
G01 X17.8455 Y135.4340
G01 X17.8037 Y135.3878
G01 X17.7601 Y135.3379
G01 X17.7275 Y135.2991
G01 X17.6858 Y135.2477
G01 X17.6569 Y135.2109
G01 X17.6263 Y135.1706
G01 X17.5871 Y135.1172
G01 X17.5512 Y135.0662
G01 X17.5141 Y135.0113
G01 X17.4865 Y134.9689
G01 X17.4513 Y134.9127
G01 X17.4193 Y134.8593
G01 X17.3863 Y134.8018
G01 X17.3619 Y134.7574
G01 X17.3310 Y134.6988
G01 X17.3030 Y134.6432
G01 X17.2743 Y134.5834
G01 X17.2533 Y134.5374
G01 X17.2267 Y134.4767
G01 X17.2051 Y134.4246
G01 X13.8183 Y134.4246
G01 X13.7593 Y134.4340
G01 X13.4679 Y134.4772
G01 X13.4100 Y134.4851
G01 X13.3636 Y134.4907
G01 X13.3287 Y134.4945
G01 X13.2628 Y134.5006
G01 X13.1812 Y134.5064
G01 X12.8558 Y134.5226
G01 X12.7974 Y134.5247
G01 X12.7312 Y134.5260
G01 X12.6494 Y134.5258
G01 X12.5870 Y134.5243
G01 X12.5364 Y134.5222
G01 X12.2422 Y134.5077
G01 X12.1839 Y134.5042
G01 X12.1178 Y134.4990
G01 X12.0713 Y134.4945
G01 X12.0209 Y134.4889
G01 X11.9746 Y134.4831
G01 X11.9244 Y134.4761
G01 X11.6099 Y134.4292
G01 X11.5292 Y134.4155
G01 X11.4642 Y134.4029
G01 X11.4147 Y134.3924
G01 X11.3425 Y134.3757
G01 X11.0341 Y134.2985
G01 X10.9926 Y134.2877
G01 X10.9475 Y134.2754
G01 X10.8989 Y134.2613
G01 X10.8541 Y134.2476
G01 X10.7911 Y134.2271
G01 X10.7506 Y134.2133
G01 X10.4512 Y134.1062
G01 X10.4110 Y134.0914
G01 X10.3673 Y134.0747
G01 X10.3203 Y134.0559
G01 X10.2771 Y134.0379
G01 X10.2164 Y134.0113
G01 X10.1633 Y133.9870
G01 X9.8970 Y133.8611
G01 X9.8514 Y133.8390
G01 X9.8096 Y133.8181
G01 X9.7646 Y133.7947
G01 X9.7064 Y133.7632
G01 X9.6521 Y133.7325
G01 X9.6085 Y133.7068
G01 X9.3625 Y133.5594
G01 X9.3060 Y133.5247
G01 X9.2503 Y133.4890
G01 X9.1984 Y133.4544
G01 X9.1441 Y133.4165
G01 X9.0905 Y133.3776
G01 X8.8352 Y133.1881
G01 X8.7705 Y133.1379
G01 X8.7191 Y133.0962
G01 X8.6804 Y133.0635
G01 X8.6246 Y133.0148
G01 X8.3775 Y132.7909
G01 X8.3235 Y132.7401
G01 X8.2873 Y132.7048
G01 X8.2407 Y132.6577
G01 X8.1977 Y132.6125
G01 X8.1634 Y132.5753
G01 X7.9655 Y132.3570
G01 X7.9371 Y132.3250
G01 X7.8963 Y132.2778
G01 X7.8738 Y132.2509
G01 X7.8321 Y132.1995
G01 X7.7937 Y132.1503
G01 X7.7679 Y132.1161
G01 X7.5785 Y131.8607
G01 X7.5355 Y131.8004
G01 X7.5069 Y131.7587
G01 X7.4704 Y131.7034
G01 X7.4268 Y131.6342
G01 X7.2632 Y131.3615
G01 X7.2375 Y131.3179
G01 X7.2144 Y131.2772
G01 X7.1899 Y131.2329
G01 X7.1680 Y131.1916
G01 X7.1379 Y131.1326
G01 X7.1123 Y131.0800
G01 X6.9863 Y130.8137
G01 X6.9651 Y130.7678
G01 X6.9398 Y130.7108
G01 X6.9141 Y130.6497
G01 X6.8953 Y130.6027
G01 X6.8718 Y130.5408
G01 X6.7619 Y130.2341
G01 X6.7478 Y130.1936
G01 X6.7331 Y130.1493
G01 X6.7178 Y130.1010
G01 X6.6989 Y130.0375
G01 X6.6823 Y129.9774
G01 X6.6695 Y129.9284
G01 X6.5925 Y129.6199
G01 X6.5743 Y129.5401
G01 X6.5611 Y129.4752
G01 X6.5518 Y129.4254
G01 X6.5396 Y129.3524
G01 X6.4906 Y129.0225
G01 X6.4811 Y128.9491
G01 X6.4755 Y128.8987
G01 X6.4694 Y128.8328
G01 X6.4636 Y128.7512
G01 X6.4465 Y128.4024
G01 X6.4442 Y128.3206
G01 X6.4439 Y128.2544
G01 X6.4442 Y128.2194
G01 X6.4453 Y128.1726
G01 X6.4474 Y128.1142
G01 X6.4619 Y127.8200
G01 X6.4648 Y127.7694
G01 X6.4710 Y127.6878
G01 X6.4772 Y127.6258
G01 X6.4849 Y127.5600
G01 X6.4939 Y127.4944
G01 X6.5408 Y127.1799
G01 X6.5545 Y127.0992
G01 X6.5671 Y127.0342
G01 X6.5743 Y126.9999
G01 X6.5845 Y126.9542
G01 X6.5980 Y126.8974
G01 X6.6695 Y126.6116
G01 X6.6863 Y126.5475
G01 X6.6989 Y126.5025
G01 X6.7087 Y126.4689
G01 X6.7224 Y126.4241
G01 X6.7429 Y126.3611
G01 X6.7645 Y126.2985
G01 X6.8638 Y126.0212
G01 X6.8841 Y125.9664
G01 X6.9010 Y125.9228
G01 X6.9141 Y125.8903
G01 X6.9321 Y125.8471
G01 X6.9460 Y125.8149
G01 X6.9764 Y125.7474
G01 X7.1224 Y125.4389
G01 X7.1590 Y125.3657
G01 X7.1899 Y125.3071
G01 X7.2068 Y125.2764
G01 X7.2297 Y125.2356
G01 X7.2592 Y125.1852
G01 X7.4106 Y124.9325
G01 X7.4370 Y124.8893
G01 X7.4704 Y124.8366
G01 X7.5069 Y124.7813
G01 X7.5355 Y124.7396
G01 X7.5785 Y124.6793
G01 X7.7819 Y124.4052
G01 X7.8321 Y124.3405
G01 X7.8838 Y124.2771
G01 X7.9268 Y124.2268
G01 X7.9655 Y124.1830
G01 X8.1634 Y123.9647
G01 X8.2084 Y123.9161
G01 X8.2407 Y123.8823
G01 X8.2707 Y123.8517
G01 X8.3833 Y123.7391
G01 X8.4139 Y123.7091
G01 X8.4477 Y123.6768
G01 X8.4905 Y123.6370
G01 X8.7320 Y123.4184
G01 X8.7938 Y123.3647
G01 X8.8569 Y123.3127
G01 X8.9089 Y123.2716
G01 X8.9617 Y123.2316
G01 X9.2109 Y123.0469
G01 X9.2457 Y123.0219
G01 X9.3000 Y122.9840
G01 X9.3682 Y122.9388
G01 X9.4374 Y122.8952
G01 X9.7101 Y122.7316
G01 X9.7537 Y122.7059
G01 X9.7944 Y122.6828
G01 X9.8387 Y122.6583
G01 X9.8800 Y122.6364
G01 X9.9390 Y122.6063
G01 X9.9916 Y122.5807
G01 X10.2579 Y122.4547
G01 X10.3038 Y122.4335
G01 X10.3465 Y122.4144
G01 X10.3931 Y122.3945
G01 X10.4544 Y122.3694
G01 X10.5126 Y122.3470
G01 X10.5601 Y122.3295
G01 X10.8301 Y122.2329
G01 X10.8927 Y122.2113
G01 X10.9557 Y122.1908
G01 X11.0154 Y122.1727
G01 X11.0791 Y122.1547
G01 X11.1432 Y122.1379
G01 X11.4517 Y122.0609
G01 X11.5315 Y122.0427
G01 X11.5964 Y122.0295
G01 X11.6462 Y122.0202
G01 X11.7192 Y122.0080
G01 X12.0491 Y121.9590
G01 X12.1225 Y121.9495
G01 X12.1729 Y121.9439
G01 X12.2388 Y121.9378
G01 X12.3010 Y121.9332
G01 X12.3516 Y121.9303
G01 X12.6458 Y121.9158
G01 X12.7042 Y121.9137
G01 X12.7704 Y121.9124
G01 X16.9329 Y121.9122
G01 X16.9329 Y115.6020
G01 X15.2400 Y115.6020
G01 X15.1894 Y115.6016
G01 X15.1426 Y115.6005
G01 X15.0764 Y115.5980
G01 X14.9760 Y115.5926
G01 X14.9139 Y115.5880
G01 X14.8479 Y115.5819
G01 X14.7976 Y115.5763
G01 X14.7242 Y115.5668
G01 X14.6286 Y115.5526
G01 X14.5556 Y115.5404
G01 X14.5058 Y115.5311
G01 X14.4599 Y115.5219
G01 X14.3800 Y115.5042
G01 X14.3308 Y115.4923
G01 X14.2522 Y115.4725
G01 X14.1883 Y115.4551
G01 X14.1546 Y115.4454
G01 X14.1098 Y115.4320
G01 X14.0616 Y115.4167
G01 X14.0172 Y115.4019
G01 X13.9767 Y115.3878
G01 X13.8748 Y115.3510
G01 X13.8312 Y115.3342
G01 X13.7842 Y115.3154
G01 X13.7410 Y115.2974
G01 X13.6803 Y115.2709
G01 X13.6413 Y115.2531
G01 X13.5750 Y115.2219
G01 X13.5294 Y115.1999
G01 X13.4876 Y115.1789
G01 X13.4427 Y115.1556
G01 X13.4015 Y115.1335
G01 X13.3708 Y115.1165
G01 X13.3134 Y115.0836
G01 X13.2437 Y115.0421
G01 X13.2005 Y115.0156
G01 X13.1315 Y114.9717
G01 X13.0926 Y114.9458
G01 X13.0508 Y114.9171
G01 X12.9906 Y114.8741
G01 X12.9034 Y114.8093
G01 X12.8397 Y114.7598
G01 X12.7772 Y114.7088
G01 X12.7160 Y114.6562
G01 X12.6360 Y114.5843
G01 X12.5932 Y114.5445
G01 X12.5594 Y114.5122
G01 X12.5288 Y114.4822
G01 X5.8744 Y107.8278
G01 X5.8744 Y159.2256
G01 X69.0563 Y159.2256
G01 X69.0563 Y74.2969
G01 X59.0531 Y64.2937
G01 X50.9355 Y64.2937
G01 X51.0159 Y64.3668
G01 X51.0754 Y64.4230
G01 X51.1115 Y64.4585
G01 X51.3396 Y64.6867
G01 X51.3844 Y64.6725
G01 X51.4479 Y64.6536
G01 X51.5080 Y64.6370
G01 X51.5494 Y64.6262
G01 X51.6364 Y64.6044
G01 X51.6932 Y64.5909
G01 X51.7389 Y64.5807
G01 X51.8037 Y64.5675
G01 X51.8535 Y64.5582
G01 X51.9189 Y64.5472
G01 X52.0229 Y64.5316
G01 X52.0731 Y64.5246
G01 X52.1195 Y64.5188
G01 X52.1698 Y64.5132
G01 X52.2357 Y64.5070
G01 X52.2824 Y64.5035
G01 X52.3485 Y64.4995
G01 X52.4536 Y64.4945
G01 X52.5198 Y64.4926
G01 X52.5782 Y64.4919
G01 X54.0940 Y64.4919
G01 X54.1602 Y64.4926
G01 X54.2342 Y64.4949
G01 X54.3626 Y64.5012
G01 X54.4443 Y64.5070
G01 X54.5257 Y64.5148
G01 X54.6069 Y64.5246
G01 X54.6571 Y64.5316
G01 X54.7380 Y64.5436
G01 X54.7804 Y64.5503
G01 X54.8265 Y64.5582
G01 X54.8609 Y64.5645
G01 X54.9068 Y64.5736
G01 X54.9564 Y64.5840
G01 X55.0020 Y64.5944
G01 X55.0436 Y64.6044
G01 X55.1230 Y64.6243
G01 X55.1871 Y64.6411
G01 X55.2321 Y64.6536
G01 X55.2658 Y64.6635
G01 X55.3105 Y64.6771
G01 X55.3439 Y64.6878
G01 X55.4140 Y64.7115
G01 X55.5278 Y64.7522
G01 X55.5679 Y64.7672
G01 X55.6115 Y64.7841
G01 X55.6440 Y64.7972
G01 X55.7051 Y64.8228
G01 X55.7798 Y64.8562
G01 X55.9031 Y64.9145
G01 X55.9624 Y64.9440
G01 X55.9936 Y64.9601
G01 X56.0656 Y64.9988
G01 X56.1063 Y65.0218
G01 X56.1434 Y65.0433
G01 X56.2536 Y65.1095
G01 X56.2834 Y65.1280
G01 X56.3392 Y65.1637
G01 X56.3781 Y65.1896
G01 X56.4199 Y65.2182
G01 X56.4581 Y65.2452
G01 X56.4927 Y65.2704
G01 X56.5585 Y65.3192
G01 X56.5989 Y65.3497
G01 X56.6358 Y65.3784
G01 X56.6754 Y65.4100
G01 X56.7115 Y65.4398
G01 X56.7382 Y65.4624
G01 X56.7736 Y65.4930
G01 X56.8056 Y65.5215
G01 X56.8662 Y65.5764
G01 X56.9035 Y65.6108
G01 X56.9374 Y65.6429
G01 X56.9737 Y65.6783
G01 X57.0203 Y65.7254
G01 X57.0526 Y65.7592
G01 X57.0923 Y65.8020
G01 X57.1473 Y65.8626
G01 X57.1810 Y65.9004
G01 X57.2116 Y65.9358
G01 X57.2342 Y65.9625
G01 X57.2640 Y65.9986
G01 X57.2956 Y66.0382
G01 X57.3243 Y66.0751
G01 X57.3548 Y66.1155
G01 X57.4036 Y66.1813
G01 X57.4288 Y66.2159
G01 X57.4558 Y66.2541
G01 X57.4757 Y66.2829
G01 X57.5017 Y66.3218
G01 X57.5294 Y66.3642
G01 X57.5543 Y66.4038
G01 X57.5807 Y66.4470
G01 X57.6227 Y66.5172
G01 X57.6444 Y66.5542
G01 X57.6676 Y66.5948
G01 X57.6845 Y66.6255
G01 X57.7067 Y66.6667
G01 X57.7300 Y66.7116
G01 X57.7509 Y66.7534
G01 X57.7696 Y66.7920
G01 X57.8068 Y66.8705
G01 X57.8288 Y66.9182
G01 X57.8472 Y66.9599
G01 X57.8782 Y67.0334
G01 X57.8965 Y67.0793
G01 X57.9128 Y67.1218
G01 X57.9548 Y67.2379
G01 X57.9764 Y67.3005
G01 X57.9910 Y67.3449
G01 X58.0015 Y67.3784
G01 X58.0150 Y67.4232
G01 X58.0246 Y67.4569
G01 X58.0370 Y67.5020
G01 X58.0478 Y67.5434
G01 X58.0677 Y67.6228
G01 X58.0796 Y67.6720
G01 X58.0973 Y67.7519
G01 X58.1130 Y67.8322
G01 X58.1268 Y67.9129
G01 X58.1457 Y68.0400
G01 X58.1514 Y68.0825
G01 X58.1570 Y68.1289
G01 X58.1653 Y68.2103
G01 X58.1705 Y68.2764
G01 X58.1745 Y68.3425
G01 X58.1785 Y68.4242
G01 X58.1802 Y68.4670
G01 X58.1819 Y68.5488
G01 X58.1817 Y68.6306
G01 X58.1795 Y68.7124
G01 X58.1741 Y68.8253
G01 X58.1705 Y68.8836
G01 X58.1670 Y68.9303
G01 X58.1639 Y68.9652
G01 X58.1592 Y69.0117
G01 X58.1552 Y69.0465
G01 X58.1494 Y69.0929
G01 X58.1435 Y69.1354
G01 X58.1280 Y69.2394
G01 X58.1158 Y69.3125
G01 X58.1095 Y69.3469
G01 X58.1004 Y69.3928
G01 X58.0933 Y69.4271
G01 X58.0831 Y69.4728
G01 X58.0696 Y69.5296
G01 X58.0497 Y69.6090
G01 X58.0329 Y69.6731
G01 X58.0204 Y69.7181
G01 X58.0105 Y69.7518
G01 X57.9969 Y69.7965
G01 X57.9795 Y69.8500
G01 X58.0015 Y69.9184
G01 X58.0150 Y69.9632
G01 X58.0246 Y69.9969
G01 X58.0439 Y70.0683
G01 X58.0677 Y70.1628
G01 X58.0831 Y70.2272
G01 X58.0973 Y70.2919
G01 X58.1095 Y70.3531
G01 X58.1211 Y70.4183
G01 X58.1304 Y70.4760
G01 X58.1457 Y70.5800
G01 X58.1552 Y70.6535
G01 X58.1608 Y70.7038
G01 X58.1670 Y70.7697
G01 X58.1716 Y70.8319
G01 X58.1741 Y70.8747
G01 X58.1781 Y70.9564
G01 X58.1802 Y71.0070
G01 X58.1819 Y71.0888
G01 X58.1817 Y71.1706
G01 X58.1795 Y71.2524
G01 X58.1741 Y71.3653
G01 X58.1705 Y71.4236
G01 X58.1670 Y71.4703
G01 X58.1639 Y71.5052
G01 X58.1592 Y71.5517
G01 X58.1552 Y71.5865
G01 X58.1494 Y71.6329
G01 X58.1435 Y71.6754
G01 X58.1280 Y71.7794
G01 X58.1158 Y71.8525
G01 X58.1095 Y71.8869
G01 X58.1004 Y71.9328
G01 X58.0933 Y71.9671
G01 X58.0831 Y72.0128
G01 X58.0696 Y72.0696
G01 X58.0497 Y72.1490
G01 X58.0329 Y72.2131
G01 X58.0204 Y72.2581
G01 X58.0105 Y72.2918
G01 X57.9969 Y72.3365
G01 X57.9795 Y72.3900
G01 X57.9969 Y72.4435
G01 X58.0150 Y72.5032
G01 X58.0246 Y72.5369
G01 X58.0420 Y72.6008
G01 X58.0677 Y72.7028
G01 X58.0796 Y72.7520
G01 X58.0933 Y72.8129
G01 X58.1065 Y72.8777
G01 X58.1158 Y72.9275
G01 X58.1268 Y72.9929
G01 X58.1424 Y73.0969
G01 X58.1494 Y73.1471
G01 X58.1552 Y73.1935
G01 X58.1608 Y73.2438
G01 X58.1670 Y73.3097
G01 X58.1705 Y73.3564
G01 X58.1741 Y73.4147
G01 X58.1785 Y73.5042
G01 X58.1802 Y73.5470
G01 X58.1817 Y73.6094
G01 X58.1820 Y73.6444
G01 X58.1817 Y73.7106
G01 X58.1802 Y73.7730
G01 X58.1781 Y73.8236
G01 X58.1741 Y73.9053
G01 X58.1705 Y73.9636
G01 X58.1670 Y74.0103
G01 X58.1608 Y74.0762
G01 X58.1552 Y74.1265
G01 X58.1468 Y74.1922
G01 X58.1315 Y74.2963
G01 X58.1237 Y74.3464
G01 X58.1158 Y74.3925
G01 X58.1065 Y74.4423
G01 X58.0973 Y74.4881
G01 X58.0831 Y74.5528
G01 X58.0696 Y74.6096
G01 X58.0478 Y74.6966
G01 X58.0370 Y74.7380
G01 X58.0204 Y74.7981
G01 X57.9969 Y74.8765
G01 X57.9764 Y74.9395
G01 X57.9651 Y74.9727
G01 X57.9191 Y75.1011
G01 X57.8956 Y75.1630
G01 X57.8827 Y75.1956
G01 X57.8649 Y75.2388
G01 X57.8449 Y75.2854
G01 X57.8259 Y75.3281
G01 X57.8079 Y75.3670
G01 X57.7730 Y75.4410
G01 X57.7509 Y75.4866
G01 X57.7300 Y75.5284
G01 X57.7067 Y75.5733
G01 X57.6845 Y75.6145
G01 X57.6676 Y75.6452
G01 X57.6444 Y75.6858
G01 X57.6188 Y75.7295
G01 X57.5767 Y75.7997
G01 X57.5460 Y75.8494
G01 X57.5103 Y75.9052
G01 X57.4844 Y75.9441
G01 X57.4558 Y75.9859
G01 X57.4288 Y76.0241
G01 X57.3989 Y76.0650
G01 X57.3502 Y76.1307
G01 X57.3243 Y76.1649
G01 X57.2956 Y76.2018
G01 X57.2640 Y76.2414
G01 X57.2342 Y76.2775
G01 X57.2116 Y76.3042
G01 X57.1681 Y76.3542
G01 X57.0765 Y76.4552
G01 X57.0526 Y76.4808
G01 X57.0066 Y76.5286
G01 X56.9737 Y76.5617
G01 X56.9374 Y76.5971
G01 X56.9035 Y76.6292
G01 X56.8720 Y76.6583
G01 X56.8056 Y76.7185
G01 X56.7618 Y76.7572
G01 X56.7115 Y76.8002
G01 X56.6754 Y76.8300
G01 X56.6481 Y76.8520
G01 X56.6113 Y76.8808
G01 X56.5647 Y76.9162
G01 X56.4927 Y76.9696
G01 X56.4581 Y76.9948
G01 X56.4071 Y77.0307
G01 X56.3522 Y77.0677
G01 X56.3229 Y77.0869
G01 X56.2702 Y77.1203
G01 X56.2337 Y77.1427
G01 X56.1568 Y77.1887
G01 X56.1063 Y77.2182
G01 X56.0656 Y77.2412
G01 X56.0073 Y77.2727
G01 X55.9624 Y77.2960
G01 X55.9031 Y77.3255
G01 X55.8080 Y77.3706
G01 X55.7530 Y77.3960
G01 X55.6932 Y77.4223
G01 X55.6486 Y77.4409
G01 X55.6000 Y77.4604
G01 X55.5361 Y77.4848
G01 X55.4361 Y77.5208
G01 X55.3883 Y77.5374
G01 X55.3291 Y77.5570
G01 X55.2658 Y77.5765
G01 X55.2171 Y77.5906
G01 X55.1457 Y77.6099
G01 X55.0436 Y77.6356
G01 X54.9868 Y77.6491
G01 X54.9411 Y77.6593
G01 X54.8763 Y77.6725
G01 X54.8265 Y77.6818
G01 X54.7611 Y77.6928
G01 X54.6571 Y77.7084
G01 X54.6069 Y77.7154
G01 X54.5451 Y77.7230
G01 X54.4792 Y77.7299
G01 X54.4287 Y77.7342
G01 X54.3626 Y77.7388
G01 X54.2576 Y77.7441
G01 X54.2070 Y77.7462
G01 X54.1446 Y77.7477
G01 X54.0940 Y77.7481
G01 X52.5626 Y77.7480
G01 X52.4886 Y77.7466
G01 X52.4302 Y77.7445
G01 X52.3174 Y77.7388
G01 X52.2357 Y77.7330
G01 X52.1543 Y77.7252
G01 X52.0731 Y77.7154
G01 X52.0229 Y77.7084
G01 X51.9420 Y77.6964
G01 X51.8996 Y77.6897
G01 X51.8535 Y77.6818
G01 X51.8191 Y77.6755
G01 X51.7732 Y77.6664
G01 X51.7389 Y77.6593
G01 X51.6932 Y77.6491
G01 X51.6288 Y77.6337
G01 X51.5494 Y77.6138
G01 X51.5080 Y77.6030
G01 X51.4292 Y77.5810
G01 X51.3509 Y77.5570
G01 X51.2733 Y77.5311
G01 X51.1669 Y77.4932
G01 X51.1121 Y77.4728
G01 X51.0685 Y77.4559
G01 X51.0360 Y77.4428
G01 X50.9928 Y77.4248
G01 X50.9606 Y77.4109
G01 X50.9179 Y77.3919
G01 X50.8812 Y77.3749
G01 X49.7788 Y77.3749
G01 X49.7788 Y78.7000
G01 X49.7783 Y78.7506
G01 X49.7773 Y78.7974
G01 X49.7754 Y78.8480
G01 X49.7718 Y78.9141
G01 X49.7685 Y78.9608
G01 X49.7641 Y79.0112
G01 X49.7595 Y79.0578
G01 X49.7497 Y79.1390
G01 X49.7379 Y79.2200
G01 X49.7269 Y79.2853
G01 X49.7176 Y79.3351
G01 X49.7084 Y79.3809
G01 X49.7011 Y79.4152
G01 X49.6862 Y79.4798
G01 X49.6661 Y79.5591
G01 X49.6441 Y79.6379
G01 X49.6201 Y79.7161
G01 X49.5942 Y79.7937
G01 X49.5732 Y79.8524
G01 X49.5440 Y79.9288
G01 X49.5189 Y79.9901
G01 X49.5052 Y80.0224
G01 X49.4863 Y80.0652
G01 X49.4653 Y80.1112
G01 X49.4452 Y80.1535
G01 X49.4297 Y80.1849
G01 X49.4086 Y80.2266
G01 X49.3924 Y80.2577
G01 X49.3702 Y80.2989
G01 X49.3533 Y80.3296
G01 X49.3301 Y80.3702
G01 X49.3124 Y80.4005
G01 X49.2883 Y80.4405
G01 X49.2698 Y80.4703
G01 X49.2447 Y80.5098
G01 X49.2255 Y80.5391
G01 X49.1994 Y80.5779
G01 X49.1795 Y80.6068
G01 X49.1525 Y80.6450
G01 X49.1319 Y80.6733
G01 X49.1040 Y80.7108
G01 X49.0827 Y80.7387
G01 X49.0538 Y80.7755
G01 X49.0318 Y80.8028
G01 X49.0021 Y80.8389
G01 X48.9795 Y80.8657
G01 X48.9488 Y80.9010
G01 X48.9255 Y80.9272
G01 X48.8941 Y80.9618
G01 X48.8701 Y80.9874
G01 X48.8378 Y81.0212
G01 X48.8133 Y81.0462
G01 X48.7801 Y81.0792
G01 X48.7324 Y81.1251
G01 X48.7068 Y81.1491
G01 X48.6722 Y81.1805
G01 X48.6460 Y81.2038
G01 X48.6107 Y81.2345
G01 X48.5839 Y81.2571
G01 X48.5478 Y81.2868
G01 X48.5083 Y81.3185
G01 X48.4713 Y81.3472
G01 X48.4058 Y81.3961
G01 X48.3390 Y81.4434
G01 X48.2711 Y81.4891
G01 X48.2021 Y81.5330
G01 X48.1321 Y81.5753
G01 X48.0610 Y81.6158
G01 X47.9889 Y81.6546
G01 X47.9160 Y81.6916
G01 X47.8421 Y81.7268
G01 X47.7674 Y81.7602
G01 X47.6919 Y81.7917
G01 X47.6157 Y81.8214
G01 X47.5387 Y81.8492
G01 X47.4611 Y81.8751
G01 X47.3829 Y81.8991
G01 X47.3191 Y81.9171
G01 X47.2701 Y81.9300
G01 X47.2058 Y81.9457
G01 X47.1602 Y81.9561
G01 X47.1106 Y81.9666
G01 X47.0648 Y81.9756
G01 X46.9996 Y81.9872
G01 X46.9496 Y81.9953
G01 X46.8840 Y82.0047
G01 X46.8376 Y82.0105
G01 X46.7873 Y82.0161
G01 X46.7213 Y82.0222
G01 X46.6591 Y82.0268
G01 X46.5930 Y82.0304
G01 X46.5424 Y82.0323
G01 X46.4956 Y82.0333
G01 X46.4450 Y82.0338
G01 X44.9950 Y82.0338
G01 X44.9288 Y82.0330
G01 X44.8626 Y82.0311
G01 X44.8003 Y82.0280
G01 X44.7342 Y82.0235
G01 X44.6838 Y82.0191
G01 X44.6179 Y82.0123
G01 X44.5560 Y82.0047
G01 X44.4904 Y81.9953
G01 X44.4500 Y81.9888
G01 X44.3787 Y81.9999
G01 X44.3285 Y82.0067
G01 X44.2628 Y82.0145
G01 X44.1813 Y82.0222
G01 X44.1191 Y82.0268
G01 X44.0530 Y82.0304
G01 X44.0024 Y82.0323
G01 X43.9284 Y82.0336
G01 X42.4550 Y82.0338
G01 X42.3888 Y82.0330
G01 X42.3226 Y82.0311
G01 X42.2603 Y82.0280
G01 X42.1942 Y82.0235
G01 X42.1438 Y82.0191
G01 X42.0779 Y82.0123
G01 X42.0160 Y82.0047
G01 X41.9504 Y81.9953
G01 X41.9100 Y81.9888
G01 X41.8387 Y81.9999
G01 X41.7885 Y82.0067
G01 X41.7228 Y82.0145
G01 X41.6607 Y82.0206
G01 X41.5947 Y82.0258
G01 X41.5441 Y82.0289
G01 X41.4780 Y82.0318
G01 X41.4156 Y82.0333
G01 X41.3650 Y82.0338
G01 X39.8916 Y82.0336
G01 X39.8176 Y82.0323
G01 X39.7670 Y82.0304
G01 X39.7009 Y82.0268
G01 X39.6193 Y82.0206
G01 X39.5572 Y82.0145
G01 X39.4915 Y82.0067
G01 X39.4413 Y81.9999
G01 X39.3950 Y81.9929
G01 X39.3297 Y81.9819
G01 X39.2799 Y81.9726
G01 X39.2150 Y81.9594
G01 X39.1542 Y81.9457
G01 X39.0899 Y81.9300
G01 X39.0409 Y81.9171
G01 X38.9771 Y81.8991
G01 X38.9175 Y81.8810
G01 X38.8545 Y81.8605
G01 X38.8066 Y81.8440
G01 X38.7626 Y81.8282
G01 X38.7007 Y81.8047
G01 X38.6537 Y81.7859
G01 X38.5926 Y81.7602
G01 X38.5498 Y81.7413
G01 X38.5038 Y81.7203
G01 X38.4440 Y81.6916
G01 X38.3884 Y81.6636
G01 X38.3298 Y81.6327
G01 X38.2854 Y81.6083
G01 X38.2279 Y81.5753
G01 X38.1878 Y81.5514
G01 X38.1447 Y81.5248
G01 X38.0889 Y81.4891
G01 X38.0371 Y81.4544
G01 X37.9827 Y81.4166
G01 X37.9417 Y81.3869
G01 X37.8887 Y81.3472
G01 X37.8395 Y81.3088
G01 X37.7881 Y81.2671
G01 X37.7493 Y81.2345
G01 X37.7140 Y81.2038
G01 X37.6647 Y81.1596
G01 X37.6276 Y81.1251
G01 X37.5799 Y81.0792
G01 X37.5358 Y81.0351
G01 X37.4899 Y80.9874
G01 X37.4554 Y80.9503
G01 X37.4112 Y80.9010
G01 X37.3704 Y80.8538
G01 X37.3282 Y80.8028
G01 X37.2965 Y80.7633
G01 X37.2560 Y80.7108
G01 X37.2281 Y80.6733
G01 X37.1984 Y80.6323
G01 X37.1716 Y80.5940
G01 X37.1345 Y80.5391
G01 X37.1069 Y80.4967
G01 X37.0717 Y80.4405
G01 X37.0397 Y80.3871
G01 X37.0067 Y80.3296
G01 X36.9823 Y80.2852
G01 X36.9514 Y80.2266
G01 X36.9303 Y80.1849
G01 X36.9081 Y80.1394
G01 X36.8801 Y80.0794
G01 X36.8610 Y80.0367
G01 X36.8411 Y79.9901
G01 X36.8160 Y79.9288
G01 X36.7936 Y79.8707
G01 X36.7710 Y79.8084
G01 X36.7545 Y79.7605
